; generated by Slic3r 0.7.2-dev on 2012-04-10 at 14:09:07

; layer_height = 0.4
; perimeters = 2
; solid_layers = 3
; fill_density = 0.15
; nozzle_diameter = 0.5
; filament_diameter = 1.7
; extrusion_multiplier = 1
; perimeter_speed = 36
; infill_speed = 36
; travel_speed = 200
; extrusion_width_ratio = 1.25
; scale = 1
; single wall width = 0.50mm

M190 S70 ; set bed temperature
M104 S200 ; set temperature
G28
M83
M109 S200 ; wait for temperature to be reached
G90 ; use absolute coordinates
G21 ; set units to millimeters
G92 E0 ; reset extrusion distance
M83 ; use relative distances for extrusion
G1 Z0.400 F12000.000
G1 X68.335 Y47.338
G1 F1800.000 E3.40000
G1 X69.505 Y45.598 F1080.000 E0.18475
G1 X70.055 Y44.918 E0.07706
G1 X71.915 Y43.238 E0.22085
G1 X72.625 Y42.748 E0.07601
G1 X74.585 Y41.718 E0.19510
G1 X74.855 Y41.598 E0.02603
G1 X75.425 Y41.398 E0.05323
G1 X77.565 Y40.888 E0.19384
G1 X77.845 Y40.838 E0.02506
G1 X78.695 Y40.778 E0.07508
G1 X80.605 Y40.788 E0.16830
G1 X81.175 Y40.838 E0.05042
G1 X83.595 Y41.398 E0.21887
G1 X84.165 Y41.598 E0.05323
G1 X86.395 Y42.748 E0.22108
G1 X87.105 Y43.238 E0.07601
G1 X88.755 Y44.708 E0.19472
G1 X88.965 Y44.918 E0.02617
G1 X89.515 Y45.598 E0.07706
G1 X90.585 Y47.178 E0.16814
G1 X90.735 Y47.428 E0.02569
G1 X90.985 Y47.938 E0.05005
G1 X91.775 Y49.998 E0.19440
G1 X91.985 Y50.868 E0.07886
G1 X92.215 Y52.798 E0.17126
G1 X92.255 Y53.488 E0.06090
G1 X92.245 Y73.958 E1.80368
G1 X92.195 Y74.518 E0.04954
G1 X92.015 Y75.358 E0.07570
G1 X91.825 Y75.898 E0.05044
G1 X91.715 Y76.158 E0.02488
G1 X86.375 Y85.458 E0.94493
G1 X86.045 Y85.928 E0.05060
G1 X85.865 Y86.148 E0.02505
G1 X85.465 Y86.558 E0.05047
G1 X85.035 Y86.938 E0.05056
G1 X84.565 Y87.268 E0.05060
G1 X66.845 Y97.508 E1.80333
G1 X64.435 Y98.578 E0.23234
G1 X64.155 Y98.678 E0.02620
G1 X63.585 Y98.828 E0.05193
G1 X61.395 Y99.178 E0.19542
G1 X61.105 Y99.208 E0.02569
G1 X60.825 Y99.218 E0.02469
G1 X60.535 Y99.218 E0.02555
G1 X58.335 Y99.038 E0.19450
G1 X57.755 Y98.938 E0.05186
G1 X55.375 Y98.158 E0.22069
G1 X54.855 Y97.928 E0.05010
G1 X52.985 Y96.778 E0.19344
G1 X52.505 Y96.438 E0.05183
G1 X52.055 Y96.058 E0.05190
G1 X50.535 Y94.468 E0.19382
G1 X50.185 Y94.018 E0.05023
G1 X49.875 Y93.548 E0.04961
G1 X48.915 Y91.878 E0.16973
G1 X48.785 Y91.608 E0.02640
G1 X48.565 Y91.058 E0.05220
G1 X47.955 Y88.938 E0.19438
G1 X47.845 Y88.358 E0.05202
G1 X47.735 Y85.868 E0.21962
G1 X47.765 Y85.298 E0.05029
G1 X48.235 Y82.868 E0.21808
G1 X48.315 Y82.578 E0.02651
G1 X48.515 Y82.028 E0.05157
G1 X49.555 Y79.868 E0.21124
G1 X68.298 Y47.403 E3.30309
G1 F1800.000 E-3.40000
G1 X61.356 Y83.143 F12000.000
G1 F1800.000 E3.40000
G1 X62.189 Y83.488 F900.000 E0.07941
G1 X62.903 Y84.036 E0.07941
G1 X63.452 Y84.751 E0.07941
G1 X63.797 Y85.584 E0.07941
G1 X63.915 Y86.477 E0.07940
G1 X63.797 Y87.371 E0.07940
G1 X63.452 Y88.203 E0.07941
G1 X62.903 Y88.918 E0.07941
G1 X62.189 Y89.467 E0.07941
G1 X61.356 Y89.812 E0.07941
G1 X60.462 Y89.929 E0.07940
G1 X59.569 Y89.812 E0.07940
G1 X58.736 Y89.467 E0.07941
G1 X58.021 Y88.918 E0.07941
G1 X57.473 Y88.203 E0.07941
G1 X57.128 Y87.371 E0.07941
G1 X57.010 Y86.477 E0.07940
G1 X57.128 Y85.584 E0.07940
G1 X57.473 Y84.751 E0.07941
G1 X58.021 Y84.036 E0.07941
G1 X58.736 Y83.488 E0.07941
G1 X59.569 Y83.143 E0.07941
G1 X60.462 Y83.025 E0.07940
G1 X61.282 Y83.133 E0.07280
G1 X61.486 Y82.656 F12000.000
G1 X62.441 Y83.051 F900.000 E0.09101
G1 X63.260 Y83.680 E0.09100
G1 X63.889 Y84.499 E0.09100
G1 X64.284 Y85.453 E0.09101
G1 X64.419 Y86.477 E0.09100
G1 X64.284 Y87.501 E0.09100
G1 X63.889 Y88.456 E0.09101
G1 X63.260 Y89.275 E0.09100
G1 X62.441 Y89.904 E0.09100
G1 X61.486 Y90.299 E0.09101
G1 X60.462 Y90.434 E0.09100
G1 X59.438 Y90.299 E0.09100
G1 X58.484 Y89.904 E0.09101
G1 X57.665 Y89.275 E0.09100
G1 X57.036 Y88.456 E0.09100
G1 X56.641 Y87.501 E0.09101
G1 X56.506 Y86.477 E0.09100
G1 X56.641 Y85.453 E0.09100
G1 X57.036 Y84.499 E0.09101
G1 X57.665 Y83.680 E0.09100
G1 X58.484 Y83.051 E0.09100
G1 X59.438 Y82.656 E0.09101
G1 X60.462 Y82.521 E0.09100
G1 X61.412 Y82.646 E0.08440
G1 F1800.000 E-3.40000
G1 X74.453 Y75.957 F12000.000
G1 F1800.000 E3.40000
G1 X74.113 Y75.136 F900.000 E0.07826
G1 X73.997 Y74.256 E0.07826
G1 X74.113 Y73.375 E0.07826
G1 X74.453 Y72.555 E0.07826
G1 X74.993 Y71.850 E0.07826
G1 X75.698 Y71.309 E0.07826
G1 X76.518 Y70.969 E0.07826
G1 X77.399 Y70.853 E0.07826
G1 X78.279 Y70.969 E0.07826
G1 X79.100 Y71.309 E0.07826
G1 X79.805 Y71.850 E0.07826
G1 X80.345 Y72.555 E0.07826
G1 X80.685 Y73.375 E0.07826
G1 X80.801 Y74.256 E0.07826
G1 X80.685 Y75.136 E0.07826
G1 X80.345 Y75.957 E0.07826
G1 X79.805 Y76.661 E0.07826
G1 X79.100 Y77.202 E0.07826
G1 X78.279 Y77.542 E0.07826
G1 X77.399 Y77.658 E0.07826
G1 X76.518 Y77.542 E0.07826
G1 X75.698 Y77.202 E0.07826
G1 X74.993 Y76.661 E0.07826
G1 X74.498 Y76.016 E0.07165
G1 X74.016 Y76.209 F12000.000
G1 X73.626 Y75.267 F900.000 E0.08986
G1 X73.492 Y74.256 E0.08986
G1 X73.626 Y73.245 E0.08986
G1 X74.016 Y72.302 E0.08986
G1 X74.637 Y71.493 E0.08986
G1 X75.446 Y70.873 E0.08986
G1 X76.388 Y70.482 E0.08986
G1 X77.399 Y70.349 E0.08986
G1 X78.410 Y70.482 E0.08986
G1 X79.352 Y70.873 E0.08986
G1 X80.161 Y71.493 E0.08986
G1 X80.782 Y72.302 E0.08986
G1 X81.172 Y73.245 E0.08986
G1 X81.305 Y74.256 E0.08986
G1 X81.172 Y75.267 E0.08986
G1 X80.782 Y76.209 E0.08986
G1 X80.161 Y77.018 E0.08986
G1 X79.352 Y77.639 E0.08986
G1 X78.410 Y78.029 E0.08986
G1 X77.399 Y78.162 E0.08986
G1 X76.388 Y78.029 E0.08986
G1 X75.446 Y77.639 E0.08986
G1 X74.637 Y77.018 E0.08986
G1 X74.061 Y76.268 E0.08325
G1 F1800.000 E-3.40000
G1 X78.621 Y56.812 F12000.000
G1 F1800.000 E3.40000
G1 X77.789 Y56.467 F900.000 E0.07941
G1 X77.074 Y55.918 E0.07941
G1 X76.525 Y55.203 E0.07941
G1 X76.180 Y54.371 E0.07941
G1 X76.063 Y53.477 E0.07941
G1 X76.180 Y52.584 E0.07941
G1 X76.525 Y51.751 E0.07941
G1 X77.074 Y51.036 E0.07941
G1 X77.789 Y50.488 E0.07941
G1 X78.621 Y50.143 E0.07941
G1 X79.515 Y50.025 E0.07941
G1 X80.408 Y50.143 E0.07941
G1 X81.241 Y50.488 E0.07941
G1 X81.956 Y51.036 E0.07941
G1 X82.505 Y51.751 E0.07941
G1 X82.849 Y52.584 E0.07941
G1 X82.967 Y53.477 E0.07941
G1 X82.849 Y54.371 E0.07941
G1 X82.505 Y55.203 E0.07941
G1 X81.956 Y55.918 E0.07941
G1 X81.241 Y56.467 E0.07941
G1 X80.408 Y56.812 E0.07941
G1 X79.515 Y56.929 E0.07941
G1 X78.696 Y56.822 E0.07280
G1 X78.491 Y57.299 F12000.000
G1 X77.537 Y56.904 F900.000 E0.09101
G1 X76.717 Y56.275 E0.09101
G1 X76.089 Y55.456 E0.09101
G1 X75.693 Y54.501 E0.09101
G1 X75.558 Y53.477 E0.09101
G1 X75.693 Y52.453 E0.09101
G1 X76.089 Y51.499 E0.09101
G1 X76.717 Y50.680 E0.09101
G1 X77.537 Y50.051 E0.09101
G1 X78.491 Y49.656 E0.09101
G1 X79.515 Y49.521 E0.09101
G1 X80.539 Y49.656 E0.09101
G1 X81.493 Y50.051 E0.09101
G1 X82.313 Y50.680 E0.09101
G1 X82.941 Y51.499 E0.09101
G1 X83.337 Y52.453 E0.09101
G1 X83.471 Y53.477 E0.09101
G1 X83.337 Y54.501 E0.09101
G1 X82.941 Y55.456 E0.09101
G1 X82.313 Y56.275 E0.09101
G1 X81.493 Y56.904 E0.09101
G1 X80.539 Y57.299 E0.09101
G1 X79.515 Y57.434 E0.09101
G1 X78.565 Y57.309 E0.08440
G1 F1800.000 E-3.40000
G1 X73.265 Y53.523 F12000.000
G1 F1800.000 E3.40000
G1 X73.452 Y51.983 F1080.000 E0.13667
G1 X73.986 Y50.575 E0.13264
G1 X74.841 Y49.336 E0.13264
G1 X75.968 Y48.338 E0.13264
G1 X77.301 Y47.639 E0.13264
G1 X78.762 Y47.278 E0.13264
G1 X80.268 Y47.278 E0.13264
G1 X81.729 Y47.639 E0.13264
G1 X83.062 Y48.338 E0.13264
G1 X84.189 Y49.336 E0.13264
G1 X85.044 Y50.575 E0.13264
G1 X85.578 Y51.983 E0.13264
G1 X85.765 Y53.523 E0.13667
G1 X85.765 Y73.544 E1.76417
G1 X80.966 Y81.856 E0.84572
G1 X63.627 Y91.867 E1.76418
G1 X62.200 Y92.475 E0.13666
G1 X60.714 Y92.717 E0.13265
G1 X59.213 Y92.596 E0.13264
G1 X57.785 Y92.119 E0.13264
G1 X56.513 Y91.314 E0.13265
G1 X55.470 Y90.229 E0.13264
G1 X54.718 Y88.925 E0.13264
G1 X54.299 Y87.479 E0.13265
G1 X54.238 Y85.975 E0.13265
G1 X54.539 Y84.500 E0.13264
G1 X55.185 Y83.140 E0.13264
G1 X56.137 Y81.974 E0.13264
G1 X57.377 Y81.042 E0.13667
G1 X69.600 Y73.985 E1.24365
G1 X73.265 Y67.637 E0.64588
G1 X73.265 Y53.598 E1.23703
G1 X72.765 Y53.492 F12000.000
G1 X72.963 Y51.862 F1080.000 E0.14469
G1 X73.540 Y50.341 E0.14334
G1 X74.464 Y49.002 E0.14334
G1 X75.682 Y47.924 E0.14334
G1 X77.122 Y47.168 E0.14334
G1 X78.702 Y46.778 E0.14334
G1 X80.328 Y46.778 E0.14334
G1 X81.908 Y47.168 E0.14334
G1 X83.348 Y47.924 E0.14334
G1 X84.566 Y49.002 E0.14334
G1 X85.490 Y50.341 E0.14334
G1 X86.067 Y51.862 E0.14334
G1 X86.265 Y53.492 E0.14469
G1 X86.265 Y73.678 E1.77864
G1 X81.332 Y82.223 E0.86933
G1 X63.850 Y92.315 E1.77865
G1 X62.340 Y92.959 E0.14468
G1 X60.734 Y93.220 E0.14335
G1 X59.113 Y93.089 E0.14334
G1 X57.570 Y92.574 E0.14334
G1 X56.195 Y91.704 E0.14335
G1 X55.068 Y90.531 E0.14334
G1 X54.254 Y89.122 E0.14334
G1 X53.802 Y87.560 E0.14335
G1 X53.736 Y85.934 E0.14335
G1 X54.062 Y84.340 E0.14334
G1 X54.759 Y82.871 E0.14334
G1 X55.788 Y81.611 E0.14334
G1 X57.100 Y80.624 E0.14468
G1 X69.234 Y73.619 E1.23451
G1 X72.765 Y67.503 E0.62227
G1 X72.765 Y53.567 E1.22789
G1 X73.627 Y53.387 F12000.000
G1 X75.584 Y55.344 F960.000 E0.24511
G1 X75.291 Y54.341 F12000.000
G1 X73.703 Y52.754 F960.000 E0.19877
G1 X73.780 Y52.122 F12000.000
G1 X75.205 Y53.547 F960.000 E0.17843
G1 X75.288 Y52.920 F12000.000
G1 X73.945 Y51.577 F960.000 E0.16808
G1 X74.140 Y51.063 F12000.000
G1 X75.404 Y52.327 F960.000 E0.15827
G1 X75.612 Y51.826 F12000.000
G1 X74.357 Y50.571 F960.000 E0.15712
G1 X74.647 Y50.151 F12000.000
G1 X75.833 Y51.337 F960.000 E0.14847
G1 X76.141 Y50.936 F12000.000
G1 X74.937 Y49.732 F960.000 E0.15077
G1 X75.271 Y49.357 F12000.000
G1 X76.449 Y50.534 F960.000 E0.14746
G1 X76.834 Y50.210 F12000.000
G1 X75.647 Y49.023 F960.000 E0.14859
G1 X76.023 Y48.690 F12000.000
G1 X77.235 Y49.902 F960.000 E0.15175
G1 X77.689 Y49.647 F12000.000
G1 X76.467 Y48.425 F960.000 E0.15298
G1 X76.932 Y48.181 F12000.000
G1 X78.191 Y49.439 F960.000 E0.15753
G1 X78.740 Y49.279 F12000.000
G1 X77.411 Y47.950 F960.000 E0.16636
G1 X77.980 Y47.810 F12000.000
G1 X79.366 Y49.196 F960.000 E0.17359
G1 X80.095 Y49.216 F12000.000
G1 X78.549 Y47.670 F960.000 E0.19361
G1 X79.226 Y47.637 F12000.000
G1 X80.961 Y49.372 F960.000 E0.21728
G1 X81.989 Y48.273 F12000.000
G1 X84.784 Y51.067 F960.000 E0.34992
G1 X85.217 Y52.210 F12000.000
G1 X80.834 Y47.826 F960.000 E0.54888
G1 X79.935 Y47.637 F12000.000
G1 X82.604 Y50.306 F960.000 E0.33424
G1 X82.686 Y50.388 F12000.000
G1 X85.325 Y53.027 F960.000 E0.33049
G1 X83.620 Y52.031 F12000.000
G1 X85.406 Y53.818 F960.000 E0.22367
G1 X85.406 Y54.527 E0.06280
G1 X83.777 Y52.897 E0.20409
G1 X83.796 Y53.626 E0.06456
G1 X85.406 Y55.236 E0.20164
G1 X85.406 Y55.945 E0.06280
G1 X83.714 Y54.253 E0.21197
G1 X83.553 Y54.802 F12000.000
G1 X85.406 Y56.655 F960.000 E0.23204
G1 X85.406 Y57.364 E0.06280
G1 X83.346 Y55.303 E0.25805
G1 X83.090 Y55.757 F12000.000
G1 X85.406 Y58.073 F960.000 E0.29003
G1 X85.406 Y58.783 E0.06280
G1 X82.782 Y56.159 E0.32859
G1 X82.458 Y56.544 F12000.000
G1 X85.406 Y59.492 F960.000 E0.36919
G1 X85.406 Y60.201 E0.06280
G1 X82.057 Y56.852 E0.41944
G1 X81.655 Y57.160 E0.04479
G1 X85.406 Y60.911 E0.46970
G1 X85.406 Y61.620 E0.06280
G1 X81.167 Y57.380 E0.53089
G1 X80.665 Y57.588 E0.04807
G1 X85.406 Y62.329 E0.59370
G1 X85.406 Y63.038 E0.06280
G1 X80.073 Y57.705 E0.66789
G1 X79.446 Y57.787 E0.05598
G1 X85.406 Y63.748 E0.74638
G1 X85.406 Y64.457 E0.06280
G1 X78.651 Y57.702 E0.84592
G1 X77.648 Y57.408 E0.09249
G1 X85.406 Y65.166 E0.97146
G1 X85.406 Y65.876 E0.06280
G1 X73.624 Y54.093 E1.47543
G1 X73.624 Y54.802 E0.06280
G1 X85.406 Y66.585 E1.47543
G1 X85.406 Y67.294 E0.06280
G1 X73.624 Y55.511 E1.47543
G1 X73.624 Y56.221 E0.06280
G1 X85.406 Y68.004 E1.47543
G1 X85.406 Y68.713 E0.06280
G1 X73.624 Y56.930 E1.47543
G1 X73.624 Y57.639 E0.06280
G1 X85.406 Y69.422 E1.47543
G1 X85.406 Y70.131 E0.06280
G1 X73.624 Y58.349 E1.47543
G1 X73.624 Y59.058 E0.06280
G1 X85.406 Y70.841 E1.47543
G1 X85.406 Y71.550 E0.06280
G1 X73.624 Y59.767 E1.47543
G1 X73.624 Y60.477 E0.06280
G1 X85.406 Y72.259 E1.47543
G1 X85.406 Y72.969 E0.06280
G1 X73.624 Y61.186 E1.47543
G1 X73.624 Y61.895 E0.06280
G1 X85.360 Y73.632 E1.46964
G1 X85.101 Y74.081 E0.04598
G1 X73.624 Y62.604 E1.43714
G1 X73.624 Y63.314 E0.06280
G1 X84.841 Y74.531 E1.40463
G1 X84.581 Y74.981 E0.04598
G1 X73.624 Y64.023 E1.37212
G1 X73.624 Y64.732 E0.06280
G1 X79.272 Y70.381 E0.70733
G1 X78.263 Y70.081 F12000.000
G1 X73.624 Y65.442 F960.000 E0.58099
G1 X73.624 Y66.151 F12000.000
G1 X77.468 Y69.996 F960.000 E0.48145
G1 X76.842 Y70.078 F12000.000
G1 X73.624 Y66.860 F960.000 E0.40296
G1 X73.624 Y67.569 F12000.000
G1 X76.252 Y70.198 F960.000 E0.32908
G1 X75.750 Y70.405 F12000.000
G1 X73.386 Y68.041 F960.000 E0.29604
G1 X73.126 Y68.491 F12000.000
G1 X75.266 Y70.630 F960.000 E0.26791
G1 X74.864 Y70.938 F12000.000
G1 X72.867 Y68.940 F960.000 E0.25017
G1 X72.607 Y69.390 F12000.000
G1 X74.463 Y71.246 F960.000 E0.23242
G1 X74.145 Y71.638 F12000.000
G1 X72.347 Y69.840 F960.000 E0.22516
G1 X72.088 Y70.289 F12000.000
G1 X73.837 Y72.039 F960.000 E0.21910
G1 X73.592 Y72.503 F12000.000
G1 X71.828 Y70.739 F960.000 E0.22083
G1 X71.568 Y71.189 F12000.000
G1 X73.384 Y73.004 F960.000 E0.22733
G1 X73.239 Y73.568 F12000.000
G1 X71.309 Y71.639 F960.000 E0.24165
G1 X71.049 Y72.088 F12000.000
G1 X73.156 Y74.195 F960.000 E0.26383
G1 X73.202 Y74.951 F12000.000
G1 X70.790 Y72.538 F960.000 E0.30214
G1 X70.530 Y72.988 F12000.000
G1 X73.420 Y75.878 F960.000 E0.36194
G1 X81.024 Y76.389 F12000.000
G1 X82.764 Y78.129 F960.000 E0.21785
G1 X82.504 Y78.578 E0.04598
G1 X80.716 Y76.790 E0.22390
G1 X80.408 Y77.192 E0.04479
G1 X82.245 Y79.028 E0.22995
G1 X81.985 Y79.478 E0.04598
G1 X80.017 Y77.509 E0.24649
G1 X79.615 Y77.817 E0.04479
G1 X81.725 Y79.927 E0.26423
G1 X81.466 Y80.377 E0.04598
G1 X79.152 Y78.063 E0.28976
G1 X78.650 Y78.271 E0.04807
G1 X81.206 Y80.827 E0.32005
G1 X80.947 Y81.276 E0.04598
G1 X78.086 Y78.416 E0.35818
G1 X77.459 Y78.498 E0.05598
G1 X80.647 Y81.686 E0.39917
G1 X80.198 Y81.946 E0.04598
G1 X76.704 Y78.452 E0.43748
G1 X75.777 Y78.234 E0.08434
G1 X79.748 Y82.205 E0.49728
G1 X79.298 Y82.465 E0.04598
G1 X70.270 Y73.437 E1.13045
G1 X70.011 Y73.887 E0.04598
G1 X78.849 Y82.725 E1.10666
G1 X78.399 Y82.984 E0.04598
G1 X69.697 Y74.283 E1.08958
G1 X69.248 Y74.542 E0.04598
G1 X77.949 Y83.244 E1.08958
G1 X77.499 Y83.504 E0.04598
G1 X68.798 Y74.802 E1.08958
G1 X68.348 Y75.062 E0.04598
G1 X77.050 Y83.763 E1.08958
G1 X76.600 Y84.023 E0.04598
G1 X67.899 Y75.321 E1.08958
G1 X67.449 Y75.581 E0.04598
G1 X76.150 Y84.282 E1.08958
G1 X75.701 Y84.542 E0.04598
G1 X66.999 Y75.841 E1.08958
G1 X66.550 Y76.100 E0.04598
G1 X75.251 Y84.802 E1.08958
G1 X74.801 Y85.061 E0.04598
G1 X66.100 Y76.360 E1.08958
G1 X65.650 Y76.619 E0.04598
G1 X74.352 Y85.321 E1.08958
G1 X73.902 Y85.581 E0.04598
G1 X65.201 Y76.879 E1.08958
G1 X64.751 Y77.139 E0.04598
G1 X73.452 Y85.840 E1.08958
G1 X73.003 Y86.100 E0.04598
G1 X64.301 Y77.398 E1.08958
G1 X63.852 Y77.658 E0.04598
G1 X72.553 Y86.359 E1.08958
G1 X72.103 Y86.619 E0.04598
G1 X63.402 Y77.918 E1.08958
G1 X62.952 Y78.177 E0.04598
G1 X71.654 Y86.879 E1.08958
G1 X71.204 Y87.138 E0.04598
G1 X62.503 Y78.437 E1.08958
G1 X62.053 Y78.696 E0.04598
G1 X70.754 Y87.398 E1.08958
G1 X70.305 Y87.658 E0.04598
G1 X61.603 Y78.956 E1.08958
G1 X61.153 Y79.216 E0.04598
G1 X69.855 Y87.917 E1.08958
G1 X69.405 Y88.177 E0.04598
G1 X60.704 Y79.475 E1.08958
G1 X60.254 Y79.735 E0.04598
G1 X68.956 Y88.436 E1.08958
G1 X68.506 Y88.696 F12000.000
G1 X64.374 Y84.564 F960.000 E0.51736
G1 X64.683 Y85.582 F12000.000
G1 X68.056 Y88.956 F960.000 E0.42245
G1 X67.607 Y89.215 F12000.000
G1 X64.775 Y86.384 F960.000 E0.35451
G1 X64.693 Y87.011 F12000.000
G1 X67.157 Y89.475 F960.000 E0.30853
G1 X66.707 Y89.734 F12000.000
G1 X64.581 Y87.608 F960.000 E0.26624
G1 X64.373 Y88.110 F12000.000
G1 X66.258 Y89.994 F960.000 E0.23595
G1 X65.808 Y90.254 F12000.000
G1 X64.156 Y88.602 F960.000 E0.20679
G1 X63.848 Y89.004 F12000.000
G1 X65.358 Y90.513 F960.000 E0.18904
G1 X64.909 Y90.773 F12000.000
G1 X63.540 Y89.405 F960.000 E0.17130
G1 X63.159 Y89.733 F12000.000
G1 X64.459 Y91.033 F960.000 E0.16277
G1 X64.009 Y91.292 F12000.000
G1 X62.758 Y90.041 F960.000 E0.15671
G1 X62.308 Y90.300 F12000.000
