; generated by Slic3r 1.0.0RC2 on 2014-09-16 at 20:57:42

; layer_height = 0.24
; perimeters = 2
; top_solid_layers = 4
; bottom_solid_layers = 3
; fill_density = 0.3
; perimeter_speed = 20
; infill_speed = 20
; travel_speed = 60
; nozzle_diameter = 0.5
; filament_diameter = 1.75
; extrusion_multiplier = 1
; perimeters extrusion width = 0.50mm
; infill extrusion width = 0.87mm
; solid infill extrusion width = 0.85mm
; top infill extrusion width = 0.85mm

G21 ; set units to millimeters
G90 ; use absolute coordinates
M83 ; use relative distances for extrusion
M140 S65; Set bed temperature
G28 ; Home all axes
G1 Z5 F200 ; lift nozzle
G1 X2 Y50 F2000; Go to wait for warm position
M116; Wait for all temperatures
G10 P1 S200 R0 ; Set extruder temperature
T1; Select extruder
M116; Wait for all temperatures
G1 F1800.000 E-4.00000
G1 Z0.240 F3600.000
G1 X88.720 Y89.785 F3600.000
G1 E4.00000 F1800.000
G1 X105.040 Y72.365 E1.19090 F600.000
G1 X105.520 Y71.875 E0.03422
G1 X106.260 Y71.185 E0.05048
G1 X107.040 Y70.525 E0.05098
G1 X107.440 Y70.215 E0.02525
G1 X108.210 Y69.675 E0.04692
G1 X109.190 Y69.055 E0.05786
G1 X109.790 Y68.725 E0.03416
G1 X111.070 Y68.105 E0.07096
G1 X111.950 Y67.745 E0.04744
G1 X112.620 Y67.505 E0.03551
G1 X113.640 Y67.195 E0.05319
G1 X114.620 Y66.955 E0.05034
G1 X116.020 Y66.715 E0.07087
G1 X117.090 Y66.595 E0.05372
G1 X118.170 Y66.545 E0.05394
G1 X119.190 Y66.555 E0.05089
G1 X119.900 Y66.595 E0.03548
G1 X120.970 Y66.715 E0.05372
G1 X122.370 Y66.955 E0.07087
G1 X123.350 Y67.195 E0.05034
G1 X124.370 Y67.505 E0.05319
G1 X125.040 Y67.745 E0.03551
G1 X125.920 Y68.105 E0.04744
G1 X127.200 Y68.725 E0.07096
G1 X128.230 Y69.315 E0.05922
G1 X129.550 Y70.215 E0.07971
G1 X130.480 Y70.965 E0.05961
G1 X131.230 Y71.645 E0.05051
G1 X131.950 Y72.365 E0.05080
G1 X132.240 Y72.675 E0.02118
G1 X132.900 Y73.455 E0.05098
G1 X133.330 Y74.015 E0.03522
G1 X134.120 Y75.175 E0.07002
G1 X134.660 Y76.085 E0.05279
G1 X134.980 Y76.695 E0.03437
G1 X135.420 Y77.655 E0.05269
G1 X135.790 Y78.565 E0.04901
G1 X136.150 Y79.655 E0.05727
G1 X136.420 Y80.645 E0.05120
G1 X136.700 Y81.995 E0.06879
G1 X136.800 Y82.665 E0.03380
G1 X136.850 Y83.065 E0.02011
G1 X136.930 Y84.125 E0.05303
G1 X136.950 Y84.805 E0.03394
G1 X136.950 Y115.185 E1.51566
G1 X136.910 Y116.235 E0.05242
G1 X136.850 Y116.925 E0.03455
G1 X136.700 Y117.995 E0.05390
G1 X136.640 Y118.305 E0.01575
G1 X136.430 Y119.325 E0.05196
G1 X136.250 Y120.015 E0.03558
G1 X135.940 Y121.025 E0.05271
G1 X135.440 Y122.295 E0.06809
G1 X134.960 Y123.345 E0.05760
G1 X134.640 Y123.945 E0.03393
G1 X134.120 Y124.815 E0.05057
G1 X133.330 Y125.975 E0.07002
G1 X132.670 Y126.815 E0.05330
G1 X132.240 Y127.315 E0.03290
G1 X131.470 Y128.115 E0.05540
G1 X130.730 Y128.805 E0.05048
G1 X129.950 Y129.465 E0.05098
G1 X129.550 Y129.775 E0.02525
G1 X128.780 Y130.315 E0.04692
G1 X127.800 Y130.935 E0.05786
G1 X127.200 Y131.265 E0.03416
G1 X125.920 Y131.885 E0.07096
G1 X125.040 Y132.245 E0.04744
G1 X124.370 Y132.485 E0.03551
G1 X123.350 Y132.795 E0.05319
G1 X122.370 Y133.035 E0.05034
G1 X121.910 Y133.125 E0.02338
G1 X120.970 Y133.275 E0.04749
G1 X119.900 Y133.395 E0.05372
G1 X118.820 Y133.445 E0.05394
G1 X117.790 Y133.435 E0.05139
G1 X116.720 Y133.365 E0.05350
G1 X116.040 Y133.285 E0.03416
G1 X114.660 Y133.045 E0.06988
G1 X113.970 Y132.885 E0.03534
G1 X112.640 Y132.495 E0.06915
G1 X111.990 Y132.265 E0.03440
G1 X111.050 Y131.885 E0.05058
G1 X109.790 Y131.265 E0.07006
G1 X109.190 Y130.935 E0.03416
G1 X108.210 Y130.315 E0.05786
G1 X107.440 Y129.775 E0.04692
G1 X106.510 Y129.025 E0.05961
G1 X105.520 Y128.115 E0.06709
G1 X104.750 Y127.315 E0.05540
G1 X104.320 Y126.815 E0.03290
G1 X88.210 Y107.655 E1.24889
G1 X87.830 Y107.175 E0.03054
G1 X87.490 Y106.705 E0.02894
G1 X87.050 Y106.035 E0.03999
G1 X86.680 Y105.405 E0.03645
G1 X86.320 Y104.695 E0.03972
G1 X86.020 Y104.005 E0.03754
G1 X85.740 Y103.245 E0.04041
G1 X85.560 Y102.675 E0.02982
G1 X85.450 Y102.265 E0.02118
G1 X85.320 Y101.655 E0.03112
G1 X85.190 Y100.875 E0.03945
G1 X85.110 Y100.205 E0.03366
G1 X85.060 Y99.395 E0.04049
G1 X85.060 Y98.575 E0.04091
G1 X85.110 Y97.795 E0.03899
G1 X85.230 Y96.875 E0.04629
G1 X85.320 Y96.355 E0.02633
G1 X85.500 Y95.565 E0.04042
G1 X85.730 Y94.775 E0.04105
G1 X86.000 Y94.035 E0.03930
G1 X86.390 Y93.155 E0.04802
G1 X86.690 Y92.575 E0.03258
G1 X87.090 Y91.895 E0.03936
G1 X87.460 Y91.335 E0.03349
G1 X87.940 Y90.685 E0.04031
G1 X88.350 Y90.185 E0.03226
G1 X88.667 Y89.838 E0.02345
G1 F1800.000 E-4.00000
G1 X94.506 Y95.393 F3600.000
G1 E4.00000 F1800.000
G1 X94.770 Y95.121 E0.01888 F600.000
G1 X95.306 Y94.669 E0.03496
G1 X95.602 Y94.466 E0.01796
G1 X96.233 Y94.120 E0.03589
G1 X96.582 Y93.973 E0.01888
G1 X97.252 Y93.766 E0.03496
G1 X97.961 Y93.647 E0.03589
G1 X98.320 Y93.623 E0.01796
G1 X99.039 Y93.647 E0.03589
G1 X99.396 Y93.695 E0.01796
G1 X99.748 Y93.766 E0.01796
G1 X100.436 Y93.979 E0.03589
G1 X100.767 Y94.120 E0.01796
G1 X101.398 Y94.466 E0.03589
G1 X101.694 Y94.669 E0.01796
G1 X102.244 Y95.134 E0.03589
G1 X102.494 Y95.393 E0.01795
G1 X102.940 Y95.957 E0.03589
G1 X103.134 Y96.260 E0.01796
G1 X103.458 Y96.903 E0.03589
G1 X103.688 Y97.564 E0.03496
G1 X103.777 Y97.932 E0.01888
G1 X103.837 Y98.287 E0.01796
G1 X103.885 Y99.005 E0.03589
G1 X103.837 Y99.723 E0.03589
G1 X103.694 Y100.428 E0.03589
G1 X103.587 Y100.771 E0.01796
G1 X103.458 Y101.107 E0.01796
G1 X103.134 Y101.749 E0.03589
G1 X102.726 Y102.342 E0.03589
G1 X102.494 Y102.617 E0.01796
G1 X102.244 Y102.876 E0.01795
G1 X101.694 Y103.340 E0.03589
G1 X101.398 Y103.544 E0.01796
G1 X100.767 Y103.890 E0.03589
G1 X100.436 Y104.030 E0.01795
G1 X99.748 Y104.243 E0.03589
G1 X99.396 Y104.315 E0.01795
G1 X98.680 Y104.387 E0.03589
G1 X97.961 Y104.363 E0.03589
G1 X97.604 Y104.315 E0.01796
G1 X97.252 Y104.243 E0.01796
G1 X96.564 Y104.030 E0.03589
G1 X96.233 Y103.890 E0.01796
G1 X95.602 Y103.544 E0.03589
G1 X95.023 Y103.117 E0.03589
G1 X94.756 Y102.876 E0.01796
G1 X94.274 Y102.342 E0.03589
G1 X94.060 Y102.053 E0.01796
G1 X93.694 Y101.434 E0.03589
G1 X93.542 Y101.107 E0.01796
G1 X93.306 Y100.428 E0.03589
G1 X93.223 Y100.078 E0.01796
G1 X93.163 Y99.723 E0.01796
G1 X93.120 Y99.296 E0.02139
G1 X93.105 Y99.296 E0.00074
G1 X93.127 Y98.645 E0.03250
G1 X93.163 Y98.287 E0.01796
G1 X93.223 Y97.932 E0.01796
G1 X93.413 Y97.238 E0.03589
G1 X93.542 Y96.903 E0.01796
G1 X93.866 Y96.260 E0.03589
G1 X94.060 Y95.957 E0.01796
G1 X94.458 Y95.450 E0.03215
G1 X94.391 Y95.032 F3600.000
G1 X93.639 Y94.403 F3600.000
G1 X94.195 Y93.879 E0.03816 F420.000
G1 X94.821 Y93.413 E0.03892
G1 X95.483 Y93.030 E0.03818
G1 X95.850 Y92.858 E0.02022
G1 X96.569 Y92.596 E0.03816
G1 X96.960 Y92.490 E0.02022
G1 X97.729 Y92.356 E0.03892
G1 X98.492 Y92.311 E0.03816
G1 X98.898 Y92.323 E0.02022
G1 X99.657 Y92.412 E0.03816
G1 X100.417 Y92.591 E0.03892
G1 X100.801 Y92.719 E0.02022
G1 X101.503 Y93.022 E0.03816
G1 X102.166 Y93.405 E0.03818
G1 X102.499 Y93.637 E0.02022
G1 X103.096 Y94.138 E0.03892
G1 X103.621 Y94.695 E0.03816
G1 X103.873 Y95.012 E0.02022
G1 X104.293 Y95.651 E0.03816
G1 X104.644 Y96.348 E0.03892
G1 X104.794 Y96.725 E0.02022
G1 X105.013 Y97.458 E0.03816
G1 X105.148 Y98.226 E0.03892
G1 X105.183 Y98.630 E0.02022
G1 X105.183 Y99.395 E0.03818
G1 X105.094 Y100.155 E0.03816
G1 X105.013 Y100.552 E0.02022
G1 X104.788 Y101.299 E0.03892
G1 X104.479 Y102.015 E0.03892
G1 X104.096 Y102.678 E0.03816
G1 X103.864 Y103.010 E0.02022
G1 X103.372 Y103.595 E0.03816
G1 X102.805 Y104.131 E0.03892
G1 X102.486 Y104.382 E0.02022
G1 X101.847 Y104.802 E0.03817
G1 X101.163 Y105.146 E0.03817
G1 X100.787 Y105.296 E0.02022
G1 X100.040 Y105.519 E0.03892
G1 X99.286 Y105.652 E0.03816
G1 X98.882 Y105.688 E0.02022
G1 X98.118 Y105.688 E0.03816
G1 X97.343 Y105.598 E0.03892
G1 X96.946 Y105.516 E0.02022
G1 X96.213 Y105.296 E0.03816
G1 X95.497 Y104.987 E0.03892
G1 X94.834 Y104.605 E0.03818
G1 X94.501 Y104.373 E0.02022
G1 X93.904 Y103.872 E0.03892
G1 X93.379 Y103.315 E0.03816
G1 X93.127 Y102.997 E0.02022
G1 X92.699 Y102.345 E0.03892
G1 X92.356 Y101.662 E0.03816
G1 X92.206 Y101.285 E0.02022
G1 X91.987 Y100.552 E0.03816
G1 X91.906 Y100.155 E0.02022
G1 X91.817 Y99.395 E0.03816
G1 X91.817 Y98.615 E0.03894
G1 X91.906 Y97.855 E0.03816
G1 X91.987 Y97.458 E0.02022
G1 X92.212 Y96.711 E0.03892
G1 X92.514 Y96.008 E0.03816
G1 X92.707 Y95.651 E0.02022
G1 X93.127 Y95.012 E0.03816
G1 X93.588 Y94.459 E0.03593
G1 X94.123 Y94.528 F3600.000
G1 X94.122 Y94.627 F3600.000
G1 X94.487 Y94.262 E0.02656 F300.000
G1 X94.738 Y94.513 E0.01828 F300.000
G1 X95.153 Y94.199 E0.02681 F300.000
G1 X94.894 Y93.940 E0.01884 F300.000
G1 X95.336 Y93.652 E0.02714 F300.000
G1 X95.600 Y93.916 E0.01921 F300.000
G1 X96.082 Y93.669 E0.02791 F300.000
G1 X95.812 Y93.399 E0.01967 F300.000
G1 X96.323 Y93.180 E0.02862 F300.000
G1 X96.606 Y93.463 E0.02060 F300.000
G1 X96.877 Y93.004 E0.02744 F300.000
G1 X97.172 Y93.299 E0.02148 F300.000
G1 X97.474 Y92.872 E0.02694 F300.000
G1 X97.793 Y93.191 E0.02322 F300.000
G1 X98.129 Y92.797 E0.02665 F300.000
G1 X98.481 Y93.148 E0.02562 F300.000
G1 X98.857 Y92.796 E0.02657 F300.000
G1 X99.260 Y93.198 E0.02929 F300.000
G1 X99.695 Y92.903 E0.02705 F300.000
G1 X100.186 Y93.395 E0.03575 F300.000
G1 X100.717 Y93.196 E0.02920 F300.000
G1 X101.491 Y93.970 E0.05632 F300.000
G1 X102.466 Y94.215 E0.05177 F300.000
G1 X103.290 Y95.039 E0.06000 F300.000
G1 X103.544 Y96.023 E0.05229 F300.000
G1 X104.309 Y96.788 E0.05568 F300.000
G1 X104.108 Y97.316 E0.02912 F300.000
G1 X104.601 Y97.810 E0.03592 F300.000
G1 X104.310 Y98.248 E0.02709 F300.000
G1 X104.709 Y98.647 E0.02907 F300.000
G1 X104.359 Y99.027 E0.02658 F300.000
G1 X104.708 Y99.376 E0.02542 F300.000
G1 X104.315 Y99.712 E0.02664 F300.000
G1 X104.633 Y100.030 E0.02317 F300.000
G1 X104.204 Y100.331 E0.02696 F300.000
G1 X104.501 Y100.628 E0.02162 F300.000
G1 X104.044 Y100.900 E0.02741 F300.000
G1 X104.325 Y101.182 E0.02047 F300.000
G1 X103.835 Y101.421 E0.02808 F300.000
G1 X104.106 Y101.693 E0.01976 F300.000
G1 X103.853 Y102.169 E0.02777 F300.000
G1 X103.589 Y101.905 E0.01922 F300.000
G1 X103.308 Y102.353 E0.02724 F300.000
G1 X103.565 Y102.611 E0.01874 F300.000
G1 X103.243 Y103.018 E0.02674 F300.000
G1 X102.990 Y102.765 E0.01840 F300.000
G1 X102.642 Y103.147 E0.02659 F300.000
G1 X102.878 Y103.383 E0.01719 F300.000
G1 X102.513 Y103.748 E0.02656 F300.000
G1 X102.262 Y103.496 E0.01828 F300.000
G1 X101.847 Y103.811 E0.02681 F300.000
G1 X102.106 Y104.070 E0.01884 F300.000
G1 X101.664 Y104.358 E0.02714 F300.000
G1 X101.400 Y104.094 E0.01921 F300.000
G1 X100.918 Y104.341 E0.02791 F300.000
G1 X101.188 Y104.611 E0.01967 F300.000
G1 X100.677 Y104.830 E0.02862 F300.000
G1 X100.394 Y104.547 E0.02060 F300.000
G1 X100.123 Y105.006 E0.02744 F300.000
G1 X99.828 Y104.711 E0.02148 F300.000
G1 X99.526 Y105.138 E0.02694 F300.000
G1 X99.207 Y104.819 E0.02322 F300.000
G1 X98.871 Y105.213 E0.02665 F300.000
G1 X98.519 Y104.861 E0.02562 F300.000
G1 X98.143 Y105.214 E0.02657 F300.000
G1 X97.740 Y104.812 E0.02929 F300.000
G1 X97.305 Y105.106 E0.02705 F300.000
G1 X96.814 Y104.615 E0.03575 F300.000
G1 X96.283 Y104.814 E0.02920 F300.000
G1 X95.509 Y104.040 E0.05632 F300.000
G1 X94.534 Y103.795 F3600.000
G1 X93.710 Y102.970 E0.06000 F300.000
G1 X93.456 Y101.987 E0.05229 F300.000
G1 X92.691 Y101.222 E0.05568 F300.000
G1 X92.892 Y100.693 E0.02912 F300.000
G1 X92.399 Y100.200 E0.03592 F300.000
G1 X92.617 Y99.689 E0.02861 F300.000
G1 X92.291 Y99.363 E0.02377 F300.000
G1 X92.641 Y98.983 E0.02658 F300.000
G1 X92.292 Y98.634 E0.02542 F300.000
G1 X92.685 Y98.298 E0.02664 F300.000
G1 X92.367 Y97.979 E0.02317 F300.000
G1 X92.796 Y97.678 E0.02696 F300.000
G1 X92.499 Y97.381 E0.02162 F300.000
G1 X92.956 Y97.109 E0.02741 F300.000
G1 X92.675 Y96.828 E0.02047 F300.000
G1 X93.165 Y96.588 E0.02808 F300.000
G1 X92.894 Y96.317 E0.01976 F300.000
G1 X93.147 Y95.841 E0.02777 F300.000
G1 X93.411 Y96.105 E0.01922 F300.000
G1 X93.692 Y95.657 E0.02725 F300.000
G1 X93.435 Y95.399 E0.01874 F300.000
G1 X93.757 Y94.992 E0.02674 F300.000
G1 X94.010 Y95.245 E0.01840 F300.000
G1 X94.358 Y94.863 E0.02659 F300.000
G1 X94.122 Y94.627 E0.01719 F300.000
G1 F1800.000 E-4.00000
G1 X110.499 Y108.189 F3600.000
G1 E4.00000 F1800.000
G1 X110.978 Y107.665 E0.03542 F600.000
G1 X111.436 Y107.222 E0.03178
G1 X111.949 Y106.785 E0.03360
G1 X112.489 Y106.382 E0.03361
G1 X113.053 Y106.015 E0.03360
G1 X113.640 Y105.684 E0.03360
G1 X114.247 Y105.392 E0.03360
G1 X114.871 Y105.139 E0.03360
G1 X115.510 Y104.927 E0.03360
G1 X116.198 Y104.749 E0.03542
G1 X116.823 Y104.628 E0.03178
G1 X117.491 Y104.541 E0.03360
G1 X118.163 Y104.498 E0.03360
G1 X118.837 Y104.498 E0.03360
G1 X119.509 Y104.541 E0.03360
G1 X120.177 Y104.628 E0.03360
G1 X120.802 Y104.749 E0.03178
G1 X121.490 Y104.927 E0.03542
G1 X122.129 Y105.139 E0.03360
G1 X122.719 Y105.378 E0.03178
G1 X123.360 Y105.684 E0.03542
G1 X123.947 Y106.015 E0.03360
G1 X124.511 Y106.382 E0.03360
G1 X125.051 Y106.785 E0.03360
G1 X125.536 Y107.198 E0.03178
G1 X126.048 Y107.690 E0.03542
G1 X126.501 Y108.189 E0.03360
G1 X127.059 Y108.914 E0.04566
G1 X127.091 Y108.914 E0.00161
G1 X127.655 Y109.844 E0.05426
G1 X127.967 Y110.441 E0.03360
G1 X128.239 Y111.057 E0.03360
G1 X128.472 Y111.689 E0.03360
G1 X128.664 Y112.335 E0.03361
G1 X128.813 Y112.991 E0.03360
G1 X128.921 Y113.656 E0.03360
G1 X128.986 Y114.327 E0.03360
G1 X129.007 Y115.000 E0.03360
G1 X128.986 Y115.673 E0.03360
G1 X128.921 Y116.344 E0.03360
G1 X128.813 Y117.009 E0.03360
G1 X128.663 Y117.665 E0.03360
G1 X128.472 Y118.311 E0.03360
G1 X128.239 Y118.943 E0.03360
G1 X127.967 Y119.559 E0.03360
G1 X127.655 Y120.156 E0.03360
G1 X127.306 Y120.732 E0.03360
G1 X126.921 Y121.284 E0.03360
G1 X126.501 Y121.811 E0.03360
G1 X126.048 Y122.310 E0.03360
G1 X125.564 Y122.778 E0.03360
G1 X125.051 Y123.215 E0.03360
G1 X124.511 Y123.618 E0.03360
G1 X123.947 Y123.985 E0.03360
G1 X123.360 Y124.316 E0.03360
G1 X122.753 Y124.608 E0.03360
G1 X122.129 Y124.861 E0.03360
G1 X121.490 Y125.073 E0.03360
G1 X120.838 Y125.244 E0.03360
G1 X120.177 Y125.372 E0.03360
G1 X119.509 Y125.459 E0.03360
G1 X118.837 Y125.502 E0.03360
G1 X118.163 Y125.502 E0.03361
G1 X117.491 Y125.459 E0.03360
G1 X116.823 Y125.372 E0.03360
G1 X116.198 Y125.251 E0.03178
G1 X115.510 Y125.073 E0.03542
G1 X114.871 Y124.861 E0.03360
G1 X114.247 Y124.608 E0.03360
G1 X113.640 Y124.316 E0.03360
G1 X113.053 Y123.985 E0.03360
G1 X112.489 Y123.618 E0.03360
G1 X111.949 Y123.215 E0.03360
G1 X111.436 Y122.778 E0.03360
G1 X110.952 Y122.310 E0.03360
G1 X110.499 Y121.811 E0.03360
G1 X110.059 Y121.254 E0.03542
G1 X109.694 Y120.732 E0.03178
G1 X109.345 Y120.156 E0.03360
G1 X109.033 Y119.559 E0.03360
G1 X108.776 Y118.976 E0.03178
G1 X108.528 Y118.311 E0.03542
G1 X108.337 Y117.665 E0.03360
G1 X108.187 Y117.009 E0.03360
G1 X108.079 Y116.344 E0.03360
G1 X108.013 Y115.637 E0.03542
G1 X107.993 Y115.000 E0.03178
G1 X108.014 Y114.327 E0.03360
G1 X108.079 Y113.656 E0.03360
G1 X108.187 Y112.991 E0.03360
G1 X108.337 Y112.335 E0.03360
G1 X108.528 Y111.689 E0.03360
G1 X108.761 Y111.057 E0.03360
G1 X109.033 Y110.441 E0.03360
G1 X109.345 Y109.844 E0.03360
G1 X109.909 Y108.914 E0.05425
G1 X109.941 Y108.914 E0.00161
G1 X110.453 Y108.248 E0.04191
G1 X110.880 Y108.513 F3600.000
G1 X111.326 Y108.024 E0.03303 F420.000
G1 X111.772 Y107.592 E0.03098
G1 X112.261 Y107.176 E0.03200
G1 X112.775 Y106.793 E0.03200
G1 X113.313 Y106.443 E0.03200
G1 X113.871 Y106.128 E0.03200
G1 X114.449 Y105.850 E0.03200
G1 X115.044 Y105.609 E0.03200
G1 X115.653 Y105.407 E0.03200
G1 X116.293 Y105.240 E0.03303
G1 X116.903 Y105.121 E0.03098
G1 X117.539 Y105.039 E0.03200
G1 X118.179 Y104.998 E0.03200
G1 X118.821 Y104.998 E0.03200
G1 X119.461 Y105.039 E0.03200
G1 X120.097 Y105.121 E0.03200
G1 X120.707 Y105.240 E0.03098
G1 X121.347 Y105.407 E0.03303
G1 X121.956 Y105.609 E0.03200
G1 X122.532 Y105.842 E0.03098
G1 X123.129 Y106.128 E0.03302
G1 X123.687 Y106.443 E0.03200
G1 X124.225 Y106.793 E0.03200
G1 X124.739 Y107.176 E0.03200
G1 X125.212 Y107.579 E0.03098
G1 X125.688 Y108.038 E0.03303
G1 X126.120 Y108.513 E0.03200
G1 X126.520 Y109.015 E0.03200
G1 X126.810 Y109.414 E0.02462
G1 X127.219 Y110.089 E0.03941
G1 X127.516 Y110.658 E0.03200
G1 X127.776 Y111.245 E0.03200
