; generated by Slic3r 1.0.0RC2 on 2014-09-12 at 20:22:12

; layer_height = 0.24
; perimeters = 2
; top_solid_layers = 4
; bottom_solid_layers = 3
; fill_density = 0.4
; perimeter_speed = 30
; infill_speed = 40
; travel_speed = 60
; nozzle_diameter = 0.3
; filament_diameter = 1.75
; extrusion_multiplier = 1
; perimeters extrusion width = 0.30mm
; infill extrusion width = 0.32mm
; solid infill extrusion width = 0.32mm
; top infill extrusion width = 0.32mm
; first layer extrusion width = 0.48mm

G21 ; set units to millimeters
M107
M104 S205 ; set temperature
G28 ; home all axes
G1 Z5 F200 ; lift nozzle
M109 S205 ; wait for temperature to be reached
G90 ; use absolute coordinates
M83 ; use relative distances for extrusion
G1 F1800.000 E-1.00000
G1 Z0.240 F3600.000
G1 X66.310 Y73.544 F3600.000
G1 E1.00000 F1800.000
G1 X66.770 Y73.144 E0.02685 F540.000
G1 X67.790 Y72.354 E0.05682
G1 X68.600 Y71.794 E0.04337
G1 X69.120 Y71.474 E0.02689
G1 X70.020 Y70.984 E0.04513
G1 X71.130 Y70.464 E0.05398
G1 X71.690 Y70.234 E0.02666
G1 X72.580 Y69.914 E0.04165
G1 X73.000 Y69.784 E0.01936
G1 X73.580 Y69.624 E0.02650
G1 X74.910 Y69.324 E0.06005
G1 X75.560 Y69.224 E0.02896
G1 X76.350 Y69.134 E0.03502
G1 X77.540 Y69.064 E0.05250
G1 X120.540 Y68.064 E1.89424
G1 X121.620 Y68.074 E0.04757
G1 X122.630 Y68.134 E0.04456
G1 X124.070 Y68.324 E0.06397
G1 X125.410 Y68.624 E0.06047
G1 X126.410 Y68.914 E0.04585
G1 X126.980 Y69.114 E0.02660
G1 X127.860 Y69.464 E0.04171
G1 X128.930 Y69.964 E0.05201
G1 X129.470 Y70.244 E0.02679
G1 X130.540 Y70.904 E0.05537
G1 X131.440 Y71.534 E0.04838
G1 X132.220 Y72.144 E0.04361
G1 X132.950 Y72.794 E0.04305
G1 X133.640 Y73.484 E0.04297
G1 X134.200 Y74.104 E0.03679
G1 X134.590 Y74.564 E0.02656
G1 X135.390 Y75.654 E0.05955
G1 X135.980 Y76.564 E0.04776
G1 X136.280 Y77.094 E0.02682
G1 X136.700 Y77.924 E0.04097
G1 X137.050 Y78.684 E0.03685
G1 X137.230 Y79.124 E0.02094
G1 X137.550 Y80.014 E0.04165
G1 X137.820 Y80.914 E0.04138
G1 X138.060 Y81.914 E0.04529
G1 X138.210 Y82.724 E0.03628
G1 X138.350 Y83.754 E0.04578
G1 X138.420 Y84.654 E0.03976
G1 X139.420 Y112.654 E1.23391
G1 X139.440 Y113.284 E0.02776
G1 X139.420 Y114.314 E0.04537
G1 X139.300 Y115.664 E0.05969
G1 X139.070 Y117.064 E0.06248
G1 X138.820 Y118.094 E0.04668
G1 X138.440 Y119.294 E0.05543
G1 X138.070 Y120.264 E0.04572
G1 X137.820 Y120.824 E0.02701
G1 X137.250 Y121.954 E0.05574
G1 X136.730 Y122.824 E0.04464
G1 X135.920 Y123.994 E0.06267
G1 X135.640 Y124.364 E0.02043
G1 X135.000 Y125.114 E0.04342
G1 X134.380 Y125.774 E0.03988
G1 X133.680 Y126.444 E0.04267
G1 X133.220 Y126.844 E0.02685
G1 X132.200 Y127.634 E0.05682
G1 X131.390 Y128.194 E0.04337
G1 X130.580 Y128.674 E0.04147
G1 X129.630 Y129.174 E0.04728
G1 X128.860 Y129.524 E0.03725
G1 X127.980 Y129.874 E0.04171
G1 X126.990 Y130.204 E0.04596
G1 X126.410 Y130.364 E0.02650
G1 X125.180 Y130.644 E0.05556
G1 X124.140 Y130.804 E0.04634
G1 X123.330 Y130.884 E0.03585
G1 X122.450 Y130.934 E0.03882
G1 X78.450 Y131.934 E1.93827
G1 X77.260 Y131.924 E0.05241
G1 X75.850 Y131.804 E0.06232
G1 X74.810 Y131.644 E0.04634
G1 X73.580 Y131.364 E0.05556
G1 X72.580 Y131.074 E0.04585
G1 X71.690 Y130.754 E0.04165
G1 X71.130 Y130.524 E0.02666
G1 X69.940 Y129.964 E0.05792
G1 X69.410 Y129.674 E0.02661
G1 X68.650 Y129.214 E0.03912
G1 X67.820 Y128.654 E0.04410
G1 X66.770 Y127.844 E0.05840
G1 X66.310 Y127.444 E0.02685
G1 X65.610 Y126.774 E0.04267
G1 X64.740 Y125.834 E0.05641
G1 X64.350 Y125.364 E0.02690
G1 X63.600 Y124.334 E0.05611
G1 X63.000 Y123.414 E0.04837
G1 X62.730 Y122.944 E0.02387
G1 X62.170 Y121.824 E0.05515
G1 X61.770 Y120.894 E0.04459
G1 X61.540 Y120.274 E0.02912
G1 X61.170 Y119.094 E0.05446
G1 X60.920 Y118.064 E0.04668
G1 X60.810 Y117.464 E0.02686
G1 X60.640 Y116.234 E0.05468
G1 X60.570 Y115.224 E0.04459
G1 X60.560 Y86.384 E1.27012
G1 X60.590 Y85.354 E0.04538
G1 X60.690 Y84.324 E0.04557
G1 X60.820 Y83.504 E0.03656
G1 X61.030 Y82.464 E0.04673
G1 X61.260 Y81.594 E0.03963
G1 X61.440 Y81.014 E0.02675
G1 X61.760 Y80.124 E0.04165
G1 X61.940 Y79.684 E0.02094
G1 X62.290 Y78.924 E0.03685
G1 X62.710 Y78.094 E0.04097
G1 X63.010 Y77.564 E0.02682
G1 X63.280 Y77.174 E0.02089
G1 X63.260 Y77.164 E0.00098
G1 X63.560 Y76.704 E0.02419
G1 X64.400 Y75.564 E0.06236
G1 X65.340 Y74.494 E0.06272
G1 X66.261 Y73.589 E0.05688
G1 F1800.000 E-1.00000
G1 X97.913 Y106.182 F3600.000
G1 E1.00000 F1800.000
G1 X98.420 Y105.762 E0.02898 F540.000
G1 X98.692 Y105.577 E0.01450
G1 X99.235 Y105.277 E0.02732
G1 X99.571 Y105.130 E0.01615
G1 X99.917 Y105.008 E0.01615
G1 X100.518 Y104.854 E0.02732
G1 X100.843 Y104.803 E0.01450
G1 X101.500 Y104.762 E0.02898
G1 X101.867 Y104.775 E0.01615
G1 X102.482 Y104.854 E0.02732
G1 X102.839 Y104.937 E0.01615
G1 X103.429 Y105.130 E0.02732
G1 X104.024 Y105.410 E0.02898
G1 X104.580 Y105.762 E0.02898
G1 X104.840 Y105.964 E0.01450
G1 X105.320 Y106.415 E0.02898
G1 X105.739 Y106.922 E0.02898
G1 X105.924 Y107.194 E0.01450
G1 X106.092 Y107.477 E0.01450
G1 X106.372 Y108.073 E0.02898
G1 X106.575 Y108.699 E0.02898
G1 X106.647 Y109.020 E0.01450
G1 X106.699 Y109.345 E0.01450
G1 X106.740 Y110.002 E0.02898
G1 X106.730 Y110.331 E0.01450
G1 X106.647 Y110.984 E0.02898
G1 X106.484 Y111.621 E0.02898
G1 X106.241 Y112.233 E0.02898
G1 X106.092 Y112.526 E0.01450
G1 X105.739 Y113.082 E0.02898
G1 X105.320 Y113.589 E0.02898
G1 X105.087 Y113.822 E0.01450
G1 X104.580 Y114.241 E0.02898
G1 X104.308 Y114.426 E0.01450
G1 X104.024 Y114.594 E0.01450
G1 X103.429 Y114.874 E0.02898
G1 X102.803 Y115.077 E0.02898
G1 X102.482 Y115.149 E0.01450
G1 X102.157 Y115.201 E0.01450
G1 X101.500 Y115.242 E0.02898
G1 X100.843 Y115.201 E0.02898
G1 X100.518 Y115.149 E0.01450
G1 X99.881 Y114.985 E0.02898
G1 X99.536 Y114.859 E0.01616
G1 X98.976 Y114.594 E0.02732
G1 X98.420 Y114.241 E0.02898
G1 X97.913 Y113.822 E0.02898
G1 X97.680 Y113.589 E0.01450
G1 X97.439 Y113.312 E0.01615
G1 X97.076 Y112.810 E0.02732
G1 X96.908 Y112.526 E0.01450
G1 X96.628 Y111.931 E0.02898
G1 X96.506 Y111.585 E0.01615
G1 X96.353 Y110.984 E0.02732
G1 X96.298 Y110.621 E0.01615
G1 X96.260 Y110.002 E0.02732
G1 X96.270 Y109.673 E0.01450
G1 X96.353 Y109.020 E0.02898
G1 X96.435 Y108.662 E0.01616
G1 X96.628 Y108.073 E0.02732
G1 X96.759 Y107.771 E0.01450
G1 X97.076 Y107.194 E0.02898
G1 X97.462 Y106.662 E0.02898
G1 X97.866 Y106.229 E0.02607
G1 X97.821 Y105.750 F3600.000
G1 X97.499 Y105.188 F3600.000
G1 X97.793 Y104.958 E0.01641 F540.000
G1 X98.370 Y104.580 E0.03037
G1 X98.985 Y104.269 E0.03037
G1 X99.631 Y104.027 E0.03037
G1 X100.300 Y103.858 E0.03037
G1 X100.668 Y103.798 E0.01641
G1 X101.328 Y103.744 E0.02915
G1 X102.017 Y103.763 E0.03037
G1 X102.700 Y103.858 E0.03037
G1 X103.037 Y103.933 E0.01519
G1 X103.695 Y104.139 E0.03037
G1 X104.327 Y104.416 E0.03037
G1 X104.924 Y104.761 E0.03037
G1 X105.458 Y105.153 E0.02915
G1 X105.740 Y105.396 E0.01641
G1 X106.221 Y105.891 E0.03037
G1 X106.644 Y106.435 E0.03037
G1 X107.005 Y107.022 E0.03037
G1 X107.161 Y107.330 E0.01519
G1 X107.421 Y107.969 E0.03037
G1 X107.608 Y108.633 E0.03037
G1 X107.722 Y109.313 E0.03037
G1 X107.760 Y110.002 E0.03037
G1 X107.722 Y110.690 E0.03037
G1 X107.675 Y111.032 E0.01519
G1 X107.524 Y111.705 E0.03037
G1 X107.300 Y112.357 E0.03037
G1 X107.005 Y112.981 E0.03037
G1 X106.644 Y113.569 E0.03037
G1 X106.440 Y113.847 E0.01519
G1 X105.987 Y114.367 E0.03037
G1 X105.480 Y114.834 E0.03037
G1 X104.924 Y115.242 E0.03037
G1 X104.630 Y115.423 E0.01519
G1 X104.025 Y115.750 E0.03028
G1 X104.025 Y115.729 E0.00092
G1 X103.369 Y115.976 E0.03089
G1 X103.037 Y116.070 E0.01519
G1 X102.360 Y116.202 E0.03037
G1 X101.672 Y116.259 E0.03037
G1 X100.983 Y116.240 E0.03037
G1 X100.640 Y116.202 E0.01519
G1 X99.963 Y116.070 E0.03037
G1 X99.305 Y115.864 E0.03037
G1 X98.975 Y115.729 E0.01571
G1 X98.975 Y115.750 E0.00092
G1 X98.370 Y115.423 E0.03028
G1 X97.793 Y115.046 E0.03038
G1 X97.260 Y114.607 E0.03037
G1 X96.779 Y114.113 E0.03037
G1 X96.356 Y113.569 E0.03037
G1 X95.995 Y112.981 E0.03037
G1 X95.828 Y112.648 E0.01641
G1 X95.579 Y112.034 E0.02915
G1 X95.392 Y111.371 E0.03037
G1 X95.322 Y111.005 E0.01641
G1 X95.250 Y110.347 E0.02915
G1 X95.250 Y109.657 E0.03037
G1 X95.325 Y108.971 E0.03037
G1 X95.398 Y108.606 E0.01641
G1 X95.579 Y107.969 E0.02915
G1 X95.839 Y107.330 E0.03037
G1 X96.167 Y106.724 E0.03037
G1 X96.560 Y106.157 E0.03037
G1 X97.013 Y105.637 E0.03037
G1 X97.450 Y105.231 E0.02624
G1 X97.849 Y105.317 F3600.000
G1 X98.063 Y105.303 F3600.000
G1 X98.442 Y105.051 E0.02024 F360.000
G1 X98.545 Y105.155 E0.00653 F360.000
G1 X98.844 Y104.822 E0.01988 F360.000
G1 X98.951 Y104.930 E0.00677 F360.000
G1 X99.276 Y104.624 E0.01986 F360.000
G1 X99.385 Y104.732 E0.00682 F360.000
G1 X99.737 Y104.454 E0.01999 F360.000
G1 X99.853 Y104.570 E0.00726 F360.000
G1 X100.235 Y104.322 E0.02030 F360.000
G1 X100.355 Y104.442 E0.00755 F360.000
G1 X100.772 Y104.228 E0.02085 F360.000
G1 X100.902 Y104.357 E0.00815 F360.000
G1 X101.358 Y104.183 E0.02174 F360.000
G1 X101.498 Y104.323 E0.00884 F360.000
G1 X102.010 Y104.203 E0.02337 F360.000
G1 X102.170 Y104.364 E0.01010 F360.000
G1 X102.757 Y104.320 E0.02619 F360.000
G1 X102.949 Y104.512 E0.01210 F360.000
G1 X103.670 Y104.602 E0.03234 F360.000
G1 X103.945 Y104.877 E0.01731 F360.000
G1 X105.247 Y105.548 F3600.000
G1 X105.950 Y106.251 E0.04422 F360.000
G1 X106.624 Y107.556 F3600.000
G1 X106.902 Y107.834 E0.01749 F360.000
G1 X106.990 Y108.553 E0.03220 F360.000
G1 X107.184 Y108.747 E0.01224 F360.000
G1 X107.138 Y109.332 E0.02610 F360.000
G1 X107.297 Y109.490 E0.01000 F360.000
G1 X107.179 Y110.003 E0.02342 F360.000
G1 X107.317 Y110.142 E0.00874 F360.000
G1 X107.145 Y110.600 E0.02179 F360.000
G1 X107.274 Y110.729 E0.00814 F360.000
G1 X107.060 Y111.146 E0.02086 F360.000
G1 X107.182 Y111.268 E0.00766 F360.000
G1 X106.932 Y111.649 E0.02028 F360.000
G1 X107.046 Y111.763 E0.00719 F360.000
G1 X106.769 Y112.117 E0.02000 F360.000
G1 X106.879 Y112.226 E0.00688 F360.000
G1 X106.572 Y112.550 E0.01986 F360.000
G1 X106.678 Y112.657 E0.00671 F360.000
G1 X106.347 Y112.956 E0.01988 F360.000
G1 X106.452 Y113.061 E0.00662 F360.000
G1 X106.096 Y113.336 E0.02001 F360.000
G1 X106.197 Y113.437 E0.00633 F360.000
G1 X105.916 Y113.786 E0.01997 F360.000
G1 X105.817 Y113.688 E0.00621 F360.000
G1 X105.513 Y114.015 E0.01987 F360.000
G1 X105.600 Y114.102 E0.00546 F360.000
G1 X105.285 Y114.417 E0.01985 F360.000
G1 X105.186 Y114.319 E0.00621 F360.000
G1 X104.835 Y114.598 E0.01998 F360.000
G1 X104.937 Y114.700 E0.00642 F360.000
G1 X104.558 Y114.952 E0.02024 F360.000
G1 X104.455 Y114.849 E0.00653 F360.000
G1 X104.156 Y115.181 E0.01988 F360.000
G1 X104.049 Y115.073 E0.00677 F360.000
G1 X103.724 Y115.379 E0.01986 F360.000
G1 X103.615 Y115.271 E0.00682 F360.000
G1 X103.263 Y115.549 E0.01999 F360.000
G1 X103.147 Y115.434 E0.00726 F360.000
G1 X102.765 Y115.682 E0.02030 F360.000
G1 X102.645 Y115.562 E0.00755 F360.000
G1 X102.228 Y115.776 E0.02085 F360.000
G1 X102.098 Y115.646 E0.00815 F360.000
G1 X101.642 Y115.821 E0.02174 F360.000
G1 X101.502 Y115.680 E0.00884 F360.000
G1 X100.990 Y115.800 E0.02337 F360.000
G1 X100.830 Y115.640 E0.01010 F360.000
G1 X100.243 Y115.684 E0.02619 F360.000
G1 X100.051 Y115.491 E0.01210 F360.000
G1 X99.330 Y115.401 E0.03234 F360.000
G1 X99.055 Y115.126 E0.01731 F360.000
G1 X97.753 Y114.455 F3600.000
G1 X97.050 Y113.752 E0.04424 F360.000
G1 X96.376 Y112.447 F3600.000
G1 X96.098 Y112.169 E0.01749 F360.000
G1 X96.010 Y111.451 E0.03220 F360.000
G1 X95.816 Y111.256 E0.01224 F360.000
G1 X95.862 Y110.672 E0.02610 F360.000
G1 X95.703 Y110.513 E0.01000 F360.000
G1 X95.821 Y110.000 E0.02342 F360.000
G1 X95.683 Y109.861 E0.00874 F360.000
G1 X95.855 Y109.403 E0.02179 F360.000
G1 X95.726 Y109.274 E0.00814 F360.000
G1 X95.940 Y108.857 E0.02086 F360.000
G1 X95.818 Y108.735 E0.00766 F360.000
G1 X96.068 Y108.354 E0.02028 F360.000
G1 X95.954 Y108.240 E0.00719 F360.000
G1 X96.231 Y107.886 E0.02000 F360.000
G1 X96.121 Y107.777 E0.00688 F360.000
G1 X96.428 Y107.453 E0.01986 F360.000
G1 X96.322 Y107.347 E0.00671 F360.000
G1 X96.653 Y107.047 E0.01988 F360.000
G1 X96.548 Y106.942 E0.00662 F360.000
G1 X96.904 Y106.667 E0.02001 F360.000
G1 X96.803 Y106.566 E0.00633 F360.000
G1 X97.084 Y106.217 E0.01997 F360.000
G1 X97.183 Y106.316 E0.00621 F360.000
G1 X97.487 Y105.988 E0.01987 F360.000
G1 X97.400 Y105.902 E0.00546 F360.000
G1 X97.715 Y105.586 E0.01985 F360.000
G1 X97.814 Y105.685 E0.00621 F360.000
G1 X98.165 Y105.405 E0.01998 F360.000
G1 X98.063 Y105.303 E0.00642 F360.000
G1 F1800.000 E-1.00000
G1 X112.771 Y110.400 F3600.000
G1 E1.00000 F1800.000
G1 X113.086 Y109.574 E0.03898 F378.000
G1 X113.335 Y109.052 E0.02542
G1 X113.613 Y108.547 E0.02542
G1 X113.922 Y108.059 E0.02542
G1 X114.222 Y107.639 E0.02273
G1 X114.622 Y107.141 E0.02811
G1 X115.011 Y106.716 E0.02542
G1 X115.426 Y106.313 E0.02542
G1 X115.863 Y105.937 E0.02542
G1 X116.273 Y105.623 E0.02273
G1 X116.801 Y105.264 E0.02811
G1 X117.298 Y104.970 E0.02542
G1 X117.811 Y104.707 E0.02542
G1 X118.397 Y104.453 E0.02811
G1 X118.881 Y104.273 E0.02273
G1 X119.433 Y104.104 E0.02542
G1 X119.994 Y103.969 E0.02542
G1 X120.562 Y103.867 E0.02542
G1 X121.135 Y103.798 E0.02542
G1 X121.711 Y103.764 E0.02542
G1 X122.289 Y103.764 E0.02542
G1 X122.926 Y103.806 E0.02811
G1 X123.438 Y103.867 E0.02273
G1 X124.006 Y103.969 E0.02542
G1 X124.567 Y104.104 E0.02542
G1 X125.119 Y104.273 E0.02542
G1 X125.717 Y104.499 E0.02811
G1 X126.189 Y104.707 E0.02273
G1 X126.702 Y104.970 E0.02542
G1 X127.199 Y105.264 E0.02542
G1 X127.678 Y105.586 E0.02542
G1 X128.137 Y105.937 E0.02542
G1 X128.574 Y106.313 E0.02542
G1 X128.989 Y106.716 E0.02542
G1 X129.378 Y107.141 E0.02542
G1 X129.742 Y107.590 E0.02542
G1 X130.078 Y108.059 E0.02542
G1 X130.387 Y108.547 E0.02542
G1 X130.665 Y109.052 E0.02542
G1 X130.914 Y109.574 E0.02542
G1 X131.131 Y110.108 E0.02542
G1 X131.315 Y110.655 E0.02542
G1 X131.468 Y111.212 E0.02542
G1 X131.587 Y111.777 E0.02542
G1 X131.672 Y112.348 E0.02542
G1 X131.723 Y112.923 E0.02542
G1 X131.740 Y113.500 E0.02542
G1 X131.723 Y114.077 E0.02542
G1 X131.672 Y114.652 E0.02542
G1 X131.587 Y115.223 E0.02542
G1 X131.468 Y115.788 E0.02542
G1 X131.315 Y116.345 E0.02542
G1 X131.131 Y116.892 E0.02542
G1 X130.914 Y117.426 E0.02542
G1 X130.665 Y117.948 E0.02542
G1 X130.387 Y118.453 E0.02542
G1 X130.078 Y118.941 E0.02542
G1 X129.742 Y119.410 E0.02542
G1 X129.378 Y119.859 E0.02542
G1 X128.989 Y120.284 E0.02542
G1 X128.574 Y120.687 E0.02542
G1 X128.137 Y121.063 E0.02542
G1 X127.678 Y121.414 E0.02542
G1 X127.199 Y121.736 E0.02542
G1 X126.702 Y122.030 E0.02542
G1 X126.189 Y122.293 E0.02542
G1 X125.661 Y122.526 E0.02542
G1 X125.119 Y122.727 E0.02542
G1 X124.567 Y122.896 E0.02542
G1 X123.946 Y123.042 E0.02811
G1 X123.438 Y123.133 E0.02273
G1 X122.865 Y123.202 E0.02542
G1 X122.289 Y123.236 E0.02542
G1 X121.711 Y123.236 E0.02542
G1 X121.135 Y123.202 E0.02542
G1 X120.292 Y123.085 E0.03747
G1 X120.292 Y123.103 E0.00081
G1 X119.433 Y122.896 E0.03895
G1 X118.881 Y122.727 E0.02542
G1 X118.339 Y122.526 E0.02542
G1 X117.811 Y122.293 E0.02542
G1 X117.102 Y121.914 E0.03539
G1 X116.801 Y121.736 E0.01544
G1 X116.322 Y121.414 E0.02542
G1 X115.863 Y121.063 E0.02542
G1 X115.426 Y120.687 E0.02542
G1 X115.011 Y120.284 E0.02542
G1 X114.622 Y119.859 E0.02542
G1 X114.258 Y119.410 E0.02542
G1 X113.922 Y118.941 E0.02542
G1 X113.613 Y118.453 E0.02542
G1 X113.335 Y117.948 E0.02542
G1 X113.086 Y117.426 E0.02542
G1 X112.869 Y116.892 E0.02542
G1 X112.685 Y116.345 E0.02542
G1 X112.532 Y115.788 E0.02542
G1 X112.413 Y115.223 E0.02542
G1 X112.328 Y114.652 E0.02542
G1 X112.277 Y114.077 E0.02542
G1 X112.262 Y113.439 E0.02811
G1 X112.277 Y112.923 E0.02273
G1 X112.328 Y112.348 E0.02542
G1 X112.413 Y111.777 E0.02542
G1 X112.532 Y111.212 E0.02542
G1 X112.750 Y110.463 E0.03435
G1 X112.483 Y110.065 F3600.000
G1 X111.823 Y110.006 F3600.000
G1 X112.031 Y109.451 E0.02611 F378.000
G1 X112.269 Y108.908 E0.02611
G1 X112.537 Y108.379 E0.02611
G1 X112.808 Y107.910 E0.02384
G1 X113.158 Y107.369 E0.02838
G1 X113.509 Y106.891 E0.02611
G1 X113.886 Y106.433 E0.02611
G1 X114.324 Y105.961 E0.02838
G1 X114.713 Y105.584 E0.02384
G1 X115.160 Y105.194 E0.02611
G1 X115.628 Y104.830 E0.02611
G1 X116.115 Y104.492 E0.02611
G1 X116.620 Y104.182 E0.02611
