; generated by Slic3r 0.9.4-dev on 2012-10-19 at 22:06:22

; layer_height = 0.3
; perimeters = 1
; solid_layers = 3
; fill_density = 0.25
; perimeter_speed = 30
; infill_speed = 48
; travel_speed = 250
; scale = 1
; nozzle_diameter = 0.5
; filament_diameter = 1.75
; extrusion_multiplier = 0.8
; single wall width = 0.50mm

M107
M190 S57 ; wait for bed temperature to be reached
M104 S200 ; set temperature
G28 X0 Y0
G1 X75 Y75 F12000
G28 Z0
G1 Z0.3 F200
G1 X15 Y20 F12000
M109 S200 ; wait for temperature to be reached
G90 ; use absolute coordinates
G21 ; set units to millimeters
G92 E0
M82 ; use absolute distances for extrusion
G1 F3000.000 E-1.60000
G92 E0
G1 Z0.300 F15000.000
G1 X63.050 Y66.630
G1 X63.404 Y66.276 F3000.000 E1.60000
G1 X63.630 Y66.050 F720.000 E1.61598
G1 X64.360 Y65.430 E1.66376
G1 X65.020 Y64.940 E1.70477
G1 X65.790 Y64.440 E1.75057
G1 X66.510 Y64.050 E1.79143
G1 X67.320 Y63.690 E1.83565
G1 X68.090 Y63.400 E1.87670
G1 X68.950 Y63.140 E1.92152
G1 X69.750 Y62.960 E1.96243
G1 X70.710 Y62.820 E2.01083
G1 X71.530 Y62.760 E2.05185
G1 X72.000 Y62.740 E2.07532
G1 X83.740 Y62.740 E2.66103
G1 X84.260 Y62.760 E2.68700
G1 X84.780 Y62.820 E2.71311
G1 X85.040 Y62.870 E2.72632
G1 X85.300 Y62.930 E2.73963
G1 X85.800 Y63.070 E2.76554
G1 X86.040 Y63.160 E2.77832
G1 X86.290 Y63.260 E2.79176
G1 X86.530 Y63.370 E2.80493
G1 X86.760 Y63.480 E2.81765
G1 X86.990 Y63.610 E2.83083
G1 X87.430 Y63.890 E2.85685
G1 X87.640 Y64.040 E2.86972
G1 X87.850 Y64.210 E2.88320
G1 X88.050 Y64.370 E2.89598
G1 X88.240 Y64.550 E2.90904
G1 X88.430 Y64.740 E2.92244
G1 X88.610 Y64.930 E2.93550
G1 X88.770 Y65.130 E2.94828
G1 X88.940 Y65.340 E2.96176
G1 X89.090 Y65.550 E2.97463
G1 X89.370 Y65.990 E3.00065
G1 X89.500 Y66.220 E3.01384
G1 X89.610 Y66.450 E3.02655
G1 X89.720 Y66.690 E3.03973
G1 X89.820 Y66.940 E3.05316
G1 X89.910 Y67.180 E3.06595
G1 X90.050 Y67.680 E3.09185
G1 X90.110 Y67.940 E3.10516
G1 X90.160 Y68.200 E3.11837
G1 X90.220 Y68.720 E3.14449
G1 X90.240 Y69.240 E3.17045
G1 X90.240 Y80.750 E3.74469
G1 X90.220 Y81.270 E3.77065
G1 X90.160 Y81.790 E3.79676
G1 X90.110 Y82.050 E3.80997
G1 X90.050 Y82.310 E3.82329
G1 X89.910 Y82.810 E3.84919
G1 X89.820 Y83.050 E3.86198
G1 X89.720 Y83.300 E3.87541
G1 X89.610 Y83.540 E3.88858
G1 X89.500 Y83.770 E3.90130
G1 X89.370 Y84.000 E3.91448
G1 X89.090 Y84.440 E3.94050
G1 X88.940 Y84.650 E3.95338
G1 X88.770 Y84.860 E3.96686
G1 X88.610 Y85.060 E3.97964
G1 X88.430 Y85.250 E3.99269
G1 X88.240 Y85.440 E4.00610
G1 X88.050 Y85.620 E4.01916
G1 X87.850 Y85.780 E4.03193
G1 X87.640 Y85.950 E4.04541
G1 X87.430 Y86.100 E4.05829
G1 X86.990 Y86.380 E4.08431
G1 X86.760 Y86.510 E4.09749
G1 X86.530 Y86.620 E4.11021
G1 X86.290 Y86.730 E4.12338
G1 X86.040 Y86.830 E4.13681
G1 X85.800 Y86.920 E4.14960
G1 X85.300 Y87.060 E4.17551
G1 X85.040 Y87.120 E4.18882
G1 X84.780 Y87.170 E4.20203
G1 X84.260 Y87.230 E4.22814
G1 X83.740 Y87.250 E4.25410
G1 X72.000 Y87.250 E4.83982
G1 X71.530 Y87.230 E4.86328
G1 X70.710 Y87.170 E4.90430
G1 X69.750 Y87.030 E4.95271
G1 X68.950 Y86.850 E4.99362
G1 X68.090 Y86.590 E5.03844
G1 X67.320 Y86.300 E5.07949
G1 X66.510 Y85.940 E5.12371
G1 X65.790 Y85.550 E5.16456
G1 X65.020 Y85.050 E5.21037
G1 X64.360 Y84.560 E5.25138
G1 X63.630 Y83.940 E5.29916
G1 X63.050 Y83.360 E5.34008
G1 X62.430 Y82.630 E5.38787
G1 X61.940 Y81.970 E5.42888
G1 X61.440 Y81.200 E5.47468
G1 X61.050 Y80.480 E5.51553
G1 X60.690 Y79.670 E5.55975
G1 X60.400 Y78.900 E5.60080
G1 X60.140 Y78.040 E5.64563
G1 X59.960 Y77.240 E5.68654
G1 X59.810 Y76.210 E5.73847
G1 X59.760 Y75.390 E5.77945
G1 X59.760 Y74.590 E5.81936
G1 X59.810 Y73.780 E5.85985
G1 X59.960 Y72.750 E5.91178
G1 X60.140 Y71.950 E5.95269
G1 X60.400 Y71.090 E5.99751
G1 X60.690 Y70.320 E6.03856
G1 X61.050 Y69.510 E6.08279
G1 X61.440 Y68.790 E6.12364
G1 X61.940 Y68.020 E6.16944
G1 X62.430 Y67.360 E6.21045
G1 X62.726 Y67.011 E6.23329
G1 F3000.000 E4.63329
G92 E0
G1 X68.386 Y78.789 F15000.000
G1 X68.034 Y78.437 F3000.000 E1.60000
G1 X68.034 Y78.437 F1800.000
G1 X67.585 Y77.837 E1.63736
G1 X67.226 Y77.180 E1.67471
G1 X66.965 Y76.479 E1.71207
G1 X66.805 Y75.747 E1.74943
G1 X66.752 Y75.000 E1.78679
G1 X66.805 Y74.253 E1.82414
G1 X66.965 Y73.521 E1.86150
G1 X67.226 Y72.820 E1.89886
G1 X67.585 Y72.163 E1.93621
G1 X68.034 Y71.563 E1.97357
G1 X68.563 Y71.034 E2.01093
G1 X69.163 Y70.585 E2.04829
G1 X69.820 Y70.226 E2.08564
G1 X70.521 Y69.964 E2.12300
G1 X71.253 Y69.805 E2.16036
G1 X72.027 Y69.750 E2.19905
G1 X83.250 Y69.750 E2.75898
G1 X83.250 Y71.697 E2.85613
G1 X74.320 Y71.697 E3.30164
G1 X73.937 Y71.440 E3.32468
G1 X73.237 Y71.140 E3.36266
G1 X72.494 Y70.977 E3.40064
G1 X71.733 Y70.956 E3.43862
G1 X70.981 Y71.077 E3.47660
G1 X70.265 Y71.337 E3.51459
G1 X69.611 Y71.726 E3.55257
G1 X69.041 Y72.230 E3.59055
G1 X68.575 Y72.832 E3.62853
G1 X68.230 Y73.511 E3.66651
G1 X68.018 Y74.242 E3.70449
G1 X67.947 Y75.000 E3.74247
G1 X68.018 Y75.758 E3.78045
G1 X68.230 Y76.489 E3.81844
G1 X68.575 Y77.168 E3.85642
G1 X69.041 Y77.770 E3.89440
G1 X69.611 Y78.274 E3.93238
G1 X70.265 Y78.663 E3.97036
G1 X70.981 Y78.923 E4.00834
G1 X71.733 Y79.044 E4.04632
G1 X72.494 Y79.023 E4.08431
G1 X73.237 Y78.860 E4.12229
G1 X73.937 Y78.560 E4.16027
G1 X74.320 Y78.303 E4.18330
G1 X83.250 Y78.303 E4.62881
G1 X83.250 Y80.250 E4.72596
G1 X72.027 Y80.250 E5.28589
G1 X71.253 Y80.195 E5.32459
G1 X70.521 Y80.036 E5.36195
G1 X69.822 Y79.775 E5.39918
G1 X69.164 Y79.416
G1 X68.692 Y79.687 F15000.000
G1 X68.235 Y79.345 F576.000 E5.42763
G1 X67.655 Y78.765 E5.46856
G1 X67.163 Y78.108 E5.50949
G1 X66.770 Y77.388 E5.55041
G1 X66.484 Y76.620 E5.59134
G1 X66.309 Y75.818 E5.63226
G1 X66.251 Y75.000 E5.67319
G1 X66.309 Y74.182 E5.71411
G1 X66.484 Y73.380 E5.75504
G1 X66.770 Y72.612 E5.79596
G1 X67.163 Y71.892 E5.83689
G1 X67.655 Y71.235 E5.87781
G1 X68.235 Y70.655 E5.91874
G1 X68.892 Y70.163 E5.95966
G1 X69.612 Y69.770 E6.00059
G1 X70.380 Y69.484 E6.04152
G1 X71.182 Y69.309 E6.08244
G1 X72.009 Y69.250 E6.12381
G1 X83.750 Y69.250 E6.70958
G1 X83.750 Y72.197 E6.85662
G1 X74.168 Y72.197 E7.33469
G1 X73.697 Y71.881 E7.36298
G1 X73.084 Y71.618 E7.39625
G1 X72.432 Y71.475 E7.42953
G1 X71.766 Y71.457 E7.46280
G1 X71.107 Y71.563 E7.49608
G1 X70.480 Y71.790 E7.52935
G1 X69.907 Y72.131 E7.56263
G1 X69.407 Y72.573 E7.59591
G1 X68.999 Y73.101 E7.62918
G1 X68.697 Y73.695 E7.66246
G1 X68.512 Y74.336 E7.69573
G1 X68.449 Y75.000 E7.72901
G1 X68.512 Y75.664 E7.76228
G1 X68.697 Y76.305 E7.79556
G1 X68.999 Y76.899 E7.82883
G1 X69.407 Y77.427 E7.86211
G1 X69.907 Y77.869 E7.89538
G1 X70.480 Y78.210 E7.92866
G1 X71.107 Y78.437 E7.96193
G1 X71.766 Y78.543 E7.99521
G1 X72.432 Y78.525 E8.02848
G1 X73.084 Y78.382 E8.06176
G1 X73.697 Y78.119 E8.09504
G1 X74.168 Y77.803 E8.12333
G1 X83.750 Y77.803 E8.60140
G1 X83.750 Y80.750 E8.74844
G1 X72.009 Y80.750 E9.33420
G1 X71.182 Y80.691 E9.37557
G1 X70.380 Y80.516 E9.41650
G1 X69.780 Y80.293 E9.44846
G1 X69.330 Y80.076
G1 X69.246 Y78.941 F15000.000
G1 X68.059 Y77.754 F1152.000 E9.53314
G1 X68.188 Y77.168 E9.56342
G1 X67.144 Y76.124 E9.63792
G1 X67.872 Y76.136 F15000.000
G1 X66.939 Y75.203 F1152.000 E9.70444
G1 X66.913 Y74.461 F15000.000
G1 X67.799 Y75.347 F1152.000 E9.76764
G1 X67.860 Y74.692 F15000.000
G1 X66.982 Y73.814 F1152.000 E9.83031
G1 X67.119 Y73.235 F15000.000
G1 X67.992 Y74.108 F1152.000 E9.89259
G1 X68.172 Y73.572 F15000.000
G1 X67.314 Y72.714 F1152.000 E9.95379
G1 X67.562 Y72.246 F15000.000
G1 X68.413 Y73.097 F1152.000 E10.01448
G1 X68.698 Y72.666 F15000.000
G1 X67.850 Y71.817 F1152.000 E10.07503
G1 X68.173 Y71.424 F15000.000
G1 X69.011 Y72.263 F1152.000 E10.13482
G1 X69.387 Y71.923 F15000.000
G1 X68.530 Y71.066 F1152.000 E10.19590
G1 X68.939 Y70.759 F15000.000
G1 X69.785 Y71.605 F1152.000 E10.25623
G1 X70.234 Y71.338 F15000.000
G1 X69.383 Y70.487 F1152.000 E10.31688
G1 X69.868 Y70.256 F15000.000
G1 X70.730 Y71.118 F1152.000 E10.37836
G1 X71.264 Y70.936 F15000.000
G1 X70.400 Y70.072 F1152.000 E10.43996
G1 X70.991 Y69.946 F15000.000
G1 X71.880 Y70.836 F1152.000 E10.50342
G1 X72.583 Y70.823 F15000.000
G1 X71.659 Y69.899 F1152.000 E10.56935
G1 X72.372 Y69.896 F15000.000
G1 X73.421 Y70.944 F1152.000 E10.64412
G1 X73.088 Y69.896 F15000.000
G1 X74.572 Y71.380 F1152.000 E10.74993
G1 X75.459 Y71.551 F15000.000
G1 X73.804 Y69.896 F1152.000 E10.86797
G1 X74.520 Y69.896 F15000.000
G1 X76.175 Y71.551 F1152.000 E10.98600
G1 X76.891 Y71.551 F15000.000
G1 X75.236 Y69.896 F1152.000 E11.10403
G1 X75.952 Y69.896 F15000.000
G1 X77.607 Y71.551 F1152.000 E11.22206
G1 X78.323 Y71.551 F15000.000
G1 X76.668 Y69.896 F1152.000 E11.34010
G1 X77.384 Y69.896 F15000.000
G1 X79.039 Y71.551 F1152.000 E11.45813
G1 X79.755 Y71.551 F15000.000
G1 X78.100 Y69.896 F1152.000 E11.57616
G1 X78.816 Y69.896 F15000.000
G1 X80.471 Y71.551 F1152.000 E11.69420
G1 X81.187 Y71.551 F15000.000
G1 X79.532 Y69.896 F1152.000 E11.81223
G1 X80.248 Y69.896 F15000.000
G1 X81.903 Y71.551 F1152.000 E11.93027
G1 X82.619 Y71.551 F15000.000
G1 X80.964 Y69.896 F1152.000 E12.04830
G1 X81.680 Y69.896 F15000.000
G1 X83.104 Y71.320 F1152.000 E12.14983
G1 X83.104 Y70.604 F15000.000
G1 X82.396 Y69.896 F1152.000 E12.20029
G1 F3000.000 E10.60029
G92 E0
G1 X82.357 Y78.449 F15000.000
G1 X82.711 Y78.803 F3000.000 E1.60000
G1 X83.104 Y79.196 F1152.000 E1.62804
G1 X83.104 Y79.912 F15000.000
G1 X81.641 Y78.449 F1152.000 E1.73237
G1 X80.925 Y78.449 F15000.000
G1 X82.580 Y80.104 F1152.000 E1.85040
G1 X81.864 Y80.104 F15000.000
G1 X80.209 Y78.449 F1152.000 E1.96843
G1 X79.493 Y78.449 F15000.000
G1 X81.148 Y80.104 F1152.000 E2.08647
G1 X80.432 Y80.104 F15000.000
G1 X78.777 Y78.449 F1152.000 E2.20450
G1 X78.061 Y78.449 F15000.000
G1 X79.716 Y80.104 F1152.000 E2.32254
G1 X79.000 Y80.104 F15000.000
G1 X77.345 Y78.449 F1152.000 E2.44057
G1 X76.629 Y78.449 F15000.000
G1 X78.284 Y80.104 F1152.000 E2.55860
G1 X77.568 Y80.104 F15000.000
G1 X75.913 Y78.449 F1152.000 E2.67664
G1 X75.197 Y78.449 F15000.000
G1 X76.852 Y80.104 F1152.000 E2.79467
G1 X76.136 Y80.104 F15000.000
G1 X74.481 Y78.449 F1152.000 E2.91271
G1 X73.908 Y78.591 F15000.000
G1 X75.420 Y80.104 F1152.000 E3.02058
G1 X74.704 Y80.104 F15000.000
G1 X73.420 Y78.820 F1152.000 E3.11212
G1 X72.899 Y79.015 F15000.000
G1 X73.988 Y80.104 F1152.000 E3.18980
G1 X73.272 Y80.104 F15000.000
G1 X72.312 Y79.144 F1152.000 E3.25828
G1 X71.636 Y79.184 F15000.000
G1 X72.556 Y80.104 F1152.000 E3.32389
G1 X71.797 Y80.061 F15000.000
G1 X70.848 Y79.112 F1152.000 E3.39160
G1 X70.876 Y79.856 F15000.000
G1 X69.833 Y78.813 F1152.000 E3.46599
M106 S255
M104 S185 ; set temperature
G1 F3000.000 E1.86599
G92 E0
G1 Z0.600 F15000.000
G1 X83.000 Y80.250
G1 X82.500 Y80.250 F3000.000 E1.60000
G1 X72.027 Y80.250 F1800.000 E2.12251
G1 X71.253 Y80.195 E2.16121
G1 X70.521 Y80.035 E2.19857
G1 X69.820 Y79.774 E2.23592
G1 X69.163 Y79.415 E2.27328
G1 X68.563 Y78.966 E2.31064
G1 X68.034 Y78.437 E2.34799
G1 X67.585 Y77.837 E2.38535
G1 X67.226 Y77.180 E2.42271
G1 X66.965 Y76.479 E2.46006
G1 X66.805 Y75.747 E2.49742
G1 X66.752 Y75.000 E2.53478
G1 X66.805 Y74.253 E2.57214
G1 X66.965 Y73.521 E2.60949
G1 X67.226 Y72.820 E2.64685
G1 X67.585 Y72.163 E2.68421
G1 X68.034 Y71.563 E2.72157
G1 X68.563 Y71.034 E2.75892
G1 X69.163 Y70.585 E2.79628
G1 X69.820 Y70.226 E2.83364
G1 X70.521 Y69.965 E2.87099
G1 X71.253 Y69.805 E2.90835
G1 X72.027 Y69.750 E2.94705
G1 X83.250 Y69.750 E3.50698
G1 X83.250 Y71.697 E3.60413
G1 X74.320 Y71.697 E4.04964
G1 X73.937 Y71.440 E4.07267
G1 X73.237 Y71.140 E4.11065
G1 X72.494 Y70.977 E4.14863
G1 X71.733 Y70.956 E4.18662
G1 X70.981 Y71.077 E4.22460
G1 X70.024 Y71.424 E4.27537
G1 X70.024 Y71.480 E4.27816
G1 X69.611 Y71.726 E4.30215
G1 X69.041 Y72.230 E4.34013
G1 X68.633 Y72.758 E4.37342
G1 X68.575 Y72.832 E4.37811
G1 X68.163 Y73.643 E4.42346
G1 X68.018 Y74.242 E4.45460
G1 X67.947 Y75.000 E4.49258
G1 X68.018 Y75.758 E4.53057
G1 X68.230 Y76.489 E4.56855
G1 X68.532 Y77.084 E4.60184
G1 X68.575 Y77.168 E4.60653
G1 X69.041 Y77.770 E4.64451
G1 X69.611 Y78.274 E4.68249
G1 X70.265 Y78.663 E4.72047
G1 X70.654 Y78.804 E4.74107
G1 X70.654 Y78.870 E4.74436
G1 X70.981 Y78.923 E4.76092
G1 X71.228 Y79.013 E4.77402
G1 X71.733 Y79.045 E4.79954
G1 X72.494 Y79.023 E4.83750
G1 X73.237 Y78.860 E4.87549
G1 X73.937 Y78.560 E4.91347
G1 X74.320 Y78.303 E4.93650
G1 X83.250 Y78.303 E5.38201
G1 X83.250 Y78.750 E5.40433
G1 X83.250 Y79.500
G1 X83.500 Y80.750 F15000.000
G1 X72.009 Y80.750 F1440.000 E5.97762
G1 X71.182 Y80.691 E6.01899
G1 X70.380 Y80.516 E6.05992
G1 X69.612 Y80.230 E6.10084
G1 X68.892 Y79.837 E6.14177
G1 X68.235 Y79.345 E6.18269
G1 X67.655 Y78.765 E6.22362
G1 X67.163 Y78.108 E6.26454
G1 X66.770 Y77.388 E6.30547
G1 X66.484 Y76.620 E6.34639
G1 X66.309 Y75.818 E6.38732
G1 X66.251 Y75.000 E6.42824
G1 X66.309 Y74.182 E6.46917
G1 X66.484 Y73.380 E6.51010
G1 X66.770 Y72.612 E6.55102
G1 X67.163 Y71.892 E6.59195
G1 X67.655 Y71.235 E6.63287
G1 X68.235 Y70.655 E6.67380
G1 X68.892 Y70.163 E6.71472
G1 X69.612 Y69.770 E6.75565
G1 X70.380 Y69.484 E6.79657
G1 X71.182 Y69.309 E6.83750
G1 X72.009 Y69.250 E6.87887
G1 X83.750 Y69.250 E7.46464
G1 X83.750 Y72.197 E7.61168
G1 X74.168 Y72.197 E8.08974
G1 X73.697 Y71.881 E8.11804
G1 X73.084 Y71.618 E8.15131
G1 X72.432 Y71.475 E8.18459
G1 X71.766 Y71.457 E8.21786
G1 X71.107 Y71.563 E8.25114
G1 X70.524 Y71.775 E8.28208
G1 X69.907 Y72.131 E8.31535
G1 X69.407 Y72.573 E8.34863
G1 X68.999 Y73.101 E8.38190
G1 X68.697 Y73.695 E8.41284
G1 X68.512 Y74.336 E8.44612
G1 X68.449 Y75.000 E8.47939
G1 X68.512 Y75.664 E8.51267
G1 X68.697 Y76.305 E8.54594
G1 X68.999 Y76.899 E8.57922
G1 X69.407 Y77.427 E8.61249
G1 X69.907 Y77.869 E8.64577
G1 X70.480 Y78.210 E8.67904
G1 X70.728 Y78.299 E8.69219
G1 X71.107 Y78.437 E8.71232
G1 X71.766 Y78.543 E8.74326
G1 X72.386 Y78.526 E8.77420
G1 X73.084 Y78.382 E8.80747
G1 X73.697 Y78.119 E8.84075
G1 X74.168 Y77.803 E8.86904
G1 X83.750 Y77.803 E9.34711
G1 X83.750 Y79.750 E9.44426
G1 X83.750 Y80.250
G1 X83.104 Y79.396 F15000.000
G1 X82.396 Y80.104 F2880.000 E9.49472
G1 X81.680 Y80.104 F15000.000
G1 X83.104 Y78.680 F2880.000 E9.59625
G1 X82.619 Y78.449 F15000.000
G1 X80.964 Y80.104 F2880.000 E9.71429
G1 X80.248 Y80.104 F15000.000
G1 X81.903 Y78.449 F2880.000 E9.83232
G1 X81.187 Y78.449 F15000.000
G1 X79.532 Y80.104 F2880.000 E9.95036
G1 X78.816 Y80.104 F15000.000
G1 X80.471 Y78.449 F2880.000 E10.06840
G1 X79.755 Y78.449 F15000.000
G1 X78.100 Y80.104 F2880.000 E10.18643
G1 X77.384 Y80.104 F15000.000
G1 X79.039 Y78.449 F2880.000 E10.30447
G1 X78.323 Y78.449 F15000.000
G1 X76.668 Y80.104 F2880.000 E10.42250
G1 X75.952 Y80.104 F15000.000
G1 X77.607 Y78.449 F2880.000 E10.54053
G1 X76.891 Y78.449 F15000.000
G1 X75.236 Y80.104 F2880.000 E10.65857
G1 X74.520 Y80.104 F15000.000
G1 X76.175 Y78.449 F2880.000 E10.77660
G1 X75.459 Y78.449 F15000.000
G1 X73.804 Y80.104 F2880.000 E10.89464
G1 X73.088 Y80.104 F15000.000
G1 X74.572 Y78.620 F2880.000 E11.00046
G1 X73.421 Y79.056 E11.06253
G1 X72.372 Y80.104 E11.13730
G1 X71.659 Y80.101 F15000.000
G1 X72.583 Y79.177 F2880.000 E11.20323
G1 X71.781 Y79.263 F15000.000
G1 X70.991 Y80.054 F2880.000 E11.25960
G1 X70.400 Y79.928 F15000.000
G1 X71.255 Y79.073 F2880.000 E11.32062
G1 X70.647 Y78.965 F15000.000
G1 X69.868 Y79.744 F2880.000 E11.37617
G1 X69.383 Y79.513 F15000.000
G1 X70.234 Y78.662 F2880.000 E11.43683
G1 X69.785 Y78.395 F15000.000
G1 X68.939 Y79.241 F2880.000 E11.49715
G1 X68.531 Y78.934 F15000.000
G1 X69.387 Y78.077 F2880.000 E11.55824
G1 X69.011 Y77.737 F15000.000
G1 X68.173 Y78.576 F2880.000 E11.61803
G1 X67.850 Y78.182 F15000.000
G1 X68.698 Y77.334 F2880.000 E11.67858
G1 X68.413 Y76.903 F15000.000
G1 X67.562 Y77.754 F2880.000 E11.73927
G1 X67.314 Y77.286 F15000.000
G1 X68.172 Y76.428 F2880.000 E11.80046
G1 X67.992 Y75.892 F15000.000
G1 X67.119 Y76.765 F2880.000 E11.86275
G1 X66.982 Y76.186 F15000.000
G1 X67.860 Y75.308 F2880.000 E11.92542
G1 X67.799 Y74.653 F15000.000
G1 X66.913 Y75.539 F2880.000 E11.98862
G1 X66.939 Y74.797 F15000.000
G1 X67.873 Y73.863 F2880.000 E12.05522
G1 X67.144 Y73.876 F15000.000
G1 X68.188 Y72.832 F2880.000 E12.12972
G1 X68.059 Y72.246 E12.16000
G1 X69.246 Y71.059 E12.24467
G1 X69.833 Y71.187 E12.27502
G1 X70.876 Y70.144 E12.34940
G1 X70.848 Y70.889 F15000.000
