; generated by Slic3r 0.9.9-dev on 2013-01-27 at 20:56:58

; layer_height = 0.3
; perimeters = 2
; top_solid_layers = 3
; bottom_solid_layers = 2
; fill_density = 0.2
; perimeter_speed = 30
; infill_speed = 48
; travel_speed = 250
; scale = 1
; nozzle_diameter = 0.5
; filament_diameter = 1.75
; extrusion_multiplier = 1.0
; perimeters extrusion width = 0.50mm
; infill extrusion width = 0.50mm
; first layer extrusion width = 0.50mm

M107
M190 S57 ; wait for bed temperature to be reached
M104 S200 ; set temperature
G28 X0 Y0
G1 X75 Y75 F12000
G28 Z0
G1 Z0.3 F200
G1 X15 Y20 F12000
M109 S200 ; wait for temperature to be reached
G90 ; use absolute coordinates
G21 ; set units to millimeters
G92 E0
M82 ; use absolute distances for extrusion
G1 F2220.000 E-1.60000
G92 E0
G1 Z0.300 F15000.000
G1 X53.150 Y97.866
G1 X52.551 Y97.840 F2220.000 E1.60000
G1 X52.480 Y97.836 F720.000 E1.60441
G1 X51.220 Y97.706 E1.68340
G1 X50.550 Y97.596 E1.72574
G1 X49.890 Y97.426 E1.76825
G1 X48.070 Y96.726 E1.88985
G1 X47.750 Y96.576 E1.91189
G1 X47.450 Y96.406 E1.93340
G1 X46.860 Y96.026 E1.97716
G1 X45.540 Y95.046 E2.07969
G1 X26.940 Y79.636 E3.58601
G1 X26.350 Y79.076 E3.63674
G1 X25.990 Y78.656 E3.67124
G1 X25.670 Y78.216 E3.70517
G1 X25.390 Y77.756 E3.73875
G1 X25.270 Y77.516 E3.75549
G1 X24.950 Y76.766 E3.80634
G1 X24.790 Y76.246 E3.84027
G1 X24.640 Y75.436 E3.89164
G1 X24.610 Y75.166 E3.90858
G1 X24.590 Y74.626 E3.94228
G1 X24.590 Y58.616 E4.94071
G1 X24.610 Y58.096 E4.97316
G1 X24.670 Y57.576 E5.00580
G1 X24.720 Y57.316 E5.02231
G1 X24.920 Y56.556 E5.07132
G1 X25.010 Y56.316 E5.08731
G1 X25.220 Y55.826 E5.12055
G1 X25.460 Y55.366 E5.15291
G1 X25.890 Y54.716 E5.20151
G1 X26.220 Y54.306 E5.23434
G1 X26.780 Y53.746 E5.28372
G1 X27.190 Y53.416 E5.31655
G1 X27.840 Y52.986 E5.36515
G1 X28.300 Y52.746 E5.39751
G1 X28.790 Y52.536 E5.43075
G1 X29.030 Y52.446 E5.44674
G1 X29.530 Y52.306 E5.47912
G1 X30.050 Y52.196 E5.51226
G1 X30.570 Y52.136 E5.54491
G1 X31.090 Y52.116 E5.57736
G1 X118.900 Y52.116 E11.05343
G1 X119.420 Y52.136 E11.08589
G1 X119.940 Y52.196 E11.11853
G1 X120.460 Y52.306 E11.15168
G1 X120.960 Y52.446 E11.18406
G1 X121.450 Y52.636 E11.21683
G1 X121.920 Y52.856 E11.24919
G1 X122.150 Y52.986 E11.26567
G1 X122.800 Y53.416 E11.31427
G1 X123.210 Y53.746 E11.34709
G1 X123.590 Y54.116 E11.38017
G1 X123.770 Y54.306 E11.39649
G1 X124.100 Y54.716 E11.42931
G1 X124.250 Y54.926 E11.44541
G1 X124.660 Y55.596 E11.49439
G1 X124.880 Y56.066 E11.52676
G1 X125.070 Y56.556 E11.55953
G1 X125.270 Y57.316 E11.60854
G1 X125.320 Y57.576 E11.62505
G1 X125.380 Y58.096 E11.65770
G1 X125.400 Y58.616 E11.69015
G1 X125.400 Y74.626 E12.68858
G1 X125.380 Y75.166 E12.72228
G1 X125.350 Y75.436 E12.73922
G1 X125.200 Y76.246 E12.79059
G1 X125.040 Y76.766 E12.82452
G1 X124.840 Y77.266 E12.85810
G1 X124.600 Y77.756 E12.89213
G1 X124.320 Y78.216 E12.92571
G1 X124.000 Y78.656 E12.95964
G1 X123.640 Y79.076 E12.99414
G1 X123.050 Y79.636 E13.04487
G1 X104.450 Y95.046 E14.55119
G1 X103.130 Y96.026 E14.65372
G1 X102.540 Y96.406 E14.69748
G1 X102.240 Y96.576 E14.71899
G1 X101.600 Y96.856 E14.76255
G1 X100.100 Y97.426 E14.86262
G1 X99.770 Y97.516 E14.88395
G1 X99.440 Y97.596 E14.90513
G1 X98.770 Y97.706 E14.94747
G1 X97.510 Y97.836 E15.02647
G1 X96.840 Y97.866 E15.06829
G1 X53.225 Y97.866 E17.78824
G1 X53.150 Y97.866 E17.79292
G1 F2220.000 E16.19292
G92 E0
G1 X50.762 Y74.833 F15000.000
G1 X50.535 Y74.287 F2220.000 E1.60000
G1 X50.535 Y74.287 F1560.000
G1 X50.448 Y73.626 E1.64154
G1 X50.535 Y72.966 E1.68308
G1 X50.790 Y72.351 E1.72462
G1 X50.873 Y72.242 E1.73314
G1 X51.196 Y71.822 E1.76616
G1 X51.724 Y71.417 E1.80770
G1 X52.340 Y71.162 E1.84924
G1 X52.475 Y71.144 E1.85776
G1 X53.000 Y71.075 E1.89078
G1 X53.660 Y71.162 E1.93232
G1 X54.276 Y71.417 E1.97386
G1 X54.804 Y71.822 E2.01539
G1 X55.210 Y72.351 E2.05693
G1 X55.465 Y72.966 E2.09848
G1 X55.552 Y73.626 E2.14001
G1 X55.465 Y74.287 E2.18155
G1 X55.210 Y74.902 E2.22309
G1 X54.887 Y75.322 E2.25611
G1 X54.804 Y75.431 E2.26463
G1 X54.276 Y75.836 E2.30617
G1 X53.660 Y76.091 E2.34771
G1 X53.000 Y76.178 E2.38925
G1 X52.340 Y76.091 E2.43079
G1 X51.724 Y75.836 E2.47233
G1 X51.196 Y75.431 E2.51387
G1 X50.942 Y75.101 E2.53982
G1 X50.762 Y74.833
G1 X51.198 Y74.581 F15000.000
G1 X51.022 Y74.156 F576.000 E2.56847
G1 X50.953 Y73.626 E2.60180
G1 X51.022 Y73.097 E2.63513
G1 X51.227 Y72.603 E2.66846
G1 X51.270 Y72.547 E2.67288
G1 X51.552 Y72.179 E2.70179
G1 X51.976 Y71.853 E2.73512
G1 X52.470 Y71.649 E2.76845
G1 X52.540 Y71.640 E2.77287
G1 X53.000 Y71.579 E2.80178
G1 X53.530 Y71.649 E2.83511
G1 X54.024 Y71.853 E2.86844
G1 X54.448 Y72.179 E2.90177
G1 X54.730 Y72.547 E2.93068
G1 X54.773 Y72.603 E2.93510
G1 X54.978 Y73.097 E2.96843
G1 X55.047 Y73.626 E3.00175
G1 X54.978 Y74.156 E3.03508
G1 X54.773 Y74.650 E3.06841
G1 X54.491 Y75.018 E3.09732
G1 X54.448 Y75.074 E3.10174
G1 X54.024 Y75.399 E3.13507
G1 X53.530 Y75.604 E3.16840
G1 X53.000 Y75.674 E3.20173
G1 X52.470 Y75.604 E3.23506
G1 X51.976 Y75.399 E3.26839
G1 X51.552 Y75.074 E3.30172
G1 X51.273 Y74.710 E3.33037
G1 X51.198 Y74.581 E3.33965
G1 X50.942 Y75.101 F2220.000 E1.73965
G92 E0
G1 X53.065 Y82.871 F15000.000
G1 X53.585 Y83.171 F2220.000 E1.60000
G1 X56.285 Y84.730 F576.000 E1.79444
G1 X56.285 Y88.523 E2.03097
G1 X53.000 Y90.419 E2.26750
G1 X49.715 Y88.523 E2.50403
G1 X49.715 Y84.730 E2.74056
G1 X52.935 Y82.871 E2.97241
G1 X53.065 Y82.871 E2.98051
G1 X52.835 Y82.381 F2220.000 E1.38051
G92 E0
G1 X99.542 Y73.701 F15000.000
G1 X99.465 Y74.287 F2220.000 E1.60000
G1 X99.465 Y74.287 F1560.000
G1 X99.210 Y74.902 E1.64153
G1 X98.804 Y75.431 E1.68308
G1 X98.276 Y75.836 E1.72462
G1 X97.787 Y76.039 E1.75764
G1 X97.660 Y76.091 E1.76616
G1 X97.000 Y76.178 E1.80770
G1 X96.340 Y76.091 E1.84923
G1 X96.213 Y76.039 E1.85776
G1 X95.724 Y75.836 E1.89077
G1 X95.196 Y75.431 E1.93231
G1 X94.790 Y74.902 E1.97386
G1 X94.535 Y74.287 E2.01540
G1 X94.448 Y73.626 E2.05693
G1 X94.535 Y72.966 E2.09847
G1 X94.588 Y72.840 E2.10699
G1 X94.790 Y72.351 E2.14002
G1 X95.196 Y71.822 E2.18155
G1 X95.724 Y71.417 E2.22309
G1 X96.340 Y71.162 E2.26463
G1 X97.000 Y71.075 E2.30617
G1 X97.660 Y71.162 E2.34771
G1 X98.276 Y71.417 E2.38925
G1 X98.804 Y71.822 E2.43080
G1 X99.210 Y72.351 E2.47233
G1 X99.465 Y72.966 E2.51387
G1 X99.519 Y73.379 E2.53982
G1 X99.542 Y73.701
G1 X99.037 Y73.701 F15000.000
G1 X98.978 Y74.156 F576.000 E2.56847
G1 X98.773 Y74.650 E2.60180
G1 X98.448 Y75.074 E2.63513
G1 X98.024 Y75.399 E2.66846
G1 X97.595 Y75.577 E2.69737
G1 X97.530 Y75.604 E2.70179
G1 X97.000 Y75.674 E2.73512
G1 X96.470 Y75.604 E2.76844
G1 X96.405 Y75.577 E2.77286
G1 X95.976 Y75.399 E2.80178
G1 X95.552 Y75.074 E2.83510
G1 X95.227 Y74.650 E2.86844
G1 X95.022 Y74.156 E2.90177
G1 X94.953 Y73.626 E2.93509
G1 X95.022 Y73.097 E2.96842
G1 X95.050 Y73.031 E2.97284
G1 X95.227 Y72.603 E3.00176
G1 X95.552 Y72.179 E3.03508
G1 X95.976 Y71.853 E3.06841
G1 X96.470 Y71.649 E3.10174
G1 X97.000 Y71.579 E3.13507
G1 X97.530 Y71.649 E3.16840
G1 X98.024 Y71.853 E3.20173
G1 X98.448 Y72.179 E3.23506
G1 X98.773 Y72.603 E3.26839
G1 X98.978 Y73.097 E3.30172
G1 X99.037 Y73.552 E3.33037
G1 X99.037 Y73.701 E3.33964
G1 X99.519 Y73.379 F2220.000 E1.73964
G92 E0
G1 X97.065 Y82.871 F15000.000
G1 X97.585 Y83.171 F2220.000 E1.60000
G1 X100.285 Y84.730 F576.000 E1.79444
G1 X100.285 Y88.523 E2.03097
G1 X97.000 Y90.419 E2.26750
G1 X93.715 Y88.523 E2.50403
G1 X93.715 Y84.730 E2.74056
G1 X96.935 Y82.871 E2.97241
G1 X97.065 Y82.871 E2.98051
G1 X97.522 Y82.558 F15000.000
G1 X97.000 Y82.256 F720.000 E3.01813
G1 X93.215 Y84.441 E3.29067
G1 X93.215 Y88.103 E3.51903
G1 X93.009 Y88.152 E3.53224
G1 X87.216 Y76.688 E4.33328
G1 X86.502 Y75.656 E4.41156
G1 X85.493 Y74.824 E4.49310
G1 X84.295 Y74.299 E4.57465
G1 X83.052 Y74.126 E4.65293
G1 X66.948 Y74.126 E5.65723
G1 X65.705 Y74.299 E5.73551
G1 X64.507 Y74.824 E5.81706
G1 X63.498 Y75.656 E5.89860
G1 X62.784 Y76.688 E5.97688
G1 X56.991 Y88.152 E6.77791
G1 X56.785 Y88.103 E6.79112
G1 X56.785 Y84.441 E7.01949
G1 X53.000 Y82.256 E7.29202
G1 X48.750 Y84.710 E7.59807
G1 X48.750 Y76.827 E8.08966
G1 X48.663 Y76.163 E8.13144
G1 X48.387 Y75.498 E8.17631
G1 X47.949 Y74.927 E8.22119
G1 X47.378 Y74.489 E8.26606
G1 X46.713 Y74.214 E8.31094
G1 X46.049 Y74.126 E8.35272
G1 X31.600 Y74.126 E9.25381
G1 X31.600 Y59.126 E10.18925
G1 X44.263 Y59.126 E10.97893
G1 X71.407 Y65.533 E12.71824
G1 X73.762 Y65.901 E12.86690
G1 X73.926 Y65.905 E12.87710
G1 X76.167 Y65.905 E13.01690
G1 X78.601 Y65.532 E13.17046
G1 X105.737 Y59.126 E14.90925
G1 X118.400 Y59.126 E15.69893
G1 X118.400 Y74.126 E16.63437
G1 X103.951 Y74.126 E17.53546
G1 X103.287 Y74.214 E17.57724
G1 X102.622 Y74.489 E17.62212
G1 X102.051 Y74.927 E17.66699
G1 X101.613 Y75.498 E17.71187
G1 X101.337 Y76.163 E17.75674
G1 X101.250 Y76.827 E17.79852
G1 X101.250 Y84.710 E18.29011
G1 X97.804 Y82.720 E18.53827
G1 X97.522 Y82.558
G1 F2220.000 E16.93827
G92 E0
G1 X101.740 Y86.684 F15000.000
G1 X101.660 Y87.279 F2220.000 E1.60000
G1 X101.579 Y87.881 F576.000 E1.63789
G1 X101.085 Y89.046 E1.71681
G1 X100.301 Y90.039 E1.79574
G1 X99.282 Y90.790 E1.87467
G1 X98.101 Y91.245 E1.95360
G1 X96.841 Y91.371 E2.03253
G1 X95.593 Y91.161 E2.11146
G1 X94.445 Y90.628 E2.19039
G1 X93.479 Y89.811 E2.26932
G1 X92.753 Y88.754 E2.34930
G1 X86.786 Y76.944 E3.17444
G1 X86.130 Y75.998 E3.24624
G1 X85.228 Y75.254 E3.31913
G1 X84.158 Y74.785 E3.39202
G1 X83.018 Y74.626 E3.46382
G1 X66.982 Y74.626 E4.46382
G1 X65.842 Y74.785 E4.53562
G1 X64.772 Y75.254 E4.60852
G1 X63.870 Y75.998 E4.68140
G1 X63.214 Y76.944 E4.75321
G1 X57.247 Y88.754 E5.57835
G1 X56.521 Y89.811 E5.65833
G1 X55.555 Y90.628 E5.73726
G1 X54.407 Y91.161 E5.81619
G1 X53.159 Y91.371 E5.89512
G1 X51.899 Y91.245 E5.97405
G1 X50.718 Y90.790 E6.05297
G1 X49.699 Y90.039 E6.13190
G1 X48.915 Y89.046 E6.21083
G1 X48.421 Y87.881 E6.28976
G1 X48.250 Y86.610 E6.36974
G1 X48.250 Y76.860 E6.97776
G1 X48.175 Y76.293 E7.01339
G1 X47.950 Y75.750 E7.05006
G1 X47.593 Y75.284 E7.08672
G1 X47.126 Y74.926 E7.12339
G1 X46.583 Y74.701 E7.16005
G1 X46.016 Y74.626 E7.19569
G1 X31.100 Y74.626 E8.12591
G1 X31.100 Y58.626 E9.12372
G1 X44.321 Y58.626 E9.94821
G1 X71.505 Y65.043 E11.69008
G1 X73.807 Y65.402 E11.83537
G1 X73.932 Y65.405 E11.84316
G1 X76.144 Y65.405 E11.98114
G1 X78.498 Y65.042 E12.12963
G1 X105.679 Y58.626 E13.87132
G1 X118.900 Y58.626 E14.69581
G1 X118.900 Y74.626 E15.69362
G1 X103.984 Y74.626 E16.62384
G1 X103.417 Y74.701 E16.65948
G1 X102.874 Y74.926 E16.69614
G1 X102.407 Y75.284 E16.73281
G1 X102.050 Y75.750 E16.76947
G1 X101.825 Y76.293 E16.80614
G1 X101.750 Y76.860 E16.84177
G1 X101.750 Y86.535 E17.44511
G1 X101.740 Y86.684 E17.45445
G1 X101.390 Y86.187 F2220.000 E15.85445
G92 E0
G1 X95.223 Y82.956 F15000.000
G1 X94.798 Y82.532 F2220.000 E1.60000
G1 X78.184 Y65.917 F1152.000 E3.06678
G1 X78.781 Y65.806 E3.10468
G1 X95.671 Y82.697 E4.59582
G1 X96.120 Y82.438 E4.62816
G1 X79.353 Y65.671 E6.10837
G1 X79.926 Y65.536 E6.14510
G1 X96.569 Y82.179 E7.61436
G1 X97.018 Y81.920 E7.64671
G1 X80.498 Y65.401 E9.10503
G1 X81.071 Y65.266 E9.14176
G1 X98.305 Y82.500 E10.66323
G1 X99.980 Y83.467 E10.78395
G1 X81.644 Y65.130 E12.40271
G1 X82.216 Y64.995 E12.43944
G1 X100.909 Y83.688 E14.08967
G1 X100.909 Y82.980 E14.13385
G1 X82.789 Y64.860 E15.73353
G1 X83.362 Y64.725 E15.77025
G1 X100.909 Y82.272 E17.31938
G1 X100.909 Y81.565 E17.36354
G1 X95.561 Y76.217 E17.83569
G1 X96.535 Y76.483 E17.89877
G1 X100.909 Y80.857 E18.28491
G1 X100.909 Y80.149 E18.32907
G1 X97.231 Y76.472 E18.65372
G1 X97.812 Y76.344 E18.69084
G1 X100.909 Y79.441 E18.96425
G1 X100.909 Y78.734 E19.00841
G1 X98.312 Y76.137 E19.23763
G1 X98.724 Y75.841 E19.26932
G1 X100.909 Y78.026 E19.46220
G1 X100.909 Y77.318 E19.50636
G1 X99.096 Y75.505 E19.66641
G1 X99.404 Y75.104 E19.69795
G1 X100.949 Y76.650 E19.83440
G1 X101.065 Y76.058 E19.87204
G1 X99.638 Y74.631 E19.99800
G1 X99.814 Y74.099 E20.03302
G1 X101.272 Y75.557 E20.16178
G1 X101.549 Y75.127 E20.19373
G1 X99.896 Y73.474 E20.33968
G1 X99.783 Y72.652 E20.39144
G1 X101.857 Y74.727 E20.57459
G1 X102.257 Y74.420 E20.60607
G1 X90.806 Y62.968 E21.61705
G1 X90.233 Y63.103 E21.65375
G1 X97.974 Y70.844 E22.33713
G1 X97.153 Y70.731 E22.38890
G1 X89.660 Y63.238 E23.05034
G1 X89.088 Y63.373 E23.08704
G1 X96.528 Y70.813 E23.74382
G1 X95.995 Y70.989 E23.77884
G1 X88.515 Y63.509 E24.43917
G1 X87.943 Y63.643 E24.47587
G1 X95.522 Y71.223 E25.14499
G1 X95.121 Y71.530 E25.17653
G1 X87.370 Y63.779 E25.86083
G1 X86.797 Y63.914 E25.89754
G1 X94.786 Y71.902 E26.60273
G1 X94.489 Y72.314 E26.63442
G1 X86.224 Y64.049 E27.36403
G1 X85.652 Y64.184 E27.40073
G1 X94.282 Y72.814 E28.16260
G1 X94.154 Y73.395 E28.19972
G1 X85.079 Y64.320 E29.00089
G1 X84.507 Y64.455 E29.03759
G1 X94.144 Y74.091 E29.88833
G1 X94.410 Y75.066 E29.95139
G1 X83.934 Y64.590 E30.87621
G1 F2220.000 E29.27621
G92 E0
G1 X91.379 Y62.832 F15000.000
G1 X91.803 Y63.257 F2220.000 E1.60000
G1 X102.691 Y74.145 F1152.000 E2.56119
G1 X103.191 Y73.938 E2.59498
G1 X91.951 Y62.698 E3.58725
G1 X92.524 Y62.562 E3.62401
G1 X103.786 Y73.824 E4.61820
G1 X104.455 Y73.786 E4.66004
G1 X93.096 Y62.427 E5.66278
G1 X93.669 Y62.292 E5.69953
G1 X105.163 Y73.786 E6.71421
G1 X105.870 Y73.786 E6.75837
G1 X94.241 Y62.157 E7.78498
G1 X94.814 Y62.021 E7.82174
G1 X106.579 Y73.786 E8.86028
G1 X107.286 Y73.786 E8.90444
G1 X95.387 Y61.887 E9.95491
G1 X95.960 Y61.751 E9.99167
G1 X107.994 Y73.785 E11.05407
G1 X108.702 Y73.786 E11.09823
G1 X96.532 Y61.616 E12.17256
G1 X97.105 Y61.481 E12.20932
G1 X109.410 Y73.785 E13.29558
G1 X110.117 Y73.786 E13.33974
G1 X97.677 Y61.346 E14.43795
G1 X98.250 Y61.210 E14.47470
G1 X110.825 Y73.785 E15.58483
G1 X111.533 Y73.786 E15.62900
G1 X98.823 Y61.076 E16.75106
G1 X99.396 Y60.940 E16.78782
G1 X112.241 Y73.785 E17.92181
G1 X112.948 Y73.786 E17.96598
G1 X99.968 Y60.805 E19.11191
G1 X100.541 Y60.670 E19.14866
G1 X113.657 Y73.785 E20.30653
G1 X114.364 Y73.786 E20.35069
G1 X101.113 Y60.535 E21.52049
G1 X101.686 Y60.399 E21.55724
G1 X115.072 Y73.785 E22.73897
G1 X115.780 Y73.786 E22.78313
G1 X102.259 Y60.265 E23.97678
G1 X102.831 Y60.129 E24.01354
G1 X116.488 Y73.785 E25.21913
G1 X117.195 Y73.786 E25.26329
G1 X103.404 Y59.994 E26.48082
G1 X103.977 Y59.859 E26.51757
G1 X117.903 Y73.785 E27.74703
G1 X118.059 Y73.234 E27.78279
G1 X104.549 Y59.724 E28.97547
G1 X105.122 Y59.588 E29.01223
G1 X118.059 Y72.526 E30.15435
G1 X118.059 Y71.818 E30.19852
G1 X105.708 Y59.467 E31.28888
G1 X106.416 Y59.467 E31.33308
G1 X118.059 Y71.110 E32.36096
G1 X118.059 Y70.403 E32.40512
G1 X107.124 Y59.467 E33.37051
G1 X107.832 Y59.467 E33.41472
G1 X118.059 Y69.695 E34.31762
G1 X118.059 Y68.987 E34.36178
G1 X108.539 Y59.467 E35.20220
G1 X109.247 Y59.467 E35.24640
G1 X118.059 Y68.279 E36.02433
G1 X118.059 Y67.571 E36.06849
G1 X109.955 Y59.467 E36.78394
G1 X110.663 Y59.467 E36.82815
G1 X118.059 Y66.863 E37.48111
G1 X118.059 Y66.156 E37.52527
G1 X111.371 Y59.467 E38.11575
G1 X112.079 Y59.467 E38.15996
G1 X118.060 Y65.448 E38.68795
G1 X118.059 Y64.740 E38.73212
G1 X112.786 Y59.467 E39.19762
G1 X113.494 Y59.467 E39.24183
G1 X118.060 Y64.032 E39.64485
G1 X118.059 Y63.325 E39.68902
G1 X114.202 Y59.467 E40.02955
G1 X114.910 Y59.467 E40.07376
G1 X118.060 Y62.616 E40.35181
G1 X118.059 Y61.909 E40.39597
G1 X115.617 Y59.467 E40.61153
G1 X116.326 Y59.467 E40.65574
G1 X118.060 Y61.201 E40.80882
G1 X118.059 Y60.493 E40.85298
G1 X117.033 Y59.467 E40.94357
G1 X117.741 Y59.467 E40.98777
G1 X118.060 Y59.785 E41.01588
G1 F2220.000 E39.41588
G92 E0
G1 X87.032 Y75.473 F15000.000
G1 X86.607 Y75.049 F2220.000 E1.60000
G1 X77.570 Y66.011 F1152.000 E2.39786
G1 X76.956 Y66.105 E2.43663
G1 X85.004 Y74.153 E3.14716
G1 X84.039 Y73.896 E3.20954
G1 X76.342 Y66.199 E3.88903
G1 X75.682 Y66.246 E3.93035
G1 X83.221 Y73.786 E4.59593
G1 X82.513 Y73.786 E4.64011
G1 X74.974 Y66.246 E5.30570
G1 X74.266 Y66.246 E5.34988
G1 X81.805 Y73.786 E6.01545
G1 X81.098 Y73.786 E6.05964
G1 X73.552 Y66.240 E6.72574
G1 X72.713 Y66.109 E6.77875
G1 X80.390 Y73.786 E7.45643
G1 X79.682 Y73.786 E7.50061
G1 X71.874 Y65.978 E8.18987
G1 X71.024 Y65.835 E8.24373
G1 X78.974 Y73.786 E8.94561
G1 X78.266 Y73.786 E8.98979
G1 X70.097 Y65.616 E9.71098
