; generated by Slic3r 0.9.9-dev on 2013-03-13 at 11:10:11

; layer_height = 0.3
; perimeters = 2
; top_solid_layers = 3
; bottom_solid_layers = 2
; fill_density = 0.2
; perimeter_speed = 32
; infill_speed = 50
; travel_speed = 250
; scale = 1
; nozzle_diameter = 0.5
; filament_diameter = 1.75
; extrusion_multiplier = 0.9
; perimeters extrusion width = 0.50mm
; infill extrusion width = 0.50mm
; first layer extrusion width = 0.50mm

M107
M190 S57 ; wait for bed temperature to be reached
M104 S200 ; set temperature
G28 X0 Y0
G1 X75 Y75 F12000
G28 Z0
G1 Z0.3 F200
G1 X15 Y20 F12000
M109 S200 ; wait for temperature to be reached
G90 ; use absolute coordinates
G21 ; set units to millimeters
M83 ; use relative distances for extrusion
G1 F2760.000 E-3.20000
G1 Z0.300 F15000.000
G1 X80.091 Y93.605
G1 X80.421 Y93.355 F2760.000 E3.20000
G1 X80.421 Y93.355 F1920.000
G1 X99.561 Y80.695 E1.28800
G1 X99.751 Y80.575 E0.01261
G1 X100.161 Y80.375 E0.02560
G1 X100.371 Y80.295 E0.01261
G1 X100.811 Y80.185 E0.02546
G1 X101.041 Y80.145 E0.01310
G1 X101.491 Y80.115 E0.02531
G1 X114.491 Y80.115 E0.72964
G1 X114.941 Y80.145 E0.02531
G1 X115.611 Y80.295 E0.03854
G1 X116.031 Y80.475 E0.02565
G1 X116.421 Y80.695 E0.02513
G1 X135.561 Y93.355 E1.28800
G1 X136.041 Y93.735 E0.03436
G1 X136.451 Y94.195 E0.03459
G1 X136.771 Y94.725 E0.03475
G1 X136.931 Y95.095 E0.02263
G1 X137.081 Y95.695 E0.03471
G1 X137.131 Y96.095 E0.02263
G1 X137.351 Y100.415 E0.24278
G1 X137.321 Y101.025 E0.03428
G1 X137.201 Y101.625 E0.03434
G1 X137.051 Y102.005 E0.02293
G1 X136.871 Y102.365 E0.02259
G1 X136.641 Y102.705 E0.02304
G1 X136.381 Y103.015 E0.02271
G1 X135.921 Y103.425 E0.03459
G1 X112.481 Y118.545 E1.56556
G1 X112.041 Y118.785 E0.02813
G1 X110.801 Y119.355 E0.07660
G1 X110.231 Y119.565 E0.03409
G1 X109.831 Y119.645 E0.02290
G1 X108.281 Y119.855 E0.08779
G1 X107.891 Y119.865 E0.02190
G1 X107.501 Y119.835 E0.02195
G1 X106.161 Y119.645 E0.07596
G1 X105.761 Y119.565 E0.02290
G1 X105.571 Y119.505 E0.01118
G1 X105.381 Y119.435 E0.01136
G1 X103.951 Y118.785 E0.08816
G1 X103.501 Y118.545 E0.02862
G1 X80.071 Y103.425 E1.56509
G1 X79.761 Y103.165 E0.02271
G1 X79.351 Y102.715 E0.03417
G1 X79.231 Y102.545 E0.01168
G1 X79.121 Y102.375 E0.01136
G1 X78.861 Y101.825 E0.03415
G1 X78.741 Y101.435 E0.02290
G1 X78.701 Y101.235 E0.01145
G1 X78.651 Y100.835 E0.02263
G1 X78.641 Y100.425 E0.02302
G1 X78.851 Y96.105 E0.24275
G1 X78.941 Y95.495 E0.03461
G1 X79.051 Y95.105 E0.02274
G1 X79.211 Y94.725 E0.02314
G1 X79.411 Y94.365 E0.02311
G1 X79.791 Y93.885 E0.03436
G1 X80.034 Y93.654 E0.01883
G1 X80.091 Y93.605 E0.00421
G1 F2760.000 E-3.20000
G1 X84.371 Y96.891 F15000.000
G1 X84.806 Y96.557 F2760.000 E3.20000
G1 X84.806 Y96.557 F1560.000
G1 X85.382 Y96.319 E0.03499
G1 X86.000 Y96.237 E0.03498
G1 X86.618 Y96.319 E0.03498
G1 X87.194 Y96.557 E0.03498
G1 X87.688 Y96.937 E0.03498
G1 X88.068 Y97.431 E0.03498
G1 X88.306 Y98.007 E0.03499
G1 X88.388 Y98.625 E0.03499
G1 X88.306 Y99.243 E0.03498
G1 X88.068 Y99.819 E0.03498
G1 X87.688 Y100.313 E0.03498
G1 X87.194 Y100.693 E0.03498
G1 X87.067 Y100.745 E0.00771
G1 X86.618 Y100.931 E0.02728
G1 X86.000 Y101.013 E0.03499
G1 X85.382 Y100.931 E0.03498
G1 X84.806 Y100.693 E0.03498
G1 X84.312 Y100.313 E0.03498
G1 X83.932 Y99.819 E0.03498
G1 X83.880 Y99.692 E0.00771
G1 X83.694 Y99.243 E0.02728
G1 X83.612 Y98.625 E0.03498
G1 X83.694 Y98.007 E0.03499
G1 X83.932 Y97.431 E0.03499
G1 X84.038 Y97.294 E0.00973
G1 X84.371 Y96.891
G1 X84.728 Y97.248 F15000.000
G1 X85.058 Y96.994 F780.000 E0.02338
G1 X85.513 Y96.806 E0.02760
G1 X86.000 Y96.742 E0.02760
G1 X86.487 Y96.806 E0.02760
G1 X86.942 Y96.994 E0.02760
G1 X87.332 Y97.293 E0.02759
G1 X87.631 Y97.683 E0.02759
G1 X87.819 Y98.138 E0.02760
G1 X87.883 Y98.625 E0.02760
G1 X87.819 Y99.112 E0.02759
G1 X87.631 Y99.567 E0.02759
G1 X87.332 Y99.957 E0.02760
G1 X86.942 Y100.256 E0.02759
G1 X86.876 Y100.283 E0.00401
G1 X86.487 Y100.444 E0.02358
G1 X86.000 Y100.508 E0.02760
G1 X85.513 Y100.444 E0.02759
G1 X85.058 Y100.256 E0.02760
G1 X84.668 Y99.957 E0.02759
G1 X84.369 Y99.567 E0.02759
G1 X84.181 Y99.112 E0.02760
G1 X84.117 Y98.625 E0.02759
G1 X84.181 Y98.138 E0.02760
G1 X84.369 Y97.683 E0.02760
G1 X84.623 Y97.353 E0.02338
G1 X84.728 Y97.248 E0.00835
G1 X84.038 Y97.294 F2760.000 E-3.20000
G1 X127.622 Y98.551 F15000.000
G1 X127.694 Y98.007 F2760.000 E3.20000
G1 X127.694 Y98.007 F1560.000
G1 X127.932 Y97.431 E0.03499
G1 X128.312 Y96.937 E0.03499
G1 X128.806 Y96.557 E0.03498
G1 X129.382 Y96.319 E0.03498
G1 X130.000 Y96.237 E0.03499
G1 X130.618 Y96.319 E0.03498
G1 X131.194 Y96.557 E0.03498
G1 X131.688 Y96.937 E0.03499
G1 X132.068 Y97.431 E0.03499
G1 X132.254 Y97.880 E0.02727
G1 X132.306 Y98.007 E0.00771
G1 X132.388 Y98.625 E0.03498
G1 X132.306 Y99.243 E0.03499
G1 X132.120 Y99.692 E0.02728
G1 X132.068 Y99.819 E0.00771
G1 X131.688 Y100.313 E0.03498
G1 X131.194 Y100.693 E0.03498
G1 X130.618 Y100.931 E0.03498
G1 X130.000 Y101.013 E0.03499
G1 X129.382 Y100.931 E0.03498
G1 X129.255 Y100.879 E0.00771
G1 X128.806 Y100.693 E0.02728
G1 X128.312 Y100.313 E0.03498
G1 X127.932 Y99.819 E0.03499
G1 X127.694 Y99.243 E0.03498
G1 X127.671 Y99.071 E0.00973
G1 X127.622 Y98.551
G1 X128.126 Y98.551 F15000.000
G1 X128.181 Y98.138 F780.000 E0.02338
G1 X128.369 Y97.683 E0.02760
G1 X128.668 Y97.293 E0.02760
G1 X129.058 Y96.994 E0.02759
G1 X129.513 Y96.806 E0.02760
G1 X130.000 Y96.742 E0.02760
G1 X130.487 Y96.806 E0.02759
G1 X130.942 Y96.994 E0.02759
G1 X131.332 Y97.293 E0.02760
G1 X131.631 Y97.683 E0.02760
G1 X131.792 Y98.072 E0.02358
G1 X131.819 Y98.138 E0.00401
G1 X131.883 Y98.625 E0.02759
G1 X131.819 Y99.112 E0.02760
G1 X131.658 Y99.501 E0.02358
G1 X131.631 Y99.567 E0.00401
G1 X131.332 Y99.957 E0.02759
G1 X130.942 Y100.256 E0.02759
G1 X130.487 Y100.444 E0.02759
G1 X130.000 Y100.508 E0.02760
G1 X129.513 Y100.444 E0.02759
G1 X129.447 Y100.417 E0.00401
G1 X129.058 Y100.256 E0.02358
G1 X128.668 Y99.957 E0.02759
G1 X128.369 Y99.567 E0.02760
G1 X128.181 Y99.112 E0.02759
G1 X128.126 Y98.699 E0.02339
G1 X128.126 Y98.551 E0.00835
G1 X127.671 Y99.071 F2760.000 E-3.20000
G1 X111.285 Y109.804 F15000.000
G1 X111.285 Y110.404 F2760.000 E3.20000
G1 X111.285 Y113.521 F780.000 E0.17499
G1 X110.984 Y113.695 E0.01951
G1 X108.000 Y115.418 E0.19336
G1 X104.715 Y113.521 E0.21288
G1 X104.715 Y109.729 E0.21288
G1 X108.000 Y107.832 E0.21288
G1 X111.220 Y109.691 E0.20867
G1 X111.285 Y109.804 E0.00729
G1 X111.720 Y109.402 F15000.000
G1 X108.000 Y107.255 F960.000 E0.24107
G1 X104.215 Y109.440 E0.24528
G1 X104.215 Y114.241 E0.26948
G1 X82.662 Y100.339 E1.43955
G1 X82.846 Y96.591 E0.21063
G1 X86.185 Y94.877 E0.21063
G1 X101.029 Y104.451 E0.99143
G1 X111.471 Y104.451 E0.58606
G1 X111.604 Y102.931 E0.08564
G1 X103.085 Y101.429 E0.48553
G1 X102.705 Y101.306 E0.02239
G1 X102.419 Y101.113 E0.01941
G1 X102.196 Y100.848 E0.01941
G1 X102.056 Y100.532 E0.01941
G1 X102.000 Y100.137 E0.02239
G1 X102.000 Y84.125 E0.89868
G1 X114.000 Y84.125 E0.67352
G1 X114.000 Y99.125 E0.84190
G1 X104.529 Y99.125 E0.53157
G1 X104.396 Y100.645 E0.08564
G1 X112.915 Y102.147 E0.48553
G1 X113.295 Y102.270 E0.02239
G1 X113.581 Y102.464 E0.01941
G1 X113.804 Y102.729 E0.01941
G1 X113.944 Y103.045 E0.01941
G1 X114.000 Y103.440 E0.02239
G1 X114.000 Y105.078 E0.09193
G1 X129.815 Y94.877 E1.05628
G1 X133.154 Y96.591 E0.21063
G1 X133.338 Y100.339 E0.21063
G1 X111.785 Y114.241 E1.43955
G1 X111.785 Y109.890 E0.24423
G1 X111.720 Y109.402
G1 F2760.000 E-3.20000
G1 X111.019 Y103.877 F15000.000
G1 X111.066 Y103.344 F2760.000 E3.20000
G1 X111.066 Y103.344 F1560.000
G1 X102.963 Y101.916 E0.46178
G1 X102.484 Y101.760 E0.02829
G1 X102.081 Y101.488 E0.02730
G1 X101.768 Y101.115 E0.02730
G1 X101.570 Y100.671 E0.02730
G1 X101.500 Y100.172 E0.02829
G1 X101.500 Y83.625 E0.92870
G1 X114.500 Y83.625 E0.72964
G1 X114.500 Y99.625 E0.89802
G1 X104.987 Y99.625 E0.53391
G1 X104.934 Y100.232 E0.03421
G1 X113.037 Y101.661 E0.46178
G1 X113.516 Y101.817 E0.02829
G1 X113.919 Y102.089 E0.02730
G1 X114.232 Y102.461 E0.02730
G1 X114.430 Y102.906 E0.02730
G1 X114.500 Y103.405 E0.02829
G1 X114.500 Y104.160 E0.04239
G1 X129.787 Y94.300 E1.02099
G1 X133.639 Y96.278 E0.24303
G1 X133.852 Y100.603 E0.24303
G1 X110.590 Y115.607 E1.55366
G1 X109.341 Y116.179 E0.07708
G1 X108.000 Y116.372 E0.07606
G1 X106.659 Y116.179 E0.07606
G1 X105.410 Y115.607 E0.07708
G1 X82.148 Y100.603 E1.55366
G1 X82.361 Y96.278 E0.24303
G1 X86.213 Y94.300 E0.24303
G1 X101.176 Y103.951 E0.99937
G1 X110.938 Y103.951 E0.54787
G1 X111.019 Y103.877 E0.00621
G1 X111.929 Y102.978 F15000.000
G1 X113.659 Y104.709 F1200.000 E0.13889
G1 X113.659 Y103.994 E0.04057
G1 X112.034 Y102.368 E0.13044
G1 X113.010 Y102.630 E0.05735
G1 X113.529 Y103.149 E0.04165
G1 F2760.000 E-3.20000
G1 X113.659 Y105.423 F15000.000
G1 X113.235 Y104.999 F2760.000 E3.20000
G1 X111.871 Y103.635 F1200.000 E0.10946
G1 X111.814 Y104.293 E0.03745
G1 X113.659 Y106.138 E0.14812
G1 X113.350 Y105.830 F15000.000
G1 X117.647 Y110.127 F1200.000 E0.34484
G1 X117.213 Y110.407 E0.02935
G1 X111.598 Y104.792 E0.45059
G1 X110.883 Y104.792 E0.04057
G1 X116.778 Y110.687 E0.47309
G1 X116.344 Y110.968 E0.02935
G1 X110.168 Y104.792 E0.49559
G1 X109.453 Y104.792 E0.04057
G1 X115.909 Y111.248 E0.51808
G1 X115.474 Y111.528 E0.02935
G1 X108.738 Y104.792 E0.54058
G1 X108.023 Y104.792 E0.04057
G1 X115.040 Y111.809 E0.56307
G1 F2760.000 E-3.20000
G1 X112.867 Y113.210 F15000.000
G1 X112.443 Y112.786 F2760.000 E3.20000
G1 X112.125 Y112.469 F1200.000 E0.02545
G1 X112.125 Y111.754 E0.04057
G1 X113.301 Y112.930 E0.09438
G1 X113.736 Y112.649 E0.02935
G1 X112.125 Y111.039 E0.12925
G1 X112.125 Y110.324 E0.04057
G1 X114.171 Y112.369 E0.16413
G1 X114.605 Y112.089 E0.02935
G1 X112.125 Y109.609 E0.19901
G1 X110.984 Y108.468 F15000.000
G1 X107.309 Y104.792 F1200.000 E0.29497
G1 X106.594 Y104.792 E0.04057
G1 X109.293 Y107.491 E0.21660
G1 X108.010 Y106.923 E0.07963
G1 X105.879 Y104.792 E0.17100
G1 X105.164 Y104.792 E0.04057
G1 X107.556 Y107.185 E0.19200
G1 X107.103 Y107.446 E0.02970
G1 X104.449 Y104.792 E0.21300
G1 X103.734 Y104.792 E0.04057
G1 X106.650 Y107.708 E0.23400
G1 X106.197 Y107.970 E0.02970
G1 X103.019 Y104.792 E0.25500
G1 X102.304 Y104.792 E0.04057
G1 X105.743 Y108.231 E0.27600
G1 X105.290 Y108.493 E0.02970
G1 X101.589 Y104.792 E0.29700
G1 X100.874 Y104.792 E0.04057
G1 X104.837 Y108.755 E0.31800
G1 X104.384 Y109.016 E0.02970
G1 X99.136 Y103.769 E0.42114
G1 X97.122 Y102.470 E0.13599
G1 X103.930 Y109.278 E0.54638
G1 X103.875 Y109.937 E0.03753
G1 X95.108 Y101.171 E0.70350
G1 X93.094 Y99.872 E0.13599
G1 X103.875 Y110.652 E0.86512
G1 X103.875 Y111.367 E0.04057
G1 X91.081 Y98.573 E1.02673
G1 F2760.000 E-3.20000
G1 X88.718 Y98.355 F15000.000
G1 X89.142 Y98.780 F2760.000 E3.20000
G1 X103.794 Y113.431 F1200.000 E1.17581
G1 X103.875 Y112.797 E0.03629
G1 X88.520 Y97.443 E1.23219
G1 X89.067 Y97.274 E0.03245
G1 X103.875 Y112.082 E1.18834
G1 F2760.000 E-3.20000
G1 X101.780 Y112.132 F15000.000
G1 X101.356 Y111.708 F2760.000 E3.20000
G1 X88.661 Y99.013 F1200.000 E1.01881
G1 X88.492 Y99.559 E0.03242
G1 X99.766 Y110.833 E0.90481
G1 X97.753 Y109.534 E0.13599
G1 X88.252 Y100.034 E0.76245
G1 X87.941 Y100.438 E0.02893
G1 X95.739 Y108.236 E0.62574
G1 X93.725 Y106.937 E0.13599
G1 X87.554 Y100.765 E0.49524
G1 X87.115 Y101.042 F15000.000
G1 X91.711 Y105.638 F1200.000 E0.36885
G1 X89.697 Y104.339 E0.13599
G1 X86.609 Y101.251 E0.24780
G1 X85.670 Y101.741 F15000.000
G1 X85.351 Y101.422 F1200.000 E0.02557
G1 X85.983 Y101.339 E0.03616
G1 X87.683 Y103.040 E0.13648
G1 F2760.000 E-3.20000
G1 X113.785 Y105.549 F15000.000
G1 X114.209 Y105.974 F2760.000 E3.20000
G1 X118.082 Y109.846 F1200.000 E0.31079
G1 X118.517 Y109.566 E0.02935
G1 X114.220 Y105.269 E0.34484
G1 X114.654 Y104.989 E0.02935
G1 X118.951 Y109.286 E0.34484
G1 X119.386 Y109.005 E0.02935
G1 X115.089 Y104.708 E0.34484
G1 X115.523 Y104.428 E0.02935
G1 X119.820 Y108.725 E0.34484
G1 X120.255 Y108.445 E0.02935
G1 X115.958 Y104.148 E0.34484
G1 X116.393 Y103.867 E0.02935
G1 X120.690 Y108.164 E0.34484
G1 X121.124 Y107.884 E0.02935
G1 X116.827 Y103.587 E0.34484
G1 X117.262 Y103.307 E0.02935
G1 X121.559 Y107.604 E0.34484
G1 X121.993 Y107.323 E0.02935
G1 X117.696 Y103.026 E0.34484
G1 X118.131 Y102.746 E0.02935
G1 X122.428 Y107.043 E0.34484
G1 X122.863 Y106.763 E0.02935
G1 X118.566 Y102.466 E0.34484
G1 X119.000 Y102.186 E0.02935
G1 X123.297 Y106.483 E0.34484
G1 X123.732 Y106.202 E0.02935
G1 X119.435 Y101.905 E0.34484
G1 X119.869 Y101.625 E0.02935
G1 X124.166 Y105.922 E0.34484
G1 X124.601 Y105.642 E0.02935
G1 X120.304 Y101.345 E0.34484
G1 X120.739 Y101.064 E0.02935
G1 X125.036 Y105.361 E0.34484
G1 X125.470 Y105.081 E0.02935
G1 X121.173 Y100.784 E0.34484
G1 X121.608 Y100.504 E0.02935
G1 X125.905 Y104.801 E0.34484
G1 X126.339 Y104.520 E0.02935
G1 X122.042 Y100.223 E0.34484
G1 X122.477 Y99.943 E0.02935
G1 X126.774 Y104.240 E0.34484
G1 X127.209 Y103.960 E0.02935
G1 X122.912 Y99.663 E0.34484
G1 X123.346 Y99.382 E0.02935
G1 X127.643 Y103.679 E0.34484
G1 X128.078 Y103.399 E0.02935
G1 X123.781 Y99.102 E0.34484
G1 X124.215 Y98.822 E0.02935
G1 X128.512 Y103.119 E0.34484
G1 X128.947 Y102.838 E0.02935
G1 X124.650 Y98.541 E0.34484
G1 X125.085 Y98.261 E0.02935
G1 X129.382 Y102.558 E0.34484
G1 X129.816 Y102.278 E0.02935
G1 X128.589 Y101.051 E0.09847
G1 X129.576 Y101.323 E0.05810
G1 X130.251 Y101.997 E0.05413
G1 F2760.000 E-3.20000
G1 X127.574 Y100.036 F15000.000
G1 X127.150 Y99.612 F2760.000 E3.20000
G1 X125.519 Y97.981 F1200.000 E0.13086
G1 X125.954 Y97.701 E0.02935
G1 X127.302 Y99.049 E0.10820
G1 X127.324 Y98.355 E0.03936
G1 X126.388 Y97.420 E0.07505
G1 X126.823 Y97.140 E0.02935
G1 X127.469 Y97.786 E0.05185
G1 X127.679 Y97.280 E0.03105
G1 X127.359 Y96.961 E0.02560
G1 F2760.000 E-3.20000
G1 X85.166 Y101.246 F15000.000
G1 X85.404 Y101.278 F2760.000 E3.20000
G1 X85.404 Y101.278 F2400.000
G1 X84.193 Y100.809 F15000.000
G1 X84.851 Y101.206 F1200.000 E0.02618
G1 X85.166 Y101.246 E0.01083
G1 X84.177 Y100.804 F15000.000
G1 X84.193 Y100.809 F1200.000 E0.00058
G1 X84.142 Y100.781 F15000.000
G1 X84.177 Y100.804 F1200.000 E0.00142
G1 X84.044 Y100.786 F15000.000
G1 X84.142 Y100.781 F1200.000 E0.00335
G1 X84.039 Y100.581 E0.00766
G1 X83.585 Y100.354 F15000.000
G1 X83.755 Y100.593 F1200.000 E0.02290
G1 X83.157 Y99.774 F15000.000
G1 X83.237 Y100.065 F1200.000 E0.02354
G1 X83.585 Y100.354 E0.03540
G1 X83.123 Y99.504 F15000.000
G1 X83.157 Y99.774 F1200.000 E0.02134
G1 X83.076 Y99.474 F15000.000
G1 X83.123 Y99.504 F1200.000 E0.00432
G1 X83.115 Y98.873 F15000.000
G1 X83.123 Y98.854 F1200.000 E0.00071
G1 X83.185 Y98.791 E0.00303
G1 X83.204 Y98.094 E0.02376
G1 X83.151 Y98.010 E0.00338
G1 X83.185 Y98.791 F15000.000
G1 X83.216 Y98.821 F1200.000 E0.00146
G1 X83.272 Y98.848 E0.00212
G1 X83.204 Y98.094 F15000.000
G1 X83.281 Y98.032 F1200.000 E0.00339
G1 X83.325 Y97.905 E0.00457
G1 X83.337 Y97.458 F15000.000
G1 X83.631 Y96.831 F1200.000 E0.05414
G1 X84.095 Y96.494 E0.04483
G1 X84.438 Y96.312 F15000.000
G1 X84.449 Y96.270 F1200.000 E0.00146
G1 X84.343 Y96.251 E0.00370
G1 X84.438 Y96.312 F15000.000
G1 X84.442 Y96.374 F1200.000 E0.00212
G1 X84.449 Y96.270 F15000.000
G1 X84.461 Y96.264 F1200.000 E0.00047
G1 X84.912 Y96.018 E0.01749
G1 X85.062 Y95.938 E0.00580
G1 X85.108 Y95.850 E0.00338
G1 X85.062 Y95.938 F15000.000
G1 X85.154 Y95.974 F1200.000 E0.00339
G1 X85.286 Y95.949 E0.00457
G1 X85.679 Y95.736 F15000.000
G1 X85.804 Y95.768 F1200.000 E0.01009
G1 X86.191 Y95.652 E0.03155
G1 X86.654 Y95.781 E0.03757
G1 X86.893 Y95.910 E0.02123
G1 X87.230 Y96.119 F15000.000
G1 X87.233 Y96.118 F1200.000 E0.00010
G1 X87.227 Y96.002 E0.00397
G1 X87.264 Y96.105 F15000.000
G1 X87.340 Y96.147 F1200.000 E0.00297
G1 X87.422 Y96.183 E0.00305
G1 X88.010 Y96.598 E0.02453
G1 X88.160 Y96.742 E0.00708
G1 X88.358 Y96.731 E0.00674
G1 X88.144 Y96.878 F15000.000
G1 X88.160 Y96.742 F1200.000 E0.00469
G1 F2760.000 E-3.20000
G1 X102.916 Y100.897 F15000.000
G1 X102.596 Y100.577 F2760.000 E3.20000
G1 X102.596 Y100.577 F2400.000
G1 X102.341 Y99.596 E0.05843
G1 X103.950 Y101.205 E0.13113
G1 X104.071 Y100.601 E0.03553
G1 X102.341 Y98.870 E0.14100
G1 X102.341 Y98.144 E0.04182
G1 X104.130 Y99.933 E0.14575
