; generated by Slic3r 0.9.9-dev on 2013-05-22 at 14:18:40

; M-PLA-05-03-1

; layer_height = 0.3
; perimeters = 2
; top_solid_layers = 3
; bottom_solid_layers = 2
; fill_density = 0.2
; perimeter_speed = 32
; infill_speed = 50
; travel_speed = 250
; scale = 1
; nozzle_diameter = 0.5
; filament_diameter = 1.75
; extrusion_multiplier = 0.9
; perimeters extrusion width = 0.50mm
; infill extrusion width = 0.50mm
; first layer extrusion width = 0.50mm

M107
M190 S57 ; wait for bed temperature to be reached
M104 S200 ; set temperature
G28 X0 Y0
G28 Z0
G1 Z0.3 F200
G1 X15 Y20 F12000
M109 S200 ; wait for temperature to be reached
G90 ; use absolute coordinates
G21 ; set units to millimeters
G92 E0
M82 ; use absolute distances for extrusion
G1 F2760.000 E-3.20000
G92 E0
G1 Z0.300 F15000.000
G1 X31.329 Y50.244
G1 X31.688 Y49.763 F2760.000 E3.20000
G1 X59.559 Y12.554 F960.000 E5.80932
G1 X59.869 Y12.194 E5.83599
G1 X60.939 Y11.114 E5.92131
G1 X61.389 Y10.724 E5.95474
G1 X62.619 Y9.844 E6.03962
G1 X63.149 Y9.534 E6.07408
G1 X64.509 Y8.884 E6.15868
G1 X65.069 Y8.674 E6.19225
G1 X66.829 Y8.194 E6.29464
G1 X68.639 Y8.004 E6.39679
G1 X69.069 Y7.984 E6.42095
G1 X153.889 Y9.994 E11.18294
G1 X155.379 Y10.134 E11.26693
G1 X155.699 Y10.204 E11.28532
G1 X156.829 Y10.514 E11.35108
G1 X157.379 Y10.724 E11.38413
G1 X158.449 Y11.224 E11.45042
G1 X158.969 Y11.524 E11.48411
G1 X159.929 Y12.194 E11.54982
G1 X160.179 Y12.384 E11.56744
G1 X161.219 Y13.414 E11.64959
G1 X161.609 Y13.874 E11.68344
G1 X162.379 Y14.964 E11.75835
G1 X185.469 Y50.744 E14.14841
G1 X185.699 Y51.164 E14.17529
G1 X186.319 Y52.524 E14.25918
G1 X186.709 Y53.964 E14.34291
G1 X186.809 Y54.534 E14.37539
G1 X186.939 Y55.884 E14.45151
G1 X188.939 Y102.264 E17.05708
G1 X188.939 Y102.564 E17.07391
G1 X186.939 Y148.584 E19.65929
G1 X186.789 Y149.434 E19.70774
G1 X186.449 Y150.224 E19.75601
G1 X165.739 Y184.924 E22.02410
G1 X164.909 Y186.114 E22.10553
G1 X164.519 Y186.564 E22.13895
G1 X163.689 Y187.394 E22.20483
G1 X163.239 Y187.784 E22.23826
G1 X162.279 Y188.464 E22.30429
G1 X162.009 Y188.634 E22.32219
G1 X161.719 Y188.784 E22.34052
G1 X160.649 Y189.274 E22.40657
G1 X160.119 Y189.474 E22.43837
G1 X158.989 Y189.784 E22.50413
G1 X158.669 Y189.854 E22.52252
G1 X158.349 Y189.894 E22.54062
G1 X157.019 Y190.004 E22.61552
G1 X110.639 Y192.004 E25.22109
G1 X110.339 Y192.004 E25.23792
G1 X64.319 Y190.004 E27.82330
G1 X63.349 Y189.814 E27.87878
G1 X62.459 Y189.374 E27.93450
G1 X61.739 Y188.694 E27.99009
G1 X29.789 Y148.894 E30.85465
G1 X28.909 Y147.664 E30.93954
G1 X28.739 Y147.394 E30.95744
G1 X27.969 Y145.794 E31.05711
G1 X27.759 Y145.244 E31.09015
G1 X27.269 Y143.454 E31.19431
G1 X27.079 Y141.644 E31.29646
G1 X27.059 Y141.214 E31.32062
G1 X29.049 Y56.614 E36.07023
G1 X29.179 Y55.194 E36.15027
G1 X29.279 Y54.624 E36.18275
G1 X29.669 Y53.174 E36.26702
G1 X30.289 Y51.824 E36.35040
G1 X30.579 Y51.324 E36.38284
G1 X31.284 Y50.304 E36.45243
G1 X31.329 Y50.244 E36.45664
G1 F2760.000 E33.25664
G92 E0
G1 X76.878 Y56.185 F15000.000
G1 X76.971 Y55.838 F2760.000 E3.20000
G1 X76.971 Y55.838 F1560.000
G1 X77.155 Y55.443 E3.22446
G1 X77.405 Y55.086 E3.24889
G1 X77.713 Y54.778 E3.27333
G1 X78.069 Y54.529 E3.29775
G1 X78.464 Y54.344 E3.32220
G1 X78.884 Y54.232 E3.34664
G1 X79.318 Y54.194 E3.37106
G1 X79.752 Y54.232 E3.39552
G1 X80.172 Y54.344 E3.41995
G1 X80.567 Y54.528 E3.44438
G1 X80.924 Y54.778 E3.46881
G1 X81.232 Y55.086 E3.49326
G1 X81.481 Y55.443 E3.51769
G1 X81.665 Y55.837 E3.54214
G1 X81.778 Y56.258 E3.56658
G1 X81.816 Y56.692 E3.59101
G1 X81.778 Y57.125 E3.61545
G1 X81.665 Y57.546 E3.63988
G1 X81.481 Y57.941 E3.66433
G1 X81.232 Y58.297 E3.68876
G1 X80.924 Y58.605 E3.71319
G1 X80.851 Y58.656 E3.71817
G1 X80.567 Y58.855 E3.73763
G1 X80.172 Y59.039 E3.76208
G1 X79.752 Y59.152 E3.78652
G1 X79.318 Y59.190 E3.81095
G1 X78.884 Y59.152 E3.83539
G1 X78.464 Y59.039 E3.85982
G1 X78.069 Y58.855 E3.88426
G1 X77.713 Y58.605 E3.90870
G1 X77.405 Y58.297 E3.93315
G1 X77.155 Y57.940 E3.95759
G1 X76.971 Y57.546 E3.98201
G1 X76.858 Y57.125 E4.00646
G1 X76.822 Y56.706 E4.03008
G1 X76.878 Y56.185
G1 X77.384 Y56.229 F15000.000
G1 X77.443 Y56.009 F780.000 E4.04287
G1 X77.590 Y55.694 E4.06240
G1 X77.789 Y55.409 E4.08193
G1 X78.035 Y55.163 E4.10146
G1 X78.320 Y54.963 E4.12098
G1 X78.635 Y54.816 E4.14051
G1 X78.972 Y54.726 E4.16003
G1 X79.318 Y54.696 E4.17956
G1 X79.665 Y54.726 E4.19910
G1 X80.001 Y54.816 E4.21862
G1 X80.316 Y54.963 E4.23814
G1 X80.601 Y55.163 E4.25766
G1 X80.847 Y55.409 E4.27720
G1 X81.047 Y55.694 E4.29672
G1 X81.194 Y56.009 E4.31626
G1 X81.284 Y56.345 E4.33578
G1 X81.314 Y56.692 E4.35531
G1 X81.284 Y57.038 E4.37483
G1 X81.194 Y57.374 E4.39436
G1 X81.047 Y57.690 E4.41389
G1 X80.847 Y57.975 E4.43342
G1 X80.564 Y58.246 E4.45543
G1 X80.316 Y58.420 E4.47243
G1 X80.001 Y58.567 E4.49197
G1 X79.665 Y58.657 E4.51149
G1 X79.318 Y58.688 E4.53102
G1 X78.972 Y58.657 E4.55055
G1 X78.636 Y58.567 E4.57007
G1 X78.320 Y58.420 E4.58960
G1 X78.035 Y58.221 E4.60913
G1 X77.789 Y57.975 E4.62866
G1 X77.590 Y57.690 E4.64819
G1 X77.443 Y57.374 E4.66771
G1 X77.353 Y57.038 E4.68724
G1 X77.322 Y56.692 E4.70676
G1 X77.350 Y56.375 E4.72461
G1 X77.384 Y56.229 E4.73301
G1 X76.822 Y56.706 F2760.000 E1.53301
G92 E0
G1 X78.581 Y65.648 F15000.000
G1 X79.130 Y65.600 F2760.000 E3.20000
G1 X79.130 Y65.600 F1560.000
G1 X79.753 Y65.655 E3.23512
G1 X80.358 Y65.817 E3.27024
G1 X80.925 Y66.081 E3.30537
G1 X81.437 Y66.440 E3.34049
G1 X81.880 Y66.883 E3.37561
G1 X82.239 Y67.395 E3.41073
G1 X82.503 Y67.962 E3.44585
G1 X82.665 Y68.567 E3.48098
G1 X82.720 Y69.190 E3.51610
G1 X82.665 Y69.814 E3.55122
G1 X82.503 Y70.418 E3.58634
G1 X82.239 Y70.985 E3.62147
G1 X81.880 Y71.498 E3.65659
G1 X81.437 Y71.940 E3.69171
G1 X80.925 Y72.299 E3.72683
G1 X80.552 Y72.473 E3.74991
G1 X80.552 Y72.512 E3.75207
G1 X79.753 Y72.726 E3.79850
G1 X79.130 Y72.780 E3.83362
G1 X78.506 Y72.726 E3.86875
G1 X77.902 Y72.564 E3.90387
G1 X77.335 Y72.299 E3.93899
G1 X76.822 Y71.940 E3.97411
G1 X76.380 Y71.498 E4.00923
G1 X76.021 Y70.985 E4.04435
G1 X75.756 Y70.418 E4.07948
G1 X75.594 Y69.814 E4.11460
G1 X75.540 Y69.190 E4.14972
G1 X75.594 Y68.567 E4.18484
G1 X75.756 Y67.962 E4.21996
G1 X76.021 Y67.395 E4.25509
G1 X76.380 Y66.883 E4.29021
G1 X76.822 Y66.440 E4.32533
G1 X77.335 Y66.081 E4.36045
G1 X77.902 Y65.817 E4.39557
G1 X78.072 Y65.771 E4.40544
G1 X78.581 Y65.648
G1 X78.720 Y66.138 F15000.000
G1 X79.130 Y66.102 F780.000 E4.42856
G1 X79.666 Y66.149 E4.45877
G1 X80.186 Y66.288 E4.48898
G1 X80.674 Y66.516 E4.51919
G1 X81.115 Y66.825 E4.54940
G1 X81.495 Y67.205 E4.57962
G1 X81.804 Y67.646 E4.60983
G1 X82.032 Y68.134 E4.64004
G1 X82.171 Y68.654 E4.67025
G1 X82.218 Y69.190 E4.70046
G1 X82.171 Y69.726 E4.73067
G1 X82.032 Y70.246 E4.76088
G1 X81.804 Y70.734 E4.79110
G1 X81.495 Y71.175 E4.82131
G1 X81.115 Y71.556 E4.85152
G1 X80.674 Y71.865 E4.88173
G1 X80.186 Y72.092 E4.91194
G1 X79.666 Y72.231 E4.94216
G1 X79.130 Y72.278 E4.97237
G1 X78.594 Y72.231 E5.00258
G1 X78.074 Y72.092 E5.03279
G1 X77.586 Y71.865 E5.06300
G1 X77.145 Y71.556 E5.09321
G1 X76.764 Y71.175 E5.12343
G1 X76.455 Y70.734 E5.15364
G1 X76.228 Y70.246 E5.18385
G1 X76.089 Y69.726 E5.21406
G1 X76.042 Y69.190 E5.24427
G1 X76.089 Y68.654 E5.27449
G1 X76.228 Y68.134 E5.30470
G1 X76.455 Y67.646 E5.33491
G1 X76.764 Y67.205 E5.36512
G1 X77.145 Y66.825 E5.39533
G1 X77.586 Y66.516 E5.42554
G1 X78.074 Y66.288 E5.45575
G1 X78.571 Y66.155 E5.48465
G1 X78.720 Y66.138 E5.49305
G1 X78.072 Y65.771 F2760.000 E2.29305
G92 E0
G1 X79.393 Y86.198 F15000.000
G1 X79.752 Y86.229 F2760.000 E3.20000
G1 X79.752 Y86.229 F1560.000
G1 X80.173 Y86.342 E3.22444
G1 X80.567 Y86.526 E3.24888
G1 X80.640 Y86.577 E3.25386
G1 X80.924 Y86.776 E3.27330
G1 X81.232 Y87.084 E3.29775
G1 X81.481 Y87.440 E3.32219
G1 X81.665 Y87.835 E3.34663
G1 X81.778 Y88.256 E3.37107
G1 X81.816 Y88.689 E3.39550
G1 X81.778 Y89.123 E3.41995
G1 X81.665 Y89.544 E3.44438
G1 X81.481 Y89.938 E3.46883
G1 X81.231 Y90.295 E3.49327
G1 X80.924 Y90.603 E3.51769
G1 X80.567 Y90.852 E3.54212
G1 X80.172 Y91.037 E3.56657
G1 X79.752 Y91.149 E3.59100
G1 X79.318 Y91.187 E3.61544
G1 X78.885 Y91.149 E3.63987
G1 X78.464 Y91.037 E3.66432
G1 X78.069 Y90.852 E3.68877
G1 X77.713 Y90.603 E3.71320
G1 X77.405 Y90.295 E3.73763
G1 X77.155 Y89.938 E3.76206
G1 X76.971 Y89.543 E3.78652
G1 X76.858 Y89.123 E3.81095
G1 X76.820 Y88.689 E3.83540
G1 X76.858 Y88.256 E3.85982
G1 X76.971 Y87.835 E3.88426
G1 X77.155 Y87.441 E3.90869
G1 X77.405 Y87.084 E3.93313
G1 X77.713 Y86.776 E3.95757
G1 X78.069 Y86.526 E3.98200
G1 X78.464 Y86.342 E4.00645
G1 X78.870 Y86.233 E4.03007
G1 X79.393 Y86.198
G1 X79.438 Y86.704 F15000.000
G1 X79.665 Y86.724 F780.000 E4.04286
G1 X80.001 Y86.814 E4.06239
G1 X80.316 Y86.961 E4.08191
G1 X80.601 Y87.160 E4.10144
G1 X80.847 Y87.406 E4.12097
G1 X81.047 Y87.691 E4.14050
G1 X81.194 Y88.007 E4.16003
G1 X81.284 Y88.343 E4.17955
G1 X81.314 Y88.689 E4.19908
G1 X81.284 Y89.036 E4.21861
G1 X81.194 Y89.372 E4.23813
G1 X81.047 Y89.687 E4.25766
G1 X80.847 Y89.972 E4.27719
G1 X80.601 Y90.218 E4.29671
G1 X80.316 Y90.418 E4.31624
G1 X80.001 Y90.565 E4.33577
G1 X79.665 Y90.655 E4.35529
G1 X79.318 Y90.685 E4.37482
G1 X78.972 Y90.655 E4.39434
G1 X78.635 Y90.565 E4.41388
G1 X78.320 Y90.418 E4.43341
G1 X78.035 Y90.218 E4.45293
G1 X77.789 Y89.972 E4.47246
G1 X77.590 Y89.687 E4.49198
G1 X77.443 Y89.372 E4.51152
G1 X77.353 Y89.036 E4.53104
G1 X77.322 Y88.689 E4.55057
G1 X77.353 Y88.343 E4.57009
G1 X77.443 Y88.007 E4.58962
G1 X77.590 Y87.691 E4.60915
G1 X77.789 Y87.406 E4.62868
G1 X78.035 Y87.160 E4.64820
G1 X78.320 Y86.961 E4.66773
G1 X78.636 Y86.814 E4.68726
G1 X78.972 Y86.724 E4.70679
G1 X79.288 Y86.696 E4.72463
G1 X79.438 Y86.704 E4.73303
G1 X78.870 Y86.233 F2760.000 E1.53303
G92 E0
G1 X79.256 Y99.237 F15000.000
G1 X78.657 Y99.269 F2760.000 E3.20000
G1 X76.868 Y99.365 F960.000 E3.30052
G1 X74.447 Y99.758 E3.43822
G1 X73.068 Y100.136 E3.51845
G1 X73.068 Y56.724 E5.95501
G1 X73.166 Y55.607 E6.01798
G1 X73.448 Y54.555 E6.07909
G1 X73.908 Y53.568 E6.14021
G1 X74.533 Y52.676 E6.20133
G1 X75.303 Y51.906 E6.26245
G1 X76.195 Y51.281 E6.32357
G1 X77.181 Y50.821 E6.38469
G1 X78.233 Y50.539 E6.44581
G1 X79.318 Y50.445 E6.50693
G1 X80.403 Y50.539 E6.56805
G1 X81.455 Y50.821 E6.62916
G1 X82.442 Y51.281 E6.69028
G1 X83.334 Y51.906 E6.75140
G1 X84.104 Y52.676 E6.81252
G1 X84.728 Y53.568 E6.87364
G1 X85.189 Y54.555 E6.93476
G1 X85.470 Y55.607 E6.99588
G1 X85.568 Y56.724 E7.05884
G1 X85.568 Y97.658 E9.35630
G1 X86.517 Y99.061 E9.45134
G1 X87.094 Y100.336 E9.52990
G1 X87.447 Y101.690 E9.60846
G1 X87.565 Y103.085 E9.68702
G1 X87.447 Y104.480 E9.76558
G1 X87.094 Y105.834 E9.84414
G1 X86.517 Y107.109 E9.92270
G1 X85.568 Y108.512 E10.01774
G1 X85.568 Y135.963 E11.55848
G1 X83.851 Y136.646 E11.66218
G1 X81.611 Y137.164 E11.79124
G1 X78.649 Y137.396 E11.95799
G1 X78.000 Y137.569 E11.99568
G1 X77.392 Y137.853 E12.03338
G1 X76.842 Y138.239 E12.07108
G1 X76.367 Y138.714 E12.10877
G1 X75.981 Y139.264 E12.14646
G1 X75.698 Y139.872 E12.18416
G1 X75.546 Y140.438 E12.21703
G1 X75.524 Y140.521 E12.22185
G1 X75.465 Y141.190 E12.25955
G1 X75.524 Y141.859 E12.29724
G1 X75.698 Y142.508 E12.33494
G1 X75.981 Y143.116 E12.37263
G1 X76.367 Y143.667 E12.41032
G1 X76.842 Y144.141 E12.44802
G1 X77.321 Y144.478 E12.48090
G1 X77.392 Y144.527 E12.48572
G1 X78.000 Y144.811 E12.52341
G1 X78.649 Y144.984 E12.56110
G1 X79.305 Y145.042 E12.59808
G1 X81.768 Y144.910 E12.73649
G1 X84.190 Y144.517 E12.87419
G1 X85.568 Y144.139 E12.95442
G1 X85.568 Y148.696 E13.21020
G1 X83.886 Y149.054 E13.30672
G1 X81.610 Y149.343 E13.43548
G1 X79.335 Y149.439 E13.56331
G1 X77.898 Y149.314 E13.64428
G1 X76.519 Y148.948 E13.72431
G1 X75.225 Y148.350 E13.80434
G1 X74.053 Y147.538 E13.88438
G1 X73.038 Y146.536 E13.96441
G1 X72.211 Y145.374 E14.04444
G1 X71.597 Y144.088 E14.12447
G1 X71.213 Y142.714 E14.20450
G1 X71.072 Y141.295 E14.28453
G1 X71.177 Y139.873 E14.36456
G1 X71.525 Y138.491 E14.44460
G1 X72.107 Y137.189 E14.52463
G1 X73.068 Y135.762 E14.62117
G1 X73.068 Y108.312 E16.16188
G1 X74.785 Y107.629 E16.26558
G1 X77.025 Y107.111 E16.39464
G1 X79.987 Y106.879 E16.56139
G1 X80.636 Y106.706 E16.59908
G1 X81.245 Y106.422 E16.63678
G1 X81.724 Y106.086 E16.66965
G1 X81.795 Y106.036 E16.67447
G1 X82.270 Y105.562 E16.71217
G1 X82.655 Y105.011 E16.74986
G1 X82.939 Y104.403 E16.78755
G1 X83.112 Y103.754 E16.82525
G1 X83.171 Y103.085 E16.86294
G1 X83.112 Y102.416 E16.90064
G1 X82.961 Y101.850 E16.93351
G1 X82.939 Y101.767 E16.93833
G1 X82.655 Y101.159 E16.97603
G1 X82.270 Y100.608 E17.01372
G1 X81.795 Y100.134 E17.05142
G1 X81.245 Y99.748 E17.08911
G1 X80.636 Y99.465 E17.12681
G1 X79.987 Y99.291 E17.16450
G1 X79.779 Y99.272 E17.17623
G1 X79.256 Y99.237
G1 X79.247 Y99.738 F15000.000
G1 X76.922 Y99.863 F780.000 E17.30694
G1 X74.553 Y100.247 E17.44163
G1 X72.568 Y100.792 E17.55716
G1 X72.568 Y56.703 E20.03175
G1 X72.672 Y55.520 E20.09839
G1 X72.976 Y54.383 E20.16442
G1 X73.473 Y53.317 E20.23045
G1 X74.148 Y52.353 E20.29648
G1 X74.980 Y51.522 E20.36251
G1 X75.944 Y50.847 E20.42854
G1 X77.010 Y50.350 E20.49457
G1 X78.146 Y50.045 E20.56060
G1 X79.318 Y49.943 E20.62663
G1 X80.490 Y50.045 E20.69266
G1 X81.626 Y50.350 E20.75869
G1 X82.693 Y50.847 E20.82472
G1 X83.656 Y51.522 E20.89075
G1 X84.488 Y52.353 E20.95678
G1 X85.163 Y53.317 E21.02280
G1 X85.660 Y54.383 E21.08883
G1 X85.965 Y55.520 E21.15486
G1 X86.068 Y56.703 E21.22151
G1 X86.068 Y97.505 E23.51159
G1 X86.955 Y98.816 E23.60042
G1 X87.567 Y100.169 E23.68376
G1 X87.941 Y101.606 E23.76710
G1 X88.067 Y103.085 E23.85044
G1 X87.941 Y104.565 E23.93378
G1 X87.567 Y106.001 E24.01712
G1 X86.955 Y107.354 E24.10046
G1 X86.068 Y108.665 E24.18929
G1 X86.068 Y136.303 E25.74048
G1 X84.001 Y137.125 E25.86534
G1 X81.687 Y137.660 E25.99866
G1 X78.736 Y137.890 E26.16476
G1 X78.172 Y138.041 E26.19754
G1 X77.643 Y138.288 E26.23032
G1 X77.164 Y138.623 E26.26311
G1 X76.781 Y139.006 E26.29353
G1 X76.416 Y139.515 E26.32864
G1 X76.169 Y140.044 E26.36143
G1 X76.029 Y140.567 E26.39185
G1 X75.967 Y141.190 E26.42696
G1 X76.018 Y141.772 E26.45975
G1 X76.169 Y142.336 E26.49253
G1 X76.416 Y142.866 E26.52531
G1 X76.751 Y143.344 E26.55810
G1 X77.164 Y143.757 E26.59088
G1 X77.643 Y144.092 E26.62367
G1 X78.172 Y144.339 E26.65645
G1 X78.736 Y144.490 E26.68924
G1 X79.314 Y144.541 E26.72178
G1 X81.714 Y144.412 E26.85670
G1 X84.083 Y144.028 E26.99139
G1 X86.068 Y143.483 E27.10692
G1 X86.068 Y149.100 E27.42221
G1 X83.970 Y149.548 E27.54263
G1 X81.652 Y149.842 E27.67375
G1 X79.324 Y149.940 E27.80456
G1 X77.811 Y149.808 E27.88978
G1 X76.349 Y149.420 E27.97468
G1 X74.976 Y148.785 E28.05958
G1 X73.733 Y147.924 E28.14448
G1 X72.656 Y146.861 E28.22938
G1 X71.779 Y145.629 E28.31428
G1 X71.143 Y144.297 E28.39713
G1 X70.720 Y142.807 E28.48406
G1 X70.570 Y141.302 E28.56896
G1 X70.681 Y139.793 E28.65386
G1 X71.051 Y138.326 E28.73876
G1 X71.668 Y136.945 E28.82367
G1 X72.568 Y135.610 E28.91407
G1 X72.568 Y107.972 E30.46524
G1 X74.635 Y107.150 E30.59011
G1 X76.950 Y106.615 E30.72343
G1 X79.900 Y106.385 E30.88953
G1 X80.464 Y106.234 E30.92231
G1 X80.994 Y105.987 E30.95509
G1 X81.438 Y105.676 E30.98551
G1 X81.885 Y105.239 E31.02063
G1 X82.220 Y104.760 E31.05341
G1 X82.467 Y104.231 E31.08620
G1 X82.618 Y103.667 E31.11898
G1 X82.669 Y103.085 E31.15176
G1 X82.618 Y102.503 E31.18455
G1 X82.467 Y101.939 E31.21733
G1 X82.220 Y101.410 E31.25012
G1 X81.885 Y100.931 E31.28290
G1 X81.472 Y100.518 E31.31569
G1 X80.994 Y100.183 E31.34847
G1 X80.464 Y99.936 E31.38125
G1 X79.900 Y99.785 E31.41404
G1 X79.397 Y99.741 E31.44237
G1 X79.247 Y99.738 E31.45077
G1 X79.779 Y99.272 F2760.000 E28.25077
G92 E0
G1 X74.217 Y99.506 F15000.000
G1 X73.793 Y99.081 F2760.000 E3.20000
G1 X73.409 Y98.698 F1200.000 E3.23053
G1 X73.409 Y97.989 E3.27043
G1 X74.800 Y99.379 E3.38110
G1 X75.410 Y99.280 E3.41588
G1 X73.409 Y97.280 E3.57510
G1 X73.409 Y96.571 E3.61500
G1 X76.020 Y99.181 E3.82277
G1 X76.630 Y99.083 E3.85755
G1 X73.409 Y95.862 E4.11387
G1 X73.409 Y95.153 E4.15377
G1 X77.267 Y99.011 E4.46082
G1 X77.940 Y98.975 E4.49874
G1 X73.409 Y94.444 E4.85935
G1 X73.409 Y93.735 E4.89925
G1 X78.613 Y98.939 E5.31341
