; generated by Slic3r 0.9.9-dev on 2013-05-22 at 13:59:16

; M-PLA-05-03-1

; layer_height = 0.3
; perimeters = 2
; top_solid_layers = 3
; bottom_solid_layers = 2
; fill_density = 0.2
; perimeter_speed = 32
; infill_speed = 50
; travel_speed = 250
; scale = 1
; nozzle_diameter = 0.5
; filament_diameter = 1.75
; extrusion_multiplier = 0.9
; perimeters extrusion width = 0.50mm
; infill extrusion width = 0.50mm
; first layer extrusion width = 0.50mm

M107
M190 S57 ; wait for bed temperature to be reached
M104 S200 ; set temperature
G28 X0 Y0
G28 Z0
G1 Z0.3 F200
G1 X15 Y20 F12000
M109 S200 ; wait for temperature to be reached
G90 ; use absolute coordinates
G21 ; set units to millimeters
G92 E0
M82 ; use absolute distances for extrusion
G1 F2760.000 E-3.20000
G92 E0
G1 Z0.300 F15000.000
G1 X60.281 Y89.600
G1 X60.796 Y89.293 F2760.000 E3.20000
G1 X60.801 Y89.290 F960.000 E3.20030
G1 X62.161 Y88.640 E3.28490
G1 X62.751 Y88.420 E3.32025
G1 X64.211 Y88.020 E3.40521
G1 X64.781 Y87.920 E3.43769
G1 X66.281 Y87.770 E3.52230
G1 X66.711 Y87.750 E3.54646
G1 X151.311 Y89.740 E8.29608
G1 X152.741 Y89.860 E8.37662
G1 X153.321 Y89.970 E8.40975
G1 X154.741 Y90.360 E8.49240
G1 X156.101 Y90.980 E8.57629
G1 X156.621 Y91.280 E8.60999
G1 X157.831 Y92.140 E8.69331
G1 X158.871 Y93.170 E8.77546
G1 X159.261 Y93.630 E8.80931
G1 X160.121 Y94.860 E8.89355
G1 X160.761 Y96.210 E8.97740
G1 X160.881 Y96.500 E8.99501
G1 X160.971 Y96.790 E9.01206
G1 X161.271 Y97.920 E9.07768
G1 X161.341 Y98.220 E9.09497
G1 X161.381 Y98.520 E9.11195
G1 X161.481 Y99.690 E9.17786
G1 X161.481 Y100.290 E9.21154
G1 X161.381 Y101.470 E9.27800
G1 X161.341 Y101.770 E9.29499
G1 X161.271 Y102.070 E9.31228
G1 X160.881 Y103.490 E9.39493
G1 X160.761 Y103.780 E9.41255
G1 X160.121 Y105.130 E9.49640
G1 X159.271 Y106.350 E9.57986
G1 X158.881 Y106.800 E9.61328
G1 X158.051 Y107.630 E9.67916
G1 X157.601 Y108.020 E9.71258
G1 X156.641 Y108.700 E9.77861
G1 X156.381 Y108.870 E9.79605
G1 X156.101 Y109.010 E9.81362
G1 X154.741 Y109.630 E9.89751
G1 X153.321 Y110.020 E9.98016
G1 X153.021 Y110.090 E9.99745
G1 X152.711 Y110.130 E10.01499
G1 X151.381 Y110.240 E10.08989
G1 X105.001 Y112.240 E12.69546
G1 X104.701 Y112.240 E12.71230
G1 X58.681 Y110.240 E15.29768
G1 X57.771 Y110.080 E15.34954
G1 X56.941 Y109.680 E15.40125
G1 X56.231 Y109.090 E15.45306
G1 X55.711 Y108.330 E15.50475
G1 X55.411 Y107.460 E15.55640
G1 X54.921 Y105.100 E15.69168
G1 X54.591 Y102.470 E15.84045
G1 X54.501 Y100.140 E15.97132
G1 X54.511 Y99.700 E15.99603
G1 X54.681 Y97.890 E16.09806
G1 X55.141 Y96.130 E16.20016
G1 X55.341 Y95.580 E16.23301
G1 X56.111 Y93.920 E16.33571
G1 X56.271 Y93.660 E16.35285
G1 X57.131 Y92.420 E16.43755
G1 X57.511 Y91.960 E16.47103
G1 X58.571 Y90.880 E16.55597
G1 X58.801 Y90.670 E16.57345
G1 X59.041 Y90.480 E16.59063
G1 X60.220 Y89.644 E16.67176
G1 X60.281 Y89.600 E16.67597
G1 F2760.000 E13.47597
G92 E0
G1 X116.811 Y99.493 F15000.000
G1 X116.904 Y99.145 F2760.000 E3.20000
G1 X116.904 Y99.145 F1560.000
G1 X117.088 Y98.750 E3.22445
G1 X117.338 Y98.394 E3.24886
G1 X117.646 Y98.086 E3.27331
G1 X118.003 Y97.836 E3.29776
G1 X118.397 Y97.652 E3.32218
G1 X118.818 Y97.540 E3.34662
G1 X119.252 Y97.502 E3.37107
G1 X119.685 Y97.540 E3.39550
G1 X120.106 Y97.652 E3.41994
G1 X120.500 Y97.836 E3.44437
G1 X120.857 Y98.086 E3.46881
G1 X121.165 Y98.394 E3.49324
G1 X121.415 Y98.751 E3.51769
G1 X121.599 Y99.145 E3.54212
G1 X121.711 Y99.566 E3.56657
G1 X121.749 Y100.000 E3.59100
G1 X121.711 Y100.434 E3.61545
G1 X121.599 Y100.854 E3.63986
G1 X121.415 Y101.249 E3.66433
G1 X121.165 Y101.605 E3.68874
G1 X120.857 Y101.913 E3.71319
G1 X120.500 Y102.163 E3.73763
G1 X120.106 Y102.347 E3.76207
G1 X119.685 Y102.460 E3.78650
G1 X119.251 Y102.497 E3.81094
G1 X118.818 Y102.460 E3.83539
G1 X118.397 Y102.347 E3.85980
G1 X118.002 Y102.163 E3.88426
G1 X117.646 Y101.913 E3.90869
G1 X117.338 Y101.605 E3.93312
G1 X117.088 Y101.249 E3.95755
G1 X116.904 Y100.854 E3.98199
G1 X116.792 Y100.433 E4.00645
G1 X116.755 Y100.014 E4.03006
G1 X116.811 Y99.493
G1 X117.317 Y99.537 F15000.000
G1 X117.376 Y99.317 F780.000 E4.04285
G1 X117.523 Y99.002 E4.06239
G1 X117.722 Y98.717 E4.08190
G1 X117.969 Y98.471 E4.10143
G1 X118.254 Y98.271 E4.12097
G1 X118.569 Y98.124 E4.14049
G1 X118.905 Y98.034 E4.16001
G1 X119.252 Y98.004 E4.17955
G1 X119.598 Y98.034 E4.19907
G1 X119.934 Y98.124 E4.21860
G1 X120.249 Y98.271 E4.23812
G1 X120.534 Y98.471 E4.25765
G1 X120.780 Y98.717 E4.27717
G1 X120.980 Y99.002 E4.29671
G1 X121.127 Y99.317 E4.31623
G1 X121.217 Y99.653 E4.33576
G1 X121.247 Y100.000 E4.35529
G1 X121.217 Y100.346 E4.37482
G1 X121.127 Y100.682 E4.39434
G1 X120.980 Y100.998 E4.41388
G1 X120.781 Y101.283 E4.43339
G1 X120.534 Y101.529 E4.45292
G1 X120.249 Y101.728 E4.47245
G1 X119.934 Y101.875 E4.49198
G1 X119.598 Y101.965 E4.51151
G1 X119.251 Y101.996 E4.53103
G1 X118.905 Y101.965 E4.55056
G1 X118.569 Y101.875 E4.57008
G1 X118.253 Y101.728 E4.58962
G1 X117.969 Y101.529 E4.60914
G1 X117.723 Y101.283 E4.62867
G1 X117.523 Y100.998 E4.64819
G1 X117.376 Y100.682 E4.66772
G1 X117.286 Y100.346 E4.68726
G1 X117.256 Y100.000 E4.70678
G1 X117.283 Y99.683 E4.72462
G1 X117.317 Y99.537 E4.73302
G1 X116.755 Y100.014 F2760.000 E1.53302
G92 E0
G1 X148.758 Y99.925 F15000.000
G1 X148.789 Y99.566 F2760.000 E3.20000
G1 X148.789 Y99.566 F1560.000
G1 X148.902 Y99.145 E3.22443
G1 X149.086 Y98.751 E3.24887
G1 X149.336 Y98.394 E3.27332
G1 X149.644 Y98.086 E3.29775
G1 X150.000 Y97.836 E3.32219
G1 X150.395 Y97.652 E3.34662
G1 X150.816 Y97.540 E3.37107
G1 X151.249 Y97.502 E3.39551
G1 X151.683 Y97.540 E3.41992
G1 X152.103 Y97.652 E3.44437
G1 X152.498 Y97.837 E3.46882
G1 X152.855 Y98.086 E3.49326
G1 X153.163 Y98.394 E3.51768
G1 X153.412 Y98.751 E3.54211
G1 X153.596 Y99.145 E3.56656
G1 X153.709 Y99.566 E3.59099
G1 X153.747 Y99.999 E3.61542
G1 X153.709 Y100.434 E3.63989
G1 X153.596 Y100.854 E3.66432
G1 X153.412 Y101.249 E3.68875
G1 X153.163 Y101.605 E3.71319
G1 X152.855 Y101.913 E3.73764
G1 X152.498 Y102.163 E3.76207
G1 X152.103 Y102.347 E3.78651
G1 X151.683 Y102.460 E3.81094
G1 X151.249 Y102.497 E3.83538
G1 X150.816 Y102.460 E3.85981
G1 X150.395 Y102.347 E3.88424
G1 X150.000 Y102.163 E3.90868
G1 X149.644 Y101.913 E3.93312
G1 X149.336 Y101.605 E3.95757
G1 X149.086 Y101.249 E3.98200
G1 X148.902 Y100.854 E4.00644
G1 X148.793 Y100.447 E4.03006
G1 X148.758 Y99.925
G1 X149.264 Y99.880 F15000.000
G1 X149.284 Y99.653 F780.000 E4.04285
G1 X149.374 Y99.317 E4.06238
G1 X149.521 Y99.002 E4.08191
G1 X149.720 Y98.717 E4.10144
G1 X149.966 Y98.471 E4.12096
G1 X150.251 Y98.271 E4.14049
G1 X150.567 Y98.124 E4.16002
G1 X150.903 Y98.034 E4.17955
G1 X151.249 Y98.004 E4.19907
G1 X151.596 Y98.034 E4.21859
G1 X151.932 Y98.124 E4.23812
G1 X152.247 Y98.271 E4.25766
G1 X152.532 Y98.471 E4.27718
G1 X152.804 Y98.753 E4.29919
G1 X152.978 Y99.002 E4.31619
G1 X153.125 Y99.317 E4.33573
G1 X153.215 Y99.653 E4.35525
G1 X153.245 Y100.000 E4.37478
G1 X153.215 Y100.346 E4.39432
G1 X153.125 Y100.682 E4.41384
G1 X152.978 Y100.998 E4.43337
G1 X152.778 Y101.283 E4.45289
G1 X152.532 Y101.529 E4.47242
G1 X152.247 Y101.728 E4.49195
G1 X151.932 Y101.875 E4.51148
G1 X151.596 Y101.965 E4.53100
G1 X151.249 Y101.996 E4.55053
G1 X150.903 Y101.965 E4.57005
G1 X150.567 Y101.875 E4.58957
G1 X150.251 Y101.728 E4.60910
G1 X149.966 Y101.529 E4.62863
G1 X149.720 Y101.283 E4.64817
G1 X149.521 Y100.998 E4.66769
G1 X149.374 Y100.682 E4.68722
G1 X149.284 Y100.346 E4.70675
G1 X149.256 Y100.030 E4.72459
G1 X149.264 Y99.880 E4.73299
G1 X148.793 Y100.447 F2760.000 E1.53299
G92 E0
G1 X142.334 Y99.886 F15000.000
G1 X142.286 Y100.435 F2760.000 E3.20000
G1 X142.286 Y100.435 F1560.000
G1 X142.124 Y101.039 E3.23512
G1 X141.860 Y101.606 E3.27024
G1 X141.501 Y102.119 E3.30537
G1 X141.058 Y102.561 E3.34049
G1 X140.546 Y102.920 E3.37561
G1 X139.978 Y103.185 E3.41073
G1 X139.374 Y103.347 E3.44585
G1 X138.751 Y103.401 E3.48098
G1 X138.127 Y103.347 E3.51610
G1 X137.523 Y103.185 E3.55122
G1 X137.437 Y103.145 E3.55656
G1 X136.956 Y102.920 E3.58634
G1 X136.443 Y102.561 E3.62147
G1 X136.001 Y102.119 E3.65658
G1 X135.642 Y101.606 E3.69171
G1 X135.377 Y101.039 E3.72683
G1 X135.215 Y100.435 E3.76196
G1 X135.161 Y99.811 E3.79708
G1 X135.215 Y99.188 E3.83220
G1 X135.377 Y98.583 E3.86732
G1 X135.642 Y98.016 E3.90244
G1 X136.001 Y97.504 E3.93757
G1 X136.068 Y97.436 E3.94291
G1 X136.443 Y97.061 E3.97269
G1 X136.956 Y96.702 E4.00781
G1 X137.523 Y96.438 E4.04293
G1 X138.127 Y96.276 E4.07806
G1 X138.751 Y96.221 E4.11317
G1 X139.374 Y96.276 E4.14830
G1 X139.978 Y96.438 E4.18342
G1 X140.546 Y96.702 E4.21854
G1 X141.058 Y97.061 E4.25366
G1 X141.501 Y97.504 E4.28879
G1 X141.860 Y98.016 E4.32390
G1 X142.124 Y98.583 E4.35903
G1 X142.286 Y99.188 E4.39415
G1 X142.301 Y99.363 E4.40403
G1 X142.334 Y99.886
G1 X141.828 Y99.937 F15000.000
G1 X141.792 Y100.348 F780.000 E4.42714
G1 X141.652 Y100.867 E4.45735
G1 X141.425 Y101.355 E4.48756
G1 X141.116 Y101.796 E4.51777
G1 X140.736 Y102.177 E4.54799
G1 X140.295 Y102.486 E4.57820
G1 X139.807 Y102.713 E4.60841
G1 X139.287 Y102.852 E4.63862
G1 X138.751 Y102.899 E4.66883
G1 X138.214 Y102.852 E4.69904
G1 X137.648 Y102.691 E4.73210
G1 X137.207 Y102.486 E4.75943
G1 X136.766 Y102.177 E4.78964
G1 X136.385 Y101.796 E4.81985
G1 X136.076 Y101.355 E4.85006
G1 X135.849 Y100.867 E4.88028
G1 X135.709 Y100.347 E4.91049
G1 X135.663 Y99.811 E4.94070
G1 X135.709 Y99.275 E4.97091
G1 X135.849 Y98.755 E5.00112
G1 X136.076 Y98.267 E5.03133
G1 X136.421 Y97.790 E5.06439
G1 X136.766 Y97.446 E5.09172
G1 X137.207 Y97.137 E5.12193
G1 X137.694 Y96.909 E5.15214
G1 X138.214 Y96.770 E5.18235
G1 X138.751 Y96.723 E5.21256
G1 X139.287 Y96.770 E5.24278
G1 X139.807 Y96.909 E5.27299
G1 X140.295 Y97.137 E5.30320
G1 X140.736 Y97.446 E5.33341
G1 X141.116 Y97.826 E5.36363
G1 X141.425 Y98.267 E5.39383
G1 X141.652 Y98.755 E5.42405
G1 X141.792 Y99.275 E5.45426
G1 X141.837 Y99.788 E5.48315
G1 X141.828 Y99.937 E5.49156
G1 X142.301 Y99.363 F2760.000 E2.29156
G92 E0
G1 X151.291 Y93.756 F15000.000
G1 X151.889 Y93.808 F2760.000 E3.20000
G1 X152.334 Y93.847 F960.000 E3.22508
G1 X153.386 Y94.129 E3.28620
G1 X154.373 Y94.589 E3.34732
G1 X155.265 Y95.214 E3.40843
G1 X156.035 Y95.984 E3.46955
G1 X156.659 Y96.876 E3.53067
G1 X157.120 Y97.863 E3.59179
G1 X157.401 Y98.915 E3.65291
G1 X157.496 Y100.000 E3.71403
G1 X157.401 Y101.084 E3.77515
G1 X157.120 Y102.136 E3.83627
G1 X156.659 Y103.123 E3.89739
G1 X156.035 Y104.015 E3.95850
G1 X155.265 Y104.785 E4.01962
G1 X154.373 Y105.410 E4.08074
G1 X153.386 Y105.870 E4.14186
G1 X152.334 Y106.152 E4.20298
G1 X151.216 Y106.250 E4.26594
G1 X110.283 Y106.250 E6.56340
G1 X108.880 Y107.198 E6.65844
G1 X107.605 Y107.775 E6.73700
G1 X106.250 Y108.128 E6.81556
G1 X104.856 Y108.247 E6.89412
G1 X103.461 Y108.128 E6.97268
G1 X102.107 Y107.775 E7.05124
G1 X100.831 Y107.198 E7.12980
G1 X99.429 Y106.250 E7.22484
G1 X71.978 Y106.250 E8.76559
G1 X71.295 Y104.533 E8.86928
G1 X70.777 Y102.293 E8.99834
G1 X70.545 Y99.331 E9.16509
G1 X70.371 Y98.682 E9.20279
G1 X70.088 Y98.073 E9.24048
G1 X69.702 Y97.523 E9.27818
G1 X69.227 Y97.048 E9.31587
G1 X68.677 Y96.663 E9.35357
G1 X68.069 Y96.379 E9.39126
G1 X67.420 Y96.205 E9.42895
G1 X66.751 Y96.147 E9.46665
G1 X66.082 Y96.205 E9.50434
G1 X65.433 Y96.379 E9.54204
G1 X64.824 Y96.663 E9.57973
G1 X64.274 Y97.048 E9.61743
G1 X63.799 Y97.523 E9.65512
G1 X63.463 Y98.003 E9.68800
G1 X63.414 Y98.073 E9.69282
G1 X63.130 Y98.682 E9.73051
G1 X62.957 Y99.331 E9.76820
G1 X62.899 Y99.987 E9.80518
G1 X63.031 Y102.449 E9.94359
G1 X63.424 Y104.871 E10.08129
G1 X63.802 Y106.250 E10.16152
G1 X59.245 Y106.250 E10.41730
G1 X58.886 Y104.568 E10.51382
G1 X58.598 Y102.292 E10.64259
G1 X58.502 Y100.016 E10.77041
G1 X58.627 Y98.579 E10.85138
G1 X58.993 Y97.201 E10.93141
G1 X59.591 Y95.906 E11.01145
G1 X60.403 Y94.734 E11.09148
G1 X61.405 Y93.720 E11.17151
G1 X62.467 Y92.964 E11.24468
G1 X62.567 Y92.893 E11.25154
G1 X63.853 Y92.278 E11.33157
G1 X65.227 Y91.895 E11.41160
G1 X66.645 Y91.753 E11.49163
G1 X68.067 Y91.858 E11.57167
G1 X69.450 Y92.207 E11.65170
G1 X70.752 Y92.788 E11.73173
G1 X72.179 Y93.750 E11.82828
G1 X99.629 Y93.750 E13.36898
G1 X100.312 Y95.466 E13.47268
G1 X100.830 Y97.707 E13.60174
G1 X101.062 Y100.669 E13.76849
G1 X101.235 Y101.317 E13.80619
G1 X101.519 Y101.926 E13.84388
G1 X101.904 Y102.476 E13.88158
G1 X102.379 Y102.951 E13.91927
G1 X102.929 Y103.336 E13.95696
G1 X103.538 Y103.620 E13.99465
G1 X104.187 Y103.794 E14.03235
G1 X104.856 Y103.852 E14.07004
G1 X105.525 Y103.794 E14.10774
G1 X106.174 Y103.620 E14.14543
G1 X106.782 Y103.336 E14.18313
G1 X107.332 Y102.951 E14.22082
G1 X107.807 Y102.476 E14.25852
G1 X108.143 Y101.996 E14.29139
G1 X108.193 Y101.926 E14.29621
G1 X108.476 Y101.317 E14.33391
G1 X108.650 Y100.669 E14.37160
G1 X108.708 Y100.012 E14.40858
G1 X108.576 Y97.550 E14.54699
G1 X108.183 Y95.128 E14.68469
G1 X107.804 Y93.750 E14.76492
G1 X150.766 Y93.750 E17.17623
G1 X151.291 Y93.756
G1 X151.313 Y93.256 F15000.000
G1 X152.421 Y93.353 F780.000 E17.23866
G1 X153.557 Y93.658 E17.30469
G1 X154.624 Y94.155 E17.37072
G1 X155.587 Y94.830 E17.43675
G1 X156.419 Y95.661 E17.50278
G1 X157.094 Y96.625 E17.56881
G1 X157.591 Y97.691 E17.63484
G1 X157.896 Y98.828 E17.70086
G1 X157.998 Y100.000 E17.76690
G1 X157.896 Y101.172 E17.83292
G1 X157.591 Y102.308 E17.89895
G1 X157.094 Y103.374 E17.96498
G1 X156.419 Y104.338 E18.03101
G1 X155.587 Y105.170 E18.09704
G1 X154.643 Y105.831 E18.16173
G1 X153.557 Y106.342 E18.22908
G1 X152.421 Y106.646 E18.29511
G1 X151.238 Y106.750 E18.36175
G1 X110.436 Y106.750 E20.65184
G1 X109.125 Y107.636 E20.74067
G1 X107.772 Y108.248 E20.82401
G1 X106.335 Y108.623 E20.90735
G1 X104.856 Y108.749 E20.99069
G1 X103.376 Y108.623 E21.07403
G1 X101.939 Y108.248 E21.15736
G1 X100.587 Y107.636 E21.24070
G1 X99.276 Y106.750 E21.32954
G1 X71.638 Y106.750 E22.88072
G1 X70.816 Y104.682 E23.00558
G1 X70.281 Y102.368 E23.13890
G1 X70.051 Y99.418 E23.30500
G1 X69.900 Y98.854 E23.33779
G1 X69.653 Y98.324 E23.37057
G1 X69.318 Y97.846 E23.40335
G1 X68.905 Y97.433 E23.43614
G1 X68.426 Y97.098 E23.46892
G1 X67.897 Y96.851 E23.50171
G1 X67.333 Y96.700 E23.53449
G1 X66.751 Y96.649 E23.56728
G1 X66.169 Y96.700 E23.60006
G1 X65.605 Y96.851 E23.63284
G1 X65.075 Y97.098 E23.66563
G1 X64.597 Y97.433 E23.69841
G1 X64.184 Y97.846 E23.73120
G1 X63.849 Y98.324 E23.76398
G1 X63.602 Y98.854 E23.79676
G1 X63.451 Y99.418 E23.82955
G1 X63.400 Y99.995 E23.86209
G1 X63.529 Y102.396 E23.99702
G1 X63.913 Y104.765 E24.13170
G1 X64.458 Y106.750 E24.24724
G1 X58.841 Y106.750 E24.56253
G1 X58.393 Y104.651 E24.68294
G1 X58.099 Y102.334 E24.81406
G1 X58.001 Y100.005 E24.94487
G1 X58.133 Y98.493 E25.03009
G1 X58.521 Y97.031 E25.11499
G1 X59.140 Y95.691 E25.19784
G1 X60.017 Y94.414 E25.28476
G1 X61.080 Y93.338 E25.36967
G1 X62.312 Y92.460 E25.45457
G1 X63.677 Y91.808 E25.53947
G1 X65.134 Y91.401 E25.62437
G1 X66.639 Y91.251 E25.70927
G1 X68.148 Y91.363 E25.79417
G1 X69.614 Y91.732 E25.87908
G1 X70.996 Y92.349 E25.96398
G1 X72.331 Y93.250 E26.05439
G1 X99.968 Y93.250 E27.60556
G1 X100.791 Y95.317 E27.73042
G1 X101.325 Y97.631 E27.86374
G1 X101.556 Y100.582 E28.02984
G1 X101.707 Y101.146 E28.06262
G1 X101.954 Y101.675 E28.09541
G1 X102.289 Y102.154 E28.12819
G1 X102.702 Y102.567 E28.16097
G1 X103.180 Y102.902 E28.19376
G1 X103.710 Y103.148 E28.22654
G1 X104.274 Y103.300 E28.25933
G1 X104.856 Y103.351 E28.29211
G1 X105.438 Y103.300 E28.32490
G1 X106.002 Y103.149 E28.35768
G1 X106.531 Y102.902 E28.39046
G1 X107.010 Y102.567 E28.42325
G1 X107.423 Y102.154 E28.45603
G1 X107.758 Y101.675 E28.48882
G1 X108.005 Y101.146 E28.52160
G1 X108.156 Y100.582 E28.55438
G1 X108.206 Y100.004 E28.58693
G1 X108.078 Y97.603 E28.72185
G1 X107.694 Y95.235 E28.85654
G1 X107.149 Y93.250 E28.97207
G1 X151.163 Y93.250 E31.44246
G1 X151.313 Y93.256 E31.45087
G1 X150.603 Y94.090 F15000.000
G1 X157.115 Y100.602 F1200.000 E31.96813
G1 X157.132 Y99.911 E32.00693
G1 X151.337 Y94.117 E32.46724
G1 X152.119 Y94.191 E32.51135
G1 X157.058 Y99.130 E32.90368
G1 X156.787 Y98.152 E32.96068
G1 X153.097 Y94.461 E33.25382
G1 X154.783 Y95.439 E33.36327
G1 X155.810 Y96.466 E33.44486
G1 F2760.000 E30.24486
G92 E0
