; generated by Slic3r 0.9.9-dev on 2013-01-27 at 20:59:36

; layer_height = 0.3
; perimeters = 2
; top_solid_layers = 3
; bottom_solid_layers = 2
; fill_density = 0.2
; perimeter_speed = 30
; infill_speed = 48
; travel_speed = 250
; scale = 1
; nozzle_diameter = 0.5
; filament_diameter = 1.75
; extrusion_multiplier = 1.0
; perimeters extrusion width = 0.50mm
; infill extrusion width = 0.50mm
; first layer extrusion width = 0.50mm

M107
M190 S57 ; wait for bed temperature to be reached
M104 S200 ; set temperature
G28 X0 Y0
G1 X75 Y75 F12000
G28 Z0
G1 Z0.3 F200
G1 X15 Y20 F12000
M109 S200 ; wait for temperature to be reached
G90 ; use absolute coordinates
G21 ; set units to millimeters
G92 E0
M82 ; use absolute distances for extrusion
G1 F2220.000 E-1.60000
G92 E0
G1 Z0.300 F15000.000
G1 X91.955 Y90.468
G1 X91.655 Y90.948 F2220.000 E1.60000
G1 X91.655 Y90.948 F1800.000
G1 X91.305 Y91.398 E1.63555
G1 X90.925 Y91.818 E1.67087
G1 X90.285 Y92.378 E1.72391
G1 X89.575 Y92.848 E1.77701
G1 X72.095 Y102.938 E3.03568
G1 X71.415 Y103.278 E3.08310
G1 X69.905 Y103.928 E3.18562
G1 X69.305 Y104.148 E3.22547
G1 X68.685 Y104.318 E3.26556
G1 X68.375 Y104.378 E3.28525
G1 X66.765 Y104.638 E3.38696
G1 X66.145 Y104.708 E3.42587
G1 X65.515 Y104.718 E3.46516
G1 X63.265 Y104.538 E3.60593
G1 X62.635 Y104.418 E3.64592
G1 X62.025 Y104.248 E3.68541
G1 X60.485 Y103.728 E3.78678
G1 X59.915 Y103.498 E3.82511
G1 X59.365 Y103.228 E3.86332
G1 X59.095 Y103.068 E3.88289
G1 X57.715 Y102.198 E3.98463
G1 X57.195 Y101.828 E4.02443
G1 X56.715 Y101.418 E4.06380
G1 X56.485 Y101.188 E4.08408
G1 X55.365 Y100.018 E4.18509
G1 X54.965 Y99.558 E4.22310
G1 X54.605 Y99.058 E4.26153
G1 X54.445 Y98.798 E4.28056
G1 X53.625 Y97.388 E4.38228
G1 X53.335 Y96.818 E4.42217
G1 X53.205 Y96.528 E4.44199
G1 X52.995 Y95.918 E4.48222
G1 X52.545 Y94.358 E4.58347
G1 X52.405 Y93.738 E4.62311
G1 X52.315 Y93.118 E4.66218
G1 X52.295 Y92.798 E4.68217
G1 X52.235 Y91.168 E4.78389
G1 X52.245 Y90.558 E4.82194
G1 X52.305 Y89.948 E4.86017
G1 X52.685 Y88.058 E4.98039
G1 X52.835 Y87.438 E5.02017
G1 X53.055 Y86.838 E5.06002
G1 X53.185 Y86.548 E5.07984
G1 X53.885 Y85.078 E5.18138
G1 X54.125 Y84.618 E5.21374
G1 X72.905 Y52.088 E7.55619
G1 X73.175 Y51.658 E7.58786
G1 X74.285 Y50.058 E7.70930
G1 X74.695 Y49.578 E7.74867
G1 X75.145 Y49.128 E7.78835
G1 X76.365 Y48.048 E7.88997
G1 X76.855 Y47.658 E7.92902
G1 X77.365 Y47.318 E7.96725
G1 X79.085 Y46.408 E8.08860
G1 X79.655 Y46.138 E8.12793
G1 X80.255 Y45.928 E8.16757
G1 X82.135 Y45.458 E8.28842
G1 X82.445 Y45.388 E8.30824
G1 X83.065 Y45.298 E8.34731
G1 X83.695 Y45.268 E8.38665
G1 X85.325 Y45.268 E8.48830
G1 X85.955 Y45.298 E8.52763
G1 X86.265 Y45.338 E8.54712
G1 X86.885 Y45.458 E8.58651
G1 X88.765 Y45.928 E8.70736
G1 X89.365 Y46.138 E8.74700
G1 X89.655 Y46.268 E8.76682
G1 X91.655 Y47.318 E8.90769
G1 X91.915 Y47.488 E8.92706
G1 X92.165 Y47.658 E8.94591
G1 X92.655 Y48.048 E8.98497
G1 X93.875 Y49.128 E9.08658
G1 X94.325 Y49.578 E9.12627
G1 X94.735 Y50.058 E9.16564
G1 X95.845 Y51.658 E9.28708
G1 X96.015 Y51.918 E9.30645
G1 X96.315 Y52.458 E9.34497
G1 X96.555 Y53.018 E9.38297
G1 X97.245 Y54.848 E9.50493
G1 X97.415 Y55.468 E9.54503
G1 X97.525 Y56.108 E9.58552
G1 X97.715 Y57.738 E9.68786
G1 X97.755 Y58.488 E9.73470
G1 X97.755 Y78.668 E10.99318
G1 X97.735 Y79.238 E11.02875
G1 X97.655 Y79.798 E11.06403
G1 X97.535 Y80.348 E11.09914
G1 X97.365 Y80.888 E11.13444
G1 X97.025 Y81.668 E11.18750
G1 X91.993 Y90.403 E11.81618
G1 X91.955 Y90.468 E11.82086
G1 F2220.000 E10.22086
G92 E0
G1 X81.681 Y55.538 F15000.000
G1 X82.157 Y55.173 F2220.000 E1.60000
G1 X82.469 Y54.933 F624.000 E1.62453
G1 X83.456 Y54.524 E1.69115
G1 X84.515 Y54.385 E1.75778
G1 X85.574 Y54.524 E1.82440
G1 X86.561 Y54.933 E1.89103
G1 X87.409 Y55.584 E1.95765
G1 X88.059 Y56.431 E2.02427
G1 X88.468 Y57.418 E2.09090
G1 X88.607 Y58.477 E2.15752
G1 X88.468 Y59.537 E2.22415
G1 X88.059 Y60.524 E2.29077
G1 X87.409 Y61.371 E2.35740
G1 X86.561 Y62.021 E2.42402
G1 X85.574 Y62.430 E2.49064
G1 X84.515 Y62.570 E2.55727
G1 X83.456 Y62.430 E2.62389
G1 X82.469 Y62.021 E2.69052
G1 X81.621 Y61.371 E2.75714
G1 X80.971 Y60.524 E2.82376
G1 X80.562 Y59.537 E2.89039
G1 X80.423 Y58.477 E2.95701
G1 X80.562 Y57.418 E3.02364
G1 X80.971 Y56.431 E3.09026
G1 X81.469 Y55.782 E3.14129
G1 X81.681 Y55.538
G1 X82.037 Y55.895 F15000.000
G1 X82.721 Y55.370 F576.000 E3.19503
G1 X83.586 Y55.011 E3.25344
G1 X84.515 Y54.889 E3.31186
G1 X85.444 Y55.011 E3.37027
G1 X86.309 Y55.370 E3.42869
G1 X87.052 Y55.940 E3.48710
G1 X87.622 Y56.683 E3.54551
G1 X87.981 Y57.549 E3.60393
G1 X88.103 Y58.477 E3.66234
G1 X87.981 Y59.406 E3.72076
G1 X87.622 Y60.271 E3.77917
G1 X87.052 Y61.014 E3.83758
G1 X86.309 Y61.585 E3.89600
G1 X85.444 Y61.943 E3.95441
G1 X84.515 Y62.065 E4.01283
G1 X83.586 Y61.943 E4.07124
G1 X82.721 Y61.585 E4.12965
G1 X81.978 Y61.014 E4.18807
G1 X81.408 Y60.271 E4.24648
G1 X81.049 Y59.406 E4.30490
G1 X80.927 Y58.477 E4.36331
G1 X81.049 Y57.549 E4.42172
G1 X81.408 Y56.683 E4.48014
G1 X81.932 Y56.000 E4.53388
G1 X82.037 Y55.895 E4.54315
G1 X81.469 Y55.782 F2220.000 E2.94315
G92 E0
G1 X86.314 Y78.284 F15000.000
G1 X86.392 Y78.879 F2220.000 E1.60000
G1 X86.441 Y79.256 F624.000 E1.62372
G1 X86.304 Y80.302 E1.68953
G1 X85.900 Y81.277 E1.75535
G1 X85.257 Y82.114 E1.82116
G1 X84.420 Y82.757 E1.88697
G1 X83.445 Y83.160 E1.95279
G1 X82.399 Y83.298 E2.01860
G1 X81.353 Y83.160 E2.08441
G1 X80.378 Y82.757 E2.15022
G1 X79.540 Y82.114 E2.21604
G1 X78.898 Y81.277 E2.28185
G1 X78.494 Y80.302 E2.34766
G1 X78.356 Y79.256 E2.41347
G1 X78.494 Y78.209 E2.47929
G1 X78.898 Y77.234 E2.54510
G1 X79.540 Y76.397 E2.61091
G1 X80.378 Y75.755 E2.67673
G1 X81.353 Y75.351 E2.74254
G1 X82.399 Y75.213 E2.80835
G1 X83.445 Y75.351 E2.87416
G1 X84.420 Y75.755 E2.93998
G1 X85.257 Y76.397 E3.00579
G1 X85.900 Y77.234 E3.07160
G1 X86.208 Y77.978 E3.12182
G1 X86.314 Y78.284
G1 X85.826 Y78.414 F15000.000
G1 X85.937 Y79.256 F576.000 E3.17475
G1 X85.817 Y80.171 E3.23235
G1 X85.463 Y81.025 E3.28996
G1 X84.901 Y81.758 E3.34756
G1 X84.168 Y82.320 E3.40516
G1 X83.315 Y82.673 E3.46277
G1 X82.399 Y82.794 E3.52037
G1 X81.483 Y82.673 E3.57797
G1 X80.630 Y82.320 E3.63557
G1 X79.897 Y81.758 E3.69318
G1 X79.335 Y81.025 E3.75078
G1 X78.981 Y80.171 E3.80838
G1 X78.861 Y79.256 E3.86598
G1 X78.981 Y78.340 E3.92359
G1 X79.335 Y77.487 E3.98119
G1 X79.897 Y76.754 E4.03879
G1 X80.630 Y76.191 E4.09639
G1 X81.483 Y75.838 E4.15400
G1 X82.399 Y75.717 E4.21160
G1 X83.315 Y75.838 E4.26920
G1 X84.168 Y76.191 E4.32681
G1 X84.901 Y76.754 E4.38441
G1 X85.463 Y77.487 E4.44201
G1 X85.788 Y78.271 E4.49493
G1 X85.826 Y78.414 E4.50421
G1 X86.208 Y77.978 F2220.000 E2.90421
G92 E0
G1 X69.545 Y91.552 F15000.000
G1 X69.467 Y92.146 F2220.000 E1.60000
G1 X69.415 Y92.536 F624.000 E1.62453
G1 X69.007 Y93.523 E1.69116
G1 X68.356 Y94.371 E1.75778
G1 X67.509 Y95.021 E1.82440
G1 X66.522 Y95.430 E1.89103
G1 X65.462 Y95.570 E1.95765
G1 X64.403 Y95.430 E2.02427
G1 X63.416 Y95.021 E2.09090
G1 X62.569 Y94.371 E2.15752
G1 X61.918 Y93.523 E2.22415
G1 X61.509 Y92.536 E2.29077
G1 X61.370 Y91.477 E2.35740
G1 X61.509 Y90.418 E2.42402
G1 X61.918 Y89.431 E2.49065
G1 X62.569 Y88.584 E2.55727
G1 X63.416 Y87.933 E2.62389
G1 X64.403 Y87.524 E2.69052
G1 X65.462 Y87.385 E2.75714
G1 X66.522 Y87.524 E2.82376
G1 X67.509 Y87.933 E2.89039
G1 X68.356 Y88.584 E2.95702
G1 X69.007 Y89.431 E3.02364
G1 X69.415 Y90.418 E3.09027
G1 X69.522 Y91.229 E3.14130
G1 X69.545 Y91.552
G1 X69.041 Y91.552 F15000.000
G1 X68.928 Y92.406 F576.000 E3.19503
G1 X68.570 Y93.271 E3.25345
G1 X68.000 Y94.014 E3.31186
G1 X67.257 Y94.585 E3.37027
G1 X66.391 Y94.943 E3.42869
G1 X65.462 Y95.065 E3.48710
G1 X64.534 Y94.943 E3.54552
G1 X63.668 Y94.585 E3.60393
G1 X62.925 Y94.014 E3.66235
G1 X62.355 Y93.271 E3.72076
G1 X61.997 Y92.406 E3.77918
G1 X61.874 Y91.477 E3.83759
G1 X61.997 Y90.549 E3.89600
G1 X62.355 Y89.683 E3.95442
G1 X62.925 Y88.940 E4.01283
G1 X63.668 Y88.370 E4.07124
G1 X64.534 Y88.011 E4.12966
G1 X65.462 Y87.889 E4.18807
G1 X66.391 Y88.011 E4.24649
G1 X67.257 Y88.370 E4.30490
G1 X68.000 Y88.940 E4.36332
G1 X68.570 Y89.683 E4.42173
G1 X68.928 Y90.549 E4.48015
G1 X69.041 Y91.403 E4.53388
G1 X69.041 Y91.552 E4.54316
G1 X69.522 Y91.229 F2220.000 E2.94316
G92 E0
G1 X68.783 Y96.777 F15000.000
G1 X68.627 Y96.867 F2220.000 E1.60000
G1 X68.627 Y96.867 F1800.000
G1 X67.200 Y97.475 E1.69672
G1 X65.714 Y97.717 E1.79061
G1 X64.213 Y97.596 E1.88448
G1 X62.785 Y97.119 E1.97836
G1 X61.513 Y96.314 E2.07225
G1 X60.470 Y95.229 E2.16613
G1 X59.718 Y93.925 E2.26000
G1 X59.299 Y92.479 E2.35388
G1 X59.238 Y90.975 E2.44777
G1 X59.539 Y89.500 E2.54165
G1 X60.185 Y88.140 E2.63552
G1 X61.137 Y86.974 E2.72940
G1 X62.377 Y86.042 E2.82613
G1 X74.600 Y78.985 E3.70633
G1 X78.265 Y72.637 E4.16346
G1 X78.265 Y58.523 E5.04365
G1 X78.452 Y56.983 E5.14038
G1 X78.986 Y55.575 E5.23426
G1 X79.841 Y54.336 E5.32814
G1 X80.968 Y53.338 E5.42202
G1 X82.301 Y52.639 E5.51590
G1 X83.762 Y52.278 E5.60978
G1 X85.268 Y52.278 E5.70366
G1 X86.729 Y52.639 E5.79754
G1 X88.062 Y53.338 E5.89142
G1 X89.189 Y54.336 E5.98530
G1 X90.044 Y55.575 E6.07918
G1 X90.578 Y56.983 E6.17306
G1 X90.765 Y58.523 E6.26979
G1 X90.765 Y78.544 E7.51839
G1 X85.966 Y86.856 E8.11695
G1 X69.064 Y96.615 E9.33407
G1 X68.783 Y96.777
G1 X68.977 Y97.242 F15000.000
G1 X68.850 Y97.315 F576.000 E9.34322
G1 X67.340 Y97.959 E9.44561
G1 X65.734 Y98.220 E9.54707
G1 X64.113 Y98.089 E9.64852
G1 X62.570 Y97.574 E9.74997
G1 X61.195 Y96.704 E9.85142
G1 X60.068 Y95.531 E9.95287
G1 X59.254 Y94.122 E10.05432
G1 X58.802 Y92.560 E10.15578
G1 X58.736 Y90.934 E10.25723
G1 X59.062 Y89.340 E10.35868
G1 X59.759 Y87.871 E10.46014
G1 X60.788 Y86.611 E10.56159
G1 X62.100 Y85.624 E10.66399
G1 X74.234 Y78.619 E11.53772
G1 X77.765 Y72.503 E11.97813
G1 X77.765 Y58.492 E12.85186
G1 X77.963 Y56.862 E12.95426
G1 X78.540 Y55.341 E13.05571
G1 X79.464 Y54.002 E13.15716
G1 X80.682 Y52.924 E13.25862
G1 X82.122 Y52.168 E13.36007
G1 X83.702 Y51.778 E13.46152
G1 X85.328 Y51.778 E13.56297
G1 X86.908 Y52.168 E13.66442
G1 X88.348 Y52.924 E13.76588
G1 X89.566 Y54.002 E13.86733
G1 X90.490 Y55.341 E13.96878
G1 X91.067 Y56.862 E14.07023
G1 X91.265 Y58.492 E14.17263
G1 X91.265 Y78.678 E15.43147
G1 X86.332 Y87.223 E16.04675
G1 X69.107 Y97.167 E17.28709
G1 X68.977 Y97.242 E17.29645
G1 X69.064 Y96.615 F2220.000 E15.69645
G92 E0
G1 X63.575 Y95.535 F15000.000
G1 X63.999 Y95.959 F2220.000 E1.60000
G1 X65.374 Y97.334 F1152.000 E1.72189
G1 X66.085 Y97.335 E1.76650
G1 X64.569 Y95.818 E1.90096
G1 X65.368 Y95.906 E1.95136
G1 X66.697 Y97.235 E2.06919
G1 X67.292 Y97.120 E2.10719
G1 X65.996 Y95.824 E2.22208
G1 X66.598 Y95.715 E2.26042
G1 X67.790 Y96.907 E2.36614
G1 X68.289 Y96.695 E2.40010
G1 X67.100 Y95.507 E2.50543
G1 X67.603 Y95.298 E2.53952
G1 X68.765 Y96.461 E2.64260
G1 X69.216 Y96.201 E2.67522
G1 X68.005 Y94.990 E2.78260
G1 X68.407 Y94.681 E2.81437
G1 X69.667 Y95.941 E2.92604
G1 X70.117 Y95.680 E2.95866
G1 X68.750 Y94.313 E3.07989
G1 X69.058 Y93.911 E3.11167
G1 X70.568 Y95.420 E3.24549
G1 X71.018 Y95.160 E3.27811
G1 X69.340 Y93.482 E3.42691
G1 X69.548 Y92.979 E3.46101
G1 X71.469 Y94.900 E3.63130
G1 X71.920 Y94.640 E3.66392
G1 X69.749 Y92.469 E3.85639
G1 X69.831 Y91.841 E3.89610
G1 X72.370 Y94.380 E4.12119
G1 X72.821 Y94.119 E4.15381
G1 X69.882 Y91.180 E4.41436
G1 X69.774 Y90.362 E4.46611
G1 X73.271 Y93.859 E4.77615
G1 X73.722 Y93.599 E4.80877
G1 X69.384 Y89.261 E5.19334
G1 F2220.000 E3.59334
G92 E0
G1 X67.678 Y87.555 F15000.000
G1 X67.254 Y87.131 F2220.000 E1.60000
G1 X64.985 Y84.862 F1152.000 E1.80115
G1 X64.535 Y85.122 E1.83377
G1 X66.578 Y87.166 E2.01489
G1 X65.759 Y87.058 E2.06664
G1 X64.084 Y85.383 E2.21516
G1 X63.633 Y85.643 E2.24778
G1 X65.099 Y87.108 E2.37772
G1 X64.471 Y87.191 E2.41743
G1 X63.183 Y85.903 E2.53164
G1 X62.732 Y86.163 E2.56426
G1 X63.961 Y87.392 E2.67316
G1 X63.458 Y87.600 E2.70726
G1 X62.303 Y86.444 E2.80969
G1 X61.897 Y86.749 E2.84151
G1 X63.029 Y87.881 E2.94188
G1 X62.627 Y88.190 E2.97366
G1 X61.491 Y87.054 E3.07435
G1 X61.136 Y87.411 E3.10585
G1 X62.259 Y88.533 E3.20535
G1 X61.950 Y88.935 E3.23712
G1 X60.817 Y87.802 E3.33758
G1 X60.497 Y88.193 E3.36925
G1 X61.641 Y89.337 E3.47066
G1 X61.433 Y89.839 E3.50475
G1 X60.256 Y88.662 E3.60913
G1 X60.027 Y89.144 E3.64258
G1 X61.225 Y90.342 E3.74878
G1 X61.116 Y90.944 E3.78713
G1 X59.826 Y89.654 E3.90147
G1 X59.706 Y90.245 E3.93924
G1 X61.033 Y91.572 E4.05692
G1 X61.122 Y92.371 E4.10732
G1 X59.585 Y90.835 E4.24351
G1 X59.610 Y91.570 E4.28963
G1 X61.405 Y93.365 E4.44877
G1 X59.954 Y93.336 F15000.000
G1 X63.582 Y96.964 F1152.000 E4.77036
G1 X64.601 Y97.272 E4.83706
G1 X59.665 Y92.336 E5.27463
G1 F2220.000 E3.67463
G92 E0
G1 X61.669 Y95.762 F15000.000
G1 X61.991 Y96.084 F2220.000 E1.60000
G1 X61.991 Y96.084 F2880.000
G1 F2220.000 E0.00000
G92 E0
G1 X65.436 Y84.602 F15000.000
G1 X65.860 Y85.026 F2220.000 E1.60000
G1 X74.173 Y93.339 F1152.000 E2.33693
G1 X74.623 Y93.079 E2.36954
G1 X65.886 Y84.342 E3.14408
G1 X66.337 Y84.082 E3.17670
G1 X75.074 Y92.819 E3.95125
G1 X75.524 Y92.559 E3.98387
G1 X66.788 Y83.822 E4.75841
G1 X67.238 Y83.561 E4.79103
G1 X75.975 Y92.298 E5.56557
G1 X76.426 Y92.038 E5.59819
G1 X67.689 Y83.301 E6.37274
G1 X68.139 Y83.041 E6.40535
G1 X76.876 Y91.778 E7.17990
G1 X77.327 Y91.518 E7.21252
G1 X68.590 Y82.781 E7.98706
G1 X69.041 Y82.521 E8.01968
G1 X77.778 Y91.258 E8.79423
G1 X78.228 Y90.998 E8.82684
G1 X69.491 Y82.261 E9.60139
G1 X69.942 Y82.000 E9.63401
G1 X78.679 Y90.737 E10.40855
G1 X79.129 Y90.477 E10.44117
G1 X70.393 Y81.740 E11.21571
G1 X70.843 Y81.480 E11.24833
G1 X79.580 Y90.217 E12.02288
G1 X80.031 Y89.957 E12.05549
G1 X71.294 Y81.220 E12.83003
G1 X71.744 Y80.960 E12.86265
G1 X80.481 Y89.697 E13.63719
G1 X80.932 Y89.437 E13.66981
G1 X72.195 Y80.700 E14.44436
G1 X72.645 Y80.440 E14.47697
G1 X81.382 Y89.176 E15.25152
G1 X81.833 Y88.916 E15.28413
G1 X73.096 Y80.179 E16.05868
G1 X73.547 Y79.919 E16.09129
G1 X82.284 Y88.656 E16.86584
G1 X82.734 Y88.396 E16.89846
G1 X73.997 Y79.659 E17.67301
G1 X74.448 Y79.399 E17.70563
G1 X83.185 Y88.136 E18.48017
G1 X83.636 Y87.876 E18.51279
G1 X74.860 Y79.100 E19.29077
G1 X75.120 Y78.649 E19.32339
G1 X84.086 Y87.616 E20.11826
G1 X84.537 Y87.355 E20.15088
G1 X80.392 Y83.210 E20.51833
G1 X81.429 Y83.536 E20.58648
G1 X84.987 Y87.095 E20.90196
G1 X85.438 Y86.835 E20.93458
G1 X82.246 Y83.642 E21.21760
G1 X82.874 Y83.560 E21.25731
G1 X85.834 Y86.520 E21.51974
G1 X86.094 Y86.069 E21.55235
G1 X83.485 Y83.460 E21.78367
G1 X83.987 Y83.252 E21.81777
G1 X86.354 Y85.619 E22.02760
G1 X86.614 Y85.168 E22.06022
G1 X84.490 Y83.044 E22.24855
G1 X84.897 Y82.740 E22.28039
G1 X86.874 Y84.718 E22.45572
G1 X87.135 Y84.267 E22.48834
G1 X85.299 Y82.431 E22.65108
G1 X85.644 Y82.065 F15000.000
G1 X87.395 Y83.816 F1152.000 E22.80631
G1 X87.655 Y83.366 E22.83893
G1 X85.952 Y81.663 E22.98987
G1 X86.234 Y81.234 E23.02205
G1 X87.915 Y82.915 E23.17110
G1 X88.175 Y82.465 E23.20372
G1 X86.442 Y80.731 E23.35738
G1 X86.639 Y80.218 E23.39187
G1 X88.435 Y82.014 E23.55113
G1 X88.696 Y81.563 E23.58374
G1 X86.722 Y79.589 E23.75873
G1 X86.763 Y78.920 E23.80075
G1 X88.956 Y81.113 E23.99511
G1 X89.216 Y80.662 E24.02773
G1 X86.656 Y78.102 E24.25470
G1 X86.241 Y76.976 E24.32989
G1 X89.476 Y80.212 E24.61669
G1 X89.736 Y79.761 E24.64931
G1 X78.606 Y68.630 E25.63605
G1 X78.606 Y67.920 E25.68060
G1 X89.996 Y79.310 E26.69040
G1 X90.257 Y78.860 E26.72301
G1 X78.606 Y67.209 E27.75587
G1 X78.606 Y66.498 E27.80043
G1 X90.424 Y78.316 E28.84815
G1 X90.424 Y77.606 E28.89270
G1 X78.606 Y65.787 E29.94042
G1 X78.606 Y65.077 E29.98498
G1 X90.424 Y76.895 E31.03270
G1 X90.424 Y76.184 E31.07725
G1 X78.606 Y64.366 E32.12498
G1 X78.606 Y63.655 E32.16953
G1 X90.424 Y75.473 E33.21725
G1 X90.424 Y74.763 E33.26181
G1 X78.606 Y62.944 E34.30953
G1 X78.606 Y62.233 E34.35408
G1 X90.424 Y74.052 E35.40180
G1 X90.424 Y73.341 E35.44636
G1 X78.606 Y61.523 E36.49408
G1 X78.606 Y60.812 E36.53864
G1 X90.424 Y72.630 E37.58636
G1 X90.424 Y71.920 E37.63092
G1 X78.606 Y60.101 E38.67864
G1 X78.606 Y59.390 E38.72319
G1 X90.424 Y71.209 E39.77091
G1 X90.424 Y70.498 E39.81546
G1 X82.344 Y62.418 E40.53181
G1 X83.430 Y62.793 E40.60385
G1 X90.424 Y69.787 E41.22390
