; generated by Slic3r 0.9.9-dev on 2013-01-29 at 23:32:20

; layer_height = 0.25
; perimeters = 2
; top_solid_layers = 4
; bottom_solid_layers = 3
; fill_density = 0.4
; perimeter_speed = 20
; infill_speed = 32
; travel_speed = 250
; scale = 1
; nozzle_diameter = 0.3
; filament_diameter = 1.75
; extrusion_multiplier = 0.9
; perimeters extrusion width = 0.30mm
; infill extrusion width = 0.30mm
; first layer extrusion width = 0.30mm

M107
M190 S57 ; wait for bed temperature to be reached
M104 S200 ; set temperature
G28 X0 Y0
G1 X80 Y80 F12000
G28 Z0
G1 Z0.25 F200
G1 X15 Y20 F12000
M109 S200 ; wait for temperature to be reached
G90 ; use absolute coordinates
G21 ; set units to millimeters
M83 ; use relative distances for extrusion
G1 F2220.000 E-2.00000
G1 Z0.250 F15000.000
G1 X82.790 Y76.950
G1 X82.894 Y76.842 F2220.000 E2.00000
G1 X83.960 Y75.730 F600.000 E0.04323
G1 X85.190 Y74.570 E0.04745
G1 X86.230 Y73.680 E0.03841
G1 X87.510 Y72.670 E0.04576
G1 X88.890 Y71.690 E0.04750
G1 X90.550 Y70.640 E0.05512
G1 X91.740 Y69.960 E0.03846
G1 X93.550 Y69.050 E0.05685
G1 X94.800 Y68.500 E0.03832
G1 X96.630 Y67.790 E0.05509
G1 X98.250 Y67.260 E0.04783
G1 X99.840 Y66.830 E0.04622
G1 X101.170 Y66.530 E0.03826
G1 X102.850 Y66.240 E0.04784
G1 X104.490 Y66.030 E0.04640
G1 X106.490 Y65.880 E0.05628
G1 X107.860 Y65.850 E0.03846
G1 X109.500 Y65.880 E0.04603
G1 X111.500 Y66.030 E0.05628
G1 X113.140 Y66.240 E0.04640
G1 X114.820 Y66.530 E0.04784
G1 X116.150 Y66.830 E0.03826
G1 X117.740 Y67.260 E0.04622
G1 X119.360 Y67.790 E0.04783
G1 X121.190 Y68.500 E0.05509
G1 X122.440 Y69.050 E0.03832
G1 X124.250 Y69.960 E0.05685
G1 X125.440 Y70.640 E0.03846
G1 X127.100 Y71.690 E0.05512
G1 X128.480 Y72.670 E0.04750
G1 X129.760 Y73.680 E0.04576
G1 X130.800 Y74.570 E0.03841
G1 X132.030 Y75.730 E0.04745
G1 X133.420 Y77.190 E0.05657
G1 X134.310 Y78.230 E0.03841
G1 X135.320 Y79.510 E0.04576
G1 X136.300 Y80.890 E0.04750
G1 X137.350 Y82.550 E0.05512
G1 X138.030 Y83.740 E0.03846
G1 X138.940 Y85.550 E0.05685
G1 X139.490 Y86.800 E0.03832
G1 X140.200 Y88.630 E0.05509
G1 X140.730 Y90.250 E0.04783
G1 X141.160 Y91.840 E0.04622
G1 X141.460 Y93.170 E0.03826
G1 X141.750 Y94.850 E0.04784
G1 X141.960 Y96.490 E0.04640
G1 X142.110 Y98.490 E0.05628
G1 X142.140 Y99.850 E0.03818
G1 X142.110 Y101.500 E0.04631
G1 X141.960 Y103.500 E0.05628
G1 X141.750 Y105.140 E0.04640
G1 X141.460 Y106.820 E0.04784
G1 X141.160 Y108.150 E0.03826
G1 X140.730 Y109.740 E0.04622
G1 X140.200 Y111.360 E0.04783
G1 X139.490 Y113.190 E0.05509
G1 X138.940 Y114.440 E0.03832
G1 X138.030 Y116.250 E0.05685
G1 X137.350 Y117.440 E0.03846
G1 X136.300 Y119.100 E0.05512
G1 X135.320 Y120.480 E0.04750
G1 X134.310 Y121.760 E0.04576
G1 X133.420 Y122.800 E0.03841
G1 X132.260 Y124.030 E0.04745
G1 X130.800 Y125.420 E0.05657
G1 X129.760 Y126.310 E0.03841
G1 X128.480 Y127.320 E0.04576
G1 X127.100 Y128.300 E0.04750
G1 X125.440 Y129.350 E0.05512
G1 X124.250 Y130.030 E0.03846
G1 X122.440 Y130.940 E0.05685
G1 X121.190 Y131.490 E0.03832
G1 X119.360 Y132.200 E0.05509
G1 X117.740 Y132.730 E0.04783
G1 X116.150 Y133.160 E0.04622
G1 X114.820 Y133.460 E0.03826
G1 X113.140 Y133.750 E0.04784
G1 X111.500 Y133.960 E0.04640
G1 X109.500 Y134.110 E0.05628
G1 X108.160 Y134.140 E0.03761
G1 X106.490 Y134.110 E0.04687
G1 X104.490 Y133.960 E0.05628
G1 X102.850 Y133.750 E0.04640
G1 X101.170 Y133.460 E0.04784
G1 X99.840 Y133.160 E0.03826
G1 X98.250 Y132.730 E0.04622
G1 X96.630 Y132.200 E0.04783
G1 X94.800 Y131.490 E0.05509
G1 X93.550 Y130.940 E0.03832
G1 X91.740 Y130.030 E0.05685
G1 X90.550 Y129.350 E0.03846
G1 X88.890 Y128.300 E0.05512
G1 X87.510 Y127.320 E0.04750
G1 X86.230 Y126.310 E0.04576
G1 X85.190 Y125.420 E0.03841
G1 X83.960 Y124.260 E0.04745
G1 X82.570 Y122.800 E0.05657
G1 X81.680 Y121.760 E0.03841
G1 X80.670 Y120.480 E0.04576
G1 X79.690 Y119.100 E0.04750
G1 X78.640 Y117.440 E0.05512
G1 X77.960 Y116.250 E0.03846
G1 X77.050 Y114.440 E0.05685
G1 X76.500 Y113.190 E0.03832
G1 X75.790 Y111.360 E0.05509
G1 X75.260 Y109.740 E0.04783
G1 X74.830 Y108.150 E0.04622
G1 X74.530 Y106.820 E0.03826
G1 X74.240 Y105.140 E0.04784
G1 X74.030 Y103.500 E0.04640
G1 X73.880 Y101.500 E0.05628
G1 X73.850 Y100.130 E0.03846
G1 X73.880 Y98.490 E0.04603
G1 X74.030 Y96.490 E0.05628
G1 X74.240 Y94.850 E0.04640
G1 X74.530 Y93.170 E0.04784
G1 X74.830 Y91.840 E0.03826
G1 X75.260 Y90.250 E0.04622
G1 X75.790 Y88.630 E0.04783
G1 X76.500 Y86.800 E0.05509
G1 X77.050 Y85.550 E0.03832
G1 X77.960 Y83.740 E0.05685
G1 X78.640 Y82.550 E0.03846
G1 X79.690 Y80.890 E0.05512
G1 X80.670 Y79.510 E0.04750
G1 X81.680 Y78.230 E0.04576
G1 X82.760 Y76.983 E0.04628
G1 X82.790 Y76.950 E0.00126
G1 F2220.000 E-2.00000
G1 X111.317 Y96.282 F15000.000
G1 X111.199 Y96.190 F2220.000 E2.00000
G1 X110.963 Y96.005 F600.000 E0.00841
G1 X110.474 Y95.681 E0.01646
G1 X110.474 Y77.111 E0.52113
G1 X111.379 Y77.223 E0.02558
G1 X112.492 Y77.416 E0.03172
G1 X113.595 Y77.664 E0.03172
G1 X114.684 Y77.965 E0.03172
G1 X115.757 Y78.320 E0.03172
G1 X116.812 Y78.726 E0.03172
G1 X117.845 Y79.184 E0.03172
G1 X118.855 Y79.693 E0.03172
G1 X119.838 Y80.250 E0.03172
G1 X120.793 Y80.854 E0.03172
G1 X121.717 Y81.505 E0.03172
G1 X122.608 Y82.200 E0.03172
G1 X123.464 Y82.939 E0.03172
G1 X124.282 Y83.718 E0.03172
G1 X125.061 Y84.536 E0.03172
G1 X125.800 Y85.392 E0.03172
G1 X126.495 Y86.283 E0.03172
G1 X127.146 Y87.207 E0.03172
G1 X127.750 Y88.162 E0.03172
G1 X128.307 Y89.145 E0.03172
G1 X129.023 Y90.568 E0.04469
G1 X111.581 Y96.235 E0.51468
G1 X111.317 Y96.282
G1 X111.376 Y95.947 F15000.000
G1 X111.142 Y95.764 F600.000 E0.00835
G1 X110.774 Y95.516 E0.01245
G1 X110.774 Y77.451 E0.50698
G1 X111.335 Y77.520 E0.01586
G1 X112.434 Y77.710 E0.03130
G1 X113.522 Y77.955 E0.03130
G1 X114.597 Y78.252 E0.03130
G1 X115.656 Y78.602 E0.03130
G1 X116.697 Y79.004 E0.03130
G1 X117.717 Y79.456 E0.03130
G1 X118.713 Y79.957 E0.03130
G1 X119.684 Y80.507 E0.03130
G1 X120.626 Y81.104 E0.03130
G1 X121.538 Y81.746 E0.03130
G1 X122.417 Y82.432 E0.03130
G1 X123.262 Y83.161 E0.03130
G1 X124.070 Y83.930 E0.03130
G1 X124.839 Y84.738 E0.03130
G1 X125.568 Y85.583 E0.03130
G1 X126.284 Y86.504 E0.03275
G1 X126.896 Y87.374 E0.02986
G1 X127.493 Y88.316 E0.03130
G1 X128.043 Y89.287 E0.03130
G1 X128.598 Y90.391 E0.03468
G1 X111.455 Y95.961 E0.50587
G1 X111.376 Y95.947 E0.00223
G1 X111.581 Y96.235 F2220.000 E-2.00000
G1 X86.997 Y90.528 F15000.000
G1 X87.064 Y90.394 F2220.000 E2.00000
G1 X87.693 Y89.145 F600.000 E0.03922
G1 X88.250 Y88.162 E0.03172
G1 X88.854 Y87.207 E0.03172
G1 X89.505 Y86.283 E0.03172
G1 X90.200 Y85.392 E0.03172
G1 X90.939 Y84.536 E0.03172
G1 X91.718 Y83.718 E0.03172
G1 X92.536 Y82.939 E0.03172
G1 X93.392 Y82.200 E0.03172
G1 X94.283 Y81.505 E0.03172
G1 X95.207 Y80.854 E0.03172
G1 X96.162 Y80.250 E0.03172
G1 X97.145 Y79.693 E0.03172
G1 X98.155 Y79.184 E0.03172
G1 X99.188 Y78.726 E0.03172
G1 X100.243 Y78.320 E0.03172
G1 X101.316 Y77.965 E0.03172
G1 X102.405 Y77.664 E0.03172
G1 X103.508 Y77.416 E0.03172
G1 X104.621 Y77.223 E0.03172
G1 X105.526 Y77.111 E0.02558
G1 X105.526 Y95.681 E0.52113
G1 X105.037 Y96.005 E0.01646
G1 X104.647 Y96.310 E0.01388
G1 X87.205 Y90.642 E0.51468
G1 X86.997 Y90.528
G1 X87.422 Y90.350 F15000.000
G1 X87.957 Y89.287 F600.000 E0.03341
G1 X88.507 Y88.316 E0.03130
G1 X89.104 Y87.374 E0.03130
G1 X89.746 Y86.462 E0.03130
G1 X90.432 Y85.583 E0.03130
G1 X91.161 Y84.738 E0.03130
G1 X91.930 Y83.930 E0.03130
G1 X92.738 Y83.161 E0.03130
G1 X93.583 Y82.432 E0.03130
G1 X94.462 Y81.746 E0.03130
G1 X95.374 Y81.104 E0.03130
G1 X96.316 Y80.507 E0.03130
G1 X97.287 Y79.957 E0.03130
G1 X98.283 Y79.456 E0.03130
G1 X99.303 Y79.004 E0.03130
G1 X100.344 Y78.602 E0.03130
G1 X101.403 Y78.252 E0.03130
G1 X102.478 Y77.955 E0.03130
G1 X103.566 Y77.710 E0.03130
G1 X104.665 Y77.520 E0.03130
G1 X105.226 Y77.451 E0.01586
G1 X105.226 Y95.516 E0.50698
G1 X104.858 Y95.764 E0.01245
G1 X104.588 Y95.975 E0.00962
G1 X87.444 Y90.405 E0.50587
G1 X87.422 Y90.350 E0.00164
G1 X87.205 Y90.642 F2220.000 E-2.00000
G1 X85.499 Y95.290 F15000.000
G1 X85.642 Y95.336 F2220.000 E2.00000
G1 X103.122 Y101.016 F600.000 E0.51581
G1 X103.241 Y101.444 E0.01245
G1 X103.459 Y102.042 E0.01787
G1 X92.542 Y117.067 E0.52118
G1 X91.718 Y116.282 E0.03195
G1 X90.939 Y115.464 E0.03172
G1 X90.200 Y114.608 E0.03172
G1 X89.505 Y113.717 E0.03172
G1 X88.854 Y112.793 E0.03172
G1 X88.250 Y111.838 E0.03172
G1 X87.693 Y110.855 E0.03172
G1 X87.184 Y109.845 E0.03172
G1 X86.726 Y108.812 E0.03172
G1 X86.320 Y107.757 E0.03172
G1 X85.965 Y106.684 E0.03172
G1 X85.664 Y105.595 E0.03172
G1 X85.416 Y104.492 E0.03172
G1 X85.223 Y103.379 E0.03172
G1 X85.084 Y102.257 E0.03172
G1 X85.001 Y101.130 E0.03172
G1 X84.974 Y100.000 E0.03172
G1 X85.001 Y98.870 E0.03172
G1 X85.084 Y97.743 E0.03172
G1 X85.223 Y96.621 E0.03172
G1 X85.415 Y95.513 E0.03158
G1 X85.499 Y95.290
G1 X85.735 Y95.682 F15000.000
G1 X102.876 Y101.252 F600.000 E0.50578
G1 X102.953 Y101.531 E0.00813
G1 X103.120 Y101.998 E0.01391
G1 X92.501 Y116.613 E0.50699
G1 X91.930 Y116.070 E0.02212
G1 X91.161 Y115.262 E0.03130
G1 X90.432 Y114.417 E0.03130
G1 X89.746 Y113.538 E0.03130
G1 X89.104 Y112.626 E0.03130
G1 X88.507 Y111.684 E0.03130
G1 X87.957 Y110.713 E0.03130
G1 X87.456 Y109.717 E0.03130
G1 X87.004 Y108.697 E0.03130
G1 X86.602 Y107.656 E0.03130
G1 X86.252 Y106.597 E0.03130
G1 X85.955 Y105.522 E0.03130
G1 X85.710 Y104.434 E0.03130
G1 X85.520 Y103.335 E0.03130
G1 X85.383 Y102.228 E0.03130
G1 X85.301 Y101.115 E0.03130
G1 X85.274 Y100.000 E0.03130
G1 X85.301 Y98.885 E0.03130
G1 X85.383 Y97.772 E0.03130
G1 X85.520 Y96.665 E0.03130
G1 X85.685 Y95.713 E0.02713
G1 X85.735 Y95.682 E0.00165
G1 X85.415 Y95.513 F2220.000 E-2.00000
G1 X106.066 Y96.571 F15000.000
G1 X106.216 Y96.571 F2220.000 E2.00000
G1 X109.979 Y96.571 F600.000 E0.10563
G1 X110.251 Y97.042 E0.01524
G1 X111.959 Y100.000 E0.09586
G1 X109.979 Y103.428 E0.11110
G1 X106.021 Y103.428 E0.11110
G1 X104.041 Y100.000 E0.11110
G1 X105.901 Y96.779 E0.10436
G1 X106.066 Y96.571
G1 X106.239 Y96.871 F15000.000
G1 X109.806 Y96.871 F600.000 E0.10012
G1 X109.991 Y97.192 E0.01038
G1 X111.612 Y100.000 E0.09100
G1 X109.806 Y103.128 E0.10138
G1 X106.194 Y103.128 E0.10138
G1 X104.388 Y100.000 E0.10138
G1 X106.171 Y96.910 E0.10012
G1 X106.239 Y96.871 E0.00219
G1 X105.901 Y96.779 F2220.000 E-2.00000
G1 X112.921 Y101.002 F15000.000
G1 X113.063 Y100.956 F2220.000 E2.00000
G1 X130.544 Y95.276 F600.000 E0.51581
G1 X130.777 Y96.621 E0.03831
G1 X130.916 Y97.743 E0.03172
G1 X130.999 Y98.870 E0.03172
G1 X131.026 Y100.000 E0.03172
G1 X130.999 Y101.130 E0.03172
G1 X130.916 Y102.257 E0.03172
G1 X130.777 Y103.379 E0.03172
G1 X130.584 Y104.492 E0.03172
G1 X130.336 Y105.595 E0.03172
G1 X130.035 Y106.684 E0.03172
G1 X129.680 Y107.757 E0.03172
G1 X129.274 Y108.812 E0.03172
G1 X128.816 Y109.845 E0.03172
G1 X128.307 Y110.855 E0.03172
G1 X127.750 Y111.838 E0.03172
G1 X127.146 Y112.793 E0.03172
G1 X126.495 Y113.717 E0.03172
G1 X125.800 Y114.608 E0.03172
G1 X125.061 Y115.464 E0.03172
G1 X124.282 Y116.282 E0.03172
G1 X123.458 Y117.067 E0.03195
G1 X112.541 Y102.042 E0.52118
G1 X112.759 Y101.444 E0.01787
G1 X112.814 Y101.248 E0.00571
G1 X112.921 Y101.002
G1 X113.167 Y101.238 F15000.000
G1 X130.307 Y95.668 F600.000 E0.50578
G1 X130.480 Y96.665 E0.02839
G1 X130.617 Y97.772 E0.03130
G1 X130.699 Y98.885 E0.03130
G1 X130.726 Y100.000 E0.03130
G1 X130.699 Y101.115 E0.03130
G1 X130.617 Y102.228 E0.03130
G1 X130.480 Y103.335 E0.03130
G1 X130.290 Y104.434 E0.03130
G1 X130.045 Y105.522 E0.03130
G1 X129.748 Y106.597 E0.03130
G1 X129.398 Y107.656 E0.03130
G1 X128.996 Y108.697 E0.03130
G1 X128.544 Y109.717 E0.03130
G1 X128.043 Y110.713 E0.03130
G1 X127.493 Y111.684 E0.03130
G1 X126.896 Y112.626 E0.03130
G1 X126.284 Y113.496 E0.02986
G1 X125.568 Y114.417 E0.03275
G1 X124.839 Y115.262 E0.03130
G1 X124.070 Y116.070 E0.03130
G1 X123.499 Y116.613 E0.02212
G1 X112.880 Y101.998 E0.50699
G1 X113.112 Y101.295 E0.02077
G1 X113.167 Y101.238 E0.00222
G1 X112.814 Y101.248 F2220.000 E-2.00000
G1 X107.499 Y104.961 F15000.000
G1 X107.649 Y104.965 F2220.000 E2.00000
G1 X108.000 Y104.974 F600.000 E0.00986
G1 X108.546 Y104.960 E0.01533
G1 X119.471 Y119.997 E0.52160
G1 X117.845 Y120.816 E0.05108
G1 X116.812 Y121.274 E0.03172
G1 X115.757 Y121.680 E0.03172
G1 X114.684 Y122.035 E0.03172
G1 X113.595 Y122.336 E0.03172
G1 X112.492 Y122.584 E0.03172
G1 X111.379 Y122.777 E0.03172
G1 X110.257 Y122.916 E0.03172
G1 X109.130 Y122.999 E0.03172
G1 X108.000 Y123.026 E0.03172
G1 X106.870 Y122.999 E0.03172
G1 X105.743 Y122.916 E0.03172
G1 X104.621 Y122.777 E0.03172
G1 X103.317 Y122.551 E0.03715
G1 X102.405 Y122.336 E0.02629
G1 X101.316 Y122.035 E0.03172
G1 X100.243 Y121.680 E0.03172
G1 X99.188 Y121.274 E0.03172
G1 X98.155 Y120.816 E0.03172
G1 X96.529 Y119.997 E0.05108
G1 X107.313 Y105.154 E0.51487
G1 X107.499 Y104.961
G1 X107.649 Y105.264 F15000.000
G1 X108.396 Y105.264 F600.000 E0.02096
G1 X119.021 Y119.888 E0.50727
G1 X117.717 Y120.544 E0.04097
G1 X116.697 Y120.996 E0.03130
G1 X115.656 Y121.398 E0.03130
G1 X114.597 Y121.748 E0.03130
G1 X113.522 Y122.045 E0.03130
G1 X112.434 Y122.290 E0.03130
G1 X111.335 Y122.480 E0.03130
G1 X110.228 Y122.617 E0.03130
G1 X109.115 Y122.699 E0.03130
G1 X108.000 Y122.726 E0.03130
G1 X106.885 Y122.699 E0.03130
G1 X105.772 Y122.617 E0.03130
G1 X104.665 Y122.480 E0.03130
G1 X103.566 Y122.290 E0.03130
G1 X102.478 Y122.045 E0.03130
G1 X101.403 Y121.748 E0.03130
G1 X100.344 Y121.398 E0.03130
G1 X99.303 Y120.996 E0.03130
G1 X98.283 Y120.544 E0.03130
G1 X96.979 Y119.888 E0.04097
G1 X107.578 Y105.300 E0.50601
G1 X107.649 Y105.264 E0.00225
G1 X107.313 Y105.154 F2220.000 E-2.00000
G1 X106.617 Y127.514 F15000.000
G1 X106.467 Y127.503 F2220.000 E2.00000
G1 X105.300 Y127.417 F600.000 E0.03285
G1 X103.958 Y127.252 E0.03795
G1 X102.625 Y127.021 E0.03795
G1 X101.306 Y126.724 E0.03795
G1 X100.003 Y126.364 E0.03795
G1 X98.719 Y125.939 E0.03795
G1 X97.457 Y125.453 E0.03795
G1 X96.221 Y124.905 E0.03795
G1 X95.013 Y124.297 E0.03795
G1 X93.837 Y123.630 E0.03795
G1 X92.694 Y122.907 E0.03795
G1 X91.589 Y122.128 E0.03795
G1 X90.523 Y121.296 E0.03795
G1 X89.499 Y120.413 E0.03795
G1 X88.519 Y119.481 E0.03795
G1 X87.587 Y118.501 E0.03795
G1 X86.704 Y117.477 E0.03795
G1 X85.872 Y116.411 E0.03795
G1 X85.093 Y115.306 E0.03795
G1 X84.370 Y114.163 E0.03795
G1 X83.703 Y112.987 E0.03795
G1 X83.095 Y111.779 E0.03795
G1 X82.547 Y110.543 E0.03795
G1 X82.061 Y109.281 E0.03795
G1 X81.636 Y107.997 E0.03795
G1 X81.276 Y106.694 E0.03795
G1 X80.979 Y105.375 E0.03795
G1 X80.748 Y104.042 E0.03795
G1 X80.583 Y102.700 E0.03795
G1 X80.483 Y101.352 E0.03795
G1 X80.450 Y100.000 E0.03795
G1 X80.483 Y98.648 E0.03795
G1 X80.583 Y97.300 E0.03795
G1 X80.748 Y95.958 E0.03795
G1 X80.979 Y94.625 E0.03795
G1 X81.276 Y93.306 E0.03795
G1 X81.636 Y92.003 E0.03795
G1 X82.061 Y90.719 E0.03795
G1 X82.547 Y89.457 E0.03795
G1 X83.095 Y88.221 E0.03795
G1 X83.703 Y87.013 E0.03795
G1 X84.370 Y85.837 E0.03795
G1 X85.093 Y84.694 E0.03795
G1 X85.872 Y83.589 E0.03795
G1 X86.704 Y82.523 E0.03795
G1 X87.587 Y81.499 E0.03795
G1 X88.519 Y80.519 E0.03795
G1 X89.499 Y79.587 E0.03795
G1 X90.523 Y78.704 E0.03795
G1 X91.589 Y77.872 E0.03795
G1 X92.694 Y77.093 E0.03795
G1 X93.837 Y76.370 E0.03795
G1 X95.013 Y75.703 E0.03795
G1 X96.221 Y75.095 E0.03795
G1 X97.457 Y74.547 E0.03795
G1 X98.719 Y74.061 E0.03795
G1 X100.003 Y73.636 E0.03795
G1 X101.306 Y73.276 E0.03795
G1 X102.625 Y72.979 E0.03795
G1 X103.958 Y72.748 E0.03795
G1 X105.300 Y72.583 E0.03795
G1 X106.648 Y72.483 E0.03795
G1 X108.000 Y72.450 E0.03795
G1 X109.352 Y72.483 E0.03795
G1 X110.700 Y72.583 E0.03795
G1 X112.042 Y72.748 E0.03795
G1 X113.375 Y72.979 E0.03795
G1 X114.694 Y73.276 E0.03795
G1 X115.997 Y73.636 E0.03795
G1 X117.281 Y74.061 E0.03795
G1 X118.543 Y74.547 E0.03795
G1 X119.779 Y75.095 E0.03795
G1 X120.987 Y75.703 E0.03795
G1 X122.163 Y76.370 E0.03795
G1 X123.306 Y77.093 E0.03795
G1 X124.411 Y77.872 E0.03795
G1 X125.477 Y78.704 E0.03795
G1 X126.501 Y79.587 E0.03795
G1 X127.481 Y80.519 E0.03795
G1 X128.413 Y81.499 E0.03795
G1 X129.296 Y82.523 E0.03795
G1 X130.128 Y83.589 E0.03795
G1 X130.907 Y84.694 E0.03795
G1 X131.630 Y85.837 E0.03795
G1 X132.297 Y87.013 E0.03795
