; generated by Slic3r 0.9.9-dev on 2013-03-15 at 15:54:48

; layer_height = 0.3
; perimeters = 2
; top_solid_layers = 3
; bottom_solid_layers = 2
; fill_density = 0.2
; perimeter_speed = 30
; infill_speed = 48
; travel_speed = 250
; scale = 1
; nozzle_diameter = 0.5
; filament_diameter = 1.75
; extrusion_multiplier = 1.0
; perimeters extrusion width = 0.50mm
; infill extrusion width = 0.50mm
; first layer extrusion width = 0.50mm

M107
M190 S57 ; wait for bed temperature to be reached
M104 S200 ; set temperature
G28 X0 Y0
G1 X75 Y75 F12000
G28 Z0
G1 Z0.3 F200
G1 X15 Y20 F12000
M109 S200 ; wait for temperature to be reached
G90 ; use absolute coordinates
G21 ; set units to millimeters
G92 E0
M82 ; use absolute distances for extrusion
G1 F2220.000 E-1.60000
G92 E0
G1 Z0.300 F15000.000
G1 X36.820 Y53.250
G1 X37.260 Y52.950 F2220.000 E1.60000
G1 X37.260 Y52.950 F1800.000
G1 X37.980 Y52.580 E1.65048
G1 X39.320 Y51.990 E1.74179
G1 X39.840 Y51.810 E1.77611
G1 X40.360 Y51.670 E1.80969
G1 X41.530 Y51.420 E1.88430
G1 X42.580 Y51.290 E1.95028
G1 X43.740 Y51.240 E2.02269
G1 X79.250 Y51.240 E4.23719
G1 X90.590 Y51.750 E4.94510
G1 X91.440 Y51.840 E4.99841
G1 X91.990 Y51.960 E5.03351
G1 X92.530 Y52.130 E5.06882
G1 X93.050 Y52.350 E5.10403
G1 X93.550 Y52.610 E5.13917
G1 X115.500 Y65.280 E6.71971
G1 X115.960 Y65.570 E6.75362
G1 X116.600 Y66.080 E6.80466
G1 X116.990 Y66.460 E6.83862
G1 X117.510 Y67.090 E6.88956
G1 X117.950 Y67.780 E6.94059
G1 X118.190 Y68.270 E6.97462
G1 X118.390 Y68.770 E7.00820
G1 X118.550 Y69.290 E7.04213
G1 X118.610 Y69.560 E7.05938
G1 X118.730 Y70.370 E7.11045
G1 X118.750 Y70.910 E7.14414
G1 X118.750 Y80.210 E7.72412
G1 X118.730 Y80.760 E7.75844
G1 X118.570 Y82.660 E7.87735
G1 X118.490 Y83.250 E7.91448
G1 X118.360 Y83.830 E7.95155
G1 X117.600 Y86.180 E8.10557
G1 X117.490 Y86.450 E8.12376
G1 X117.370 Y86.720 E8.14218
G1 X117.090 Y87.240 E8.17901
G1 X116.120 Y88.860 E8.29677
G1 X115.790 Y89.360 E8.33413
G1 X115.410 Y89.830 E8.37182
G1 X115.200 Y90.050 E8.39079
G1 X113.890 Y91.400 E8.50810
G1 X113.240 Y91.990 E8.56284
G1 X112.760 Y92.330 E8.59952
G1 X111.180 Y93.350 E8.71681
G1 X110.920 Y93.510 E8.73584
G1 X110.400 Y93.780 E8.77238
G1 X109.850 Y94.010 E8.80956
G1 X108.070 Y94.650 E8.92752
G1 X107.560 Y94.810 E8.96086
G1 X106.770 Y94.970 E9.01112
G1 X80.150 Y98.680 E10.68727
G1 X79.250 Y98.740 E10.74352
G1 X65.590 Y98.740 E11.59539
G1 X43.590 Y98.240 E12.96773
G1 X43.070 Y98.210 E13.00021
G1 X42.290 Y98.080 E13.04952
G1 X41.780 Y97.940 E13.08251
G1 X41.290 Y97.760 E13.11506
G1 X41.050 Y97.660 E13.13127
G1 X40.580 Y97.420 E13.16419
G1 X39.910 Y97.000 E13.21350
G1 X39.500 Y96.670 E13.24632
G1 X38.940 Y96.120 E13.29527
G1 X38.440 Y95.510 E13.34446
G1 X38.160 Y95.070 E13.37698
G1 X37.790 Y94.370 E13.42636
G1 X37.520 Y93.630 E13.47548
G1 X37.390 Y93.120 E13.50831
G1 X31.520 Y66.070 E15.23448
G1 X31.400 Y65.340 E15.28062
G1 X31.280 Y64.140 E15.35583
G1 X31.250 Y63.620 E15.38831
G1 X31.260 Y63.100 E15.42074
G1 X31.400 Y61.650 E15.51159
G1 X31.480 Y61.100 E15.54625
G1 X31.610 Y60.560 E15.58089
G1 X32.060 Y59.150 E15.67319
G1 X32.360 Y58.390 E15.72414
G1 X32.610 Y57.910 E15.75789
G1 X33.350 Y56.640 E15.84956
G1 X33.660 Y56.190 E15.88364
G1 X34.010 Y55.770 E15.91773
G1 X34.820 Y54.870 E15.99324
G1 X35.410 Y54.290 E16.04484
G1 X36.759 Y53.294 E16.14942
G1 X36.820 Y53.250 E16.15410
G1 F2220.000 E14.55410
G92 E0
G1 X60.745 Y61.301 F15000.000
G1 X61.045 Y60.782 F2220.000 E1.60000
G1 X61.256 Y60.417 F720.000 E1.62630
G1 X61.990 Y59.602 E1.69469
G1 X62.877 Y58.957 E1.76308
G1 X63.879 Y58.511 E1.83147
G1 X64.952 Y58.283 E1.89987
G1 X66.250 Y58.283 E1.98083
G1 X66.250 Y58.250 E1.98288
G1 X78.750 Y58.250 E2.76242
G1 X78.750 Y60.050 E2.87467
G1 X66.690 Y60.050 E3.62676
G1 X66.631 Y60.020 E3.63091
G1 X65.500 Y59.841 E3.70231
G1 X64.369 Y60.020 E3.77371
G1 X63.349 Y60.540 E3.84511
G1 X62.540 Y61.349 E3.91651
G1 X62.020 Y62.369 E3.98791
G1 X61.841 Y63.500 E4.05931
G1 X62.020 Y64.631 E4.13070
G1 X62.540 Y65.651 E4.20210
G1 X63.349 Y66.460 E4.27350
G1 X64.369 Y66.980 E4.34490
G1 X65.500 Y67.159 E4.41630
G1 X66.631 Y66.980 E4.48770
G1 X66.690 Y66.950 E4.49185
G1 X78.750 Y66.950 E5.24394
G1 X78.750 Y72.750 E5.60564
G1 X66.250 Y72.750 E6.38518
G1 X66.250 Y68.717 E6.63668
G1 X64.952 Y68.717 E6.71765
G1 X63.879 Y68.489 E6.78604
G1 X62.877 Y68.043 E6.85443
G1 X61.990 Y67.398 E6.92282
G1 X61.256 Y66.583 E6.99122
G1 X60.708 Y65.634 E7.05961
G1 X60.369 Y64.591 E7.12800
G1 X60.254 Y63.500 E7.19639
G1 X60.369 Y62.409 E7.26478
G1 X60.600 Y61.699 E7.31135
G1 X60.745 Y61.301
G1 X60.286 Y61.097 F15000.000
G1 X60.849 Y60.121 F576.000 E7.38162
G1 X61.653 Y59.228 E7.45657
G1 X62.626 Y58.522 E7.53151
G1 X63.724 Y58.033 E7.60646
G1 X64.899 Y57.783 E7.68141
G1 X65.750 Y57.783 E7.73447
G1 X65.750 Y57.750 E7.73652
G1 X79.250 Y57.750 E8.57842
G1 X79.250 Y60.550 E8.75303
G1 X66.570 Y60.550 E9.54379
G1 X66.474 Y60.501 E9.55049
G1 X65.500 Y60.347 E9.61201
G1 X64.526 Y60.501 E9.67353
G1 X63.647 Y60.949 E9.73505
G1 X62.949 Y61.647 E9.79657
G1 X62.501 Y62.526 E9.85810
G1 X62.347 Y63.500 E9.91962
G1 X62.501 Y64.474 E9.98114
G1 X62.949 Y65.353 E10.04266
G1 X63.647 Y66.051 E10.10418
G1 X64.526 Y66.499 E10.16570
G1 X65.500 Y66.653 E10.22723
G1 X66.474 Y66.499 E10.28875
G1 X66.570 Y66.450 E10.29545
G1 X79.250 Y66.450 E11.08620
G1 X79.250 Y73.250 E11.51027
G1 X65.750 Y73.250 E12.35217
G1 X65.750 Y69.217 E12.60367
G1 X64.899 Y69.217 E12.65673
G1 X63.724 Y68.967 E12.73168
G1 X62.626 Y68.478 E12.80662
G1 X61.653 Y67.772 E12.88157
G1 X60.849 Y66.879 E12.95652
G1 X60.248 Y65.838 E13.03147
G1 X59.877 Y64.695 E13.10641
G1 X59.751 Y63.500 E13.18136
G1 X59.877 Y62.305 E13.25631
G1 X60.225 Y61.233 E13.32658
G1 X60.286 Y61.097 E13.33588
G1 X60.600 Y61.699 F2220.000 E11.73588
G92 E0
G1 X66.791 Y67.291 F15000.000
G1 X67.215 Y67.715 F2220.000 E1.60000
G1 X71.909 Y72.409 F1152.000 E2.01820
G1 X72.623 Y72.409 E2.06320
G1 X67.505 Y67.291 E2.51920
G1 X68.219 Y67.291 E2.56420
G1 X73.338 Y72.409 E3.02019
G1 X74.052 Y72.409 E3.06519
G1 X68.934 Y67.291 E3.52119
G1 X69.648 Y67.291 E3.56619
G1 X74.766 Y72.409 E4.02219
G1 X75.481 Y72.409 E4.06718
G1 X70.362 Y67.291 E4.52318
G1 X71.076 Y67.291 E4.56818
G1 X76.195 Y72.409 E5.02418
G1 X76.909 Y72.409 E5.06918
G1 X71.791 Y67.291 E5.52518
G1 X72.505 Y67.291 E5.57017
G1 X77.623 Y72.409 E6.02617
G1 X78.338 Y72.409 E6.07117
G1 X73.219 Y67.291 E6.52717
G1 X73.934 Y67.291 E6.57217
G1 X78.409 Y71.766 E6.97089
G1 X78.409 Y71.052 E7.01589
G1 X74.648 Y67.291 E7.35098
G1 X75.362 Y67.291 E7.39598
G1 X78.409 Y70.338 E7.66744
G1 X78.409 Y69.623 E7.71243
G1 X76.077 Y67.291 E7.92025
G1 X76.791 Y67.291 E7.96525
G1 X78.409 Y68.909 E8.10943
G1 X78.409 Y68.195 E8.15443
G1 X77.505 Y67.291 E8.23498
G1 F2220.000 E6.63498
G92 E0
G1 X78.091 Y58.591 F15000.000
G1 X78.409 Y58.909 F2220.000 E1.60000
G1 X78.409 Y58.909 F2880.000
G1 X78.409 Y59.623 E1.64500
G1 X77.377 Y58.591 E1.73700
G1 X76.662 Y58.591 E1.78200
G1 X77.781 Y59.709 E1.88164
G1 X77.066 Y59.709 E1.92663
G1 X75.948 Y58.591 E2.02627
G1 X75.234 Y58.591 E2.07127
G1 X76.352 Y59.709 E2.17091
G1 X75.638 Y59.709 E2.21591
G1 X74.519 Y58.591 E2.31555
G1 X73.805 Y58.591 E2.36055
G1 X74.924 Y59.709 E2.46019
G1 X74.209 Y59.709 E2.50518
G1 X73.091 Y58.591 E2.60482
G1 X72.377 Y58.591 E2.64982
G1 X73.495 Y59.709 E2.74946
G1 X72.781 Y59.709 E2.79446
G1 X71.662 Y58.591 E2.89410
G1 X70.948 Y58.591 E2.93909
G1 X72.066 Y59.709 E3.03873
G1 X71.352 Y59.709 E3.08373
G1 X70.234 Y58.591 E3.18337
G1 X69.519 Y58.591 E3.22837
G1 X70.638 Y59.709 E3.32801
G1 X69.924 Y59.709 E3.37301
G1 X68.805 Y58.591 E3.47265
G1 X68.091 Y58.591 E3.51764
G1 X69.209 Y59.709 E3.61728
G1 X68.495 Y59.709 E3.66228
G1 X67.377 Y58.591 E3.76192
G1 X66.662 Y58.591 E3.80692
G1 X67.781 Y59.709 E3.90656
G1 X67.066 Y59.709 E3.95155
G1 X65.981 Y58.624 E4.04827
G1 X65.267 Y58.624 E4.09326
G1 X66.231 Y59.588 E4.17915
G1 X65.455 Y59.526 E4.22818
G1 X64.604 Y58.675 E4.30400
G1 X64.014 Y58.800 E4.34193
G1 X64.838 Y59.624 E4.41530
G1 X64.256 Y59.756 E4.45288
G1 X63.498 Y58.998 E4.52046
G1 X63.004 Y59.218 E4.55454
G1 X63.783 Y59.997 E4.62399
G1 X63.310 Y60.239 E4.65745
G1 X62.584 Y59.513 E4.72210
G1 X62.171 Y59.813 E4.75431
G1 X62.928 Y60.571 E4.82184
G1 X62.571 Y60.929 E4.85365
G1 X61.832 Y60.189 E4.91957
G1 X61.495 Y60.567 E4.95144
G1 X62.239 Y61.310 E5.01764
G1 X61.997 Y61.783 E5.05110
G1 X61.234 Y61.020 E5.11911
G1 X60.984 Y61.484 E5.15234
G1 X61.756 Y62.256 E5.22113
G1 X61.624 Y62.838 E5.25871
G1 X60.809 Y62.023 E5.33129
G1 X60.675 Y62.604 E5.36881
G1 X61.526 Y63.455 E5.44462
G1 X61.583 Y64.226 E5.49337
G1 X60.607 Y63.250 E5.58034
G1 X60.670 Y64.027 E5.62944
G1 X61.810 Y65.167 E5.73103
G1 X60.916 Y64.987 E5.78849
G1 X64.023 Y68.094 E6.06529
G1 X63.833 Y67.190 E6.12350
G1 X64.980 Y68.337 E6.22573
G1 X64.774 Y67.417 E6.28518
G1 X65.733 Y68.376 E6.37069
G1 X66.448 Y68.376 E6.41569
G1 X65.544 Y67.473 E6.49618
G1 X66.158 Y67.372 E6.53534
G1 X71.195 Y72.409 E6.98410
G1 X70.481 Y72.409 E7.02910
G1 X66.591 Y68.519 E7.37565
G1 X66.591 Y69.234 E7.42064
G1 X69.766 Y72.409 E7.70355
G1 X69.052 Y72.409 E7.74855
G1 X66.591 Y69.948 E7.96782
G1 X66.591 Y70.662 E8.01282
G1 X68.338 Y72.409 E8.16846
G1 X67.623 Y72.409 E8.21345
G1 X66.591 Y71.377 E8.30546
G1 X66.591 Y72.091 E8.35045
G1 X66.909 Y72.409 E8.37882
G1 F2220.000 E6.77882
G92 E0
G1 X56.675 Y72.750 F15000.000
G1 X56.075 Y72.750 F2220.000 E1.60000
G1 X44.250 Y72.750 F720.000 E2.33744
G1 X44.250 Y68.717 E2.58894
G1 X42.952 Y68.717 E2.66991
G1 X41.879 Y68.489 E2.73830
G1 X40.877 Y68.043 E2.80669
G1 X39.990 Y67.398 E2.87509
G1 X39.256 Y66.583 E2.94348
G1 X38.708 Y65.634 E3.01187
G1 X38.369 Y64.591 E3.08026
G1 X38.254 Y63.500 E3.14865
G1 X38.369 Y62.409 E3.21705
G1 X38.708 Y61.366 E3.28544
G1 X39.256 Y60.417 E3.35383
G1 X39.990 Y59.602 E3.42222
G1 X40.877 Y58.957 E3.49062
G1 X41.879 Y58.511 E3.55901
G1 X42.952 Y58.283 E3.62740
G1 X44.250 Y58.283 E3.70837
G1 X44.250 Y58.250 E3.71042
G1 X56.750 Y58.250 E4.48995
G1 X56.750 Y60.050 E4.60221
G1 X44.690 Y60.050 E5.35429
G1 X44.631 Y60.020 E5.35845
G1 X43.500 Y59.841 E5.42985
G1 X42.369 Y60.020 E5.50124
G1 X41.349 Y60.540 E5.57264
G1 X40.540 Y61.349 E5.64404
G1 X40.020 Y62.369 E5.71544
G1 X39.841 Y63.500 E5.78684
G1 X40.020 Y64.631 E5.85824
G1 X40.540 Y65.651 E5.92964
G1 X41.349 Y66.460 E6.00104
G1 X42.369 Y66.980 E6.07244
G1 X43.500 Y67.159 E6.14383
G1 X44.631 Y66.980 E6.21523
G1 X44.690 Y66.950 E6.21939
G1 X56.750 Y66.950 E6.97147
G1 X56.750 Y72.400 E7.31135
G1 X56.675 Y72.750
G1 X57.175 Y73.250 F15000.000
G1 X43.750 Y73.250 F576.000 E8.14857
G1 X43.750 Y69.217 E8.40007
G1 X42.899 Y69.217 E8.45313
G1 X41.724 Y68.967 E8.52808
G1 X40.626 Y68.478 E8.60303
G1 X39.653 Y67.772 E8.67798
G1 X38.849 Y66.879 E8.75292
G1 X38.248 Y65.838 E8.82787
G1 X37.877 Y64.695 E8.90282
G1 X37.751 Y63.500 E8.97776
G1 X37.877 Y62.305 E9.05271
G1 X38.248 Y61.162 E9.12766
G1 X38.849 Y60.121 E9.20260
G1 X39.653 Y59.228 E9.27755
G1 X40.626 Y58.522 E9.35250
G1 X41.724 Y58.033 E9.42744
G1 X42.899 Y57.783 E9.50239
G1 X43.750 Y57.783 E9.55546
G1 X43.750 Y57.750 E9.55751
G1 X57.250 Y57.750 E10.39940
G1 X57.250 Y60.550 E10.57402
G1 X44.570 Y60.550 E11.36477
G1 X44.474 Y60.501 E11.37147
G1 X43.500 Y60.347 E11.43299
G1 X42.526 Y60.501 E11.49452
G1 X41.647 Y60.949 E11.55604
G1 X40.949 Y61.647 E11.61756
G1 X40.501 Y62.526 E11.67908
G1 X40.347 Y63.500 E11.74060
G1 X40.501 Y64.474 E11.80212
G1 X40.949 Y65.353 E11.86365
G1 X41.647 Y66.051 E11.92517
G1 X42.526 Y66.499 E11.98669
G1 X43.500 Y66.653 E12.04821
G1 X44.474 Y66.499 E12.10973
G1 X44.570 Y66.450 E12.11643
G1 X57.250 Y66.450 E12.90719
G1 X57.250 Y73.175 E13.32658
G1 X57.175 Y73.250 E13.33319
G1 X56.750 Y72.400 F2220.000 E11.73319
G92 E0
G1 X55.505 Y67.291 F15000.000
G1 X55.929 Y67.715 F2220.000 E1.60000
G1 X56.409 Y68.195 F1152.000 E1.64275
G1 X56.409 Y68.909 E1.68775
G1 X54.791 Y67.291 E1.83193
G1 X54.077 Y67.291 E1.87693
G1 X56.409 Y69.623 E2.08475
G1 X56.409 Y70.338 E2.12975
G1 X53.362 Y67.291 E2.40120
G1 X52.648 Y67.291 E2.44620
G1 X56.409 Y71.052 E2.78129
G1 X56.409 Y71.766 E2.82629
G1 X51.934 Y67.291 E3.22502
G1 X51.219 Y67.291 E3.27001
G1 X56.338 Y72.409 E3.72601
G1 X55.623 Y72.409 E3.77101
G1 X50.505 Y67.291 E4.22701
G1 X49.791 Y67.291 E4.27201
G1 X54.909 Y72.409 E4.72801
G1 X54.195 Y72.409 E4.77300
G1 X49.076 Y67.291 E5.22900
G1 X48.362 Y67.291 E5.27400
G1 X53.481 Y72.409 E5.73000
G1 X52.766 Y72.409 E5.77500
G1 X47.648 Y67.291 E6.23100
G1 X46.934 Y67.291 E6.27599
G1 X52.052 Y72.409 E6.73199
G1 X51.338 Y72.409 E6.77699
G1 X46.219 Y67.291 E7.23299
G1 X45.505 Y67.291 E7.27799
G1 X50.623 Y72.409 E7.73398
G1 X49.909 Y72.409 E7.77898
G1 X44.791 Y67.291 E8.23498
G1 F2220.000 E6.63498
G92 E0
G1 X44.909 Y72.409 F15000.000
G1 X44.591 Y72.091 F2220.000 E1.60000
G1 X44.591 Y72.091 F2880.000
G1 X44.591 Y71.377 E1.64500
G1 X45.623 Y72.409 E1.73700
G1 X46.338 Y72.409 E1.78200
G1 X44.591 Y70.662 E1.93763
G1 X44.591 Y69.948 E1.98263
G1 X47.052 Y72.409 E2.20190
G1 X47.766 Y72.409 E2.24690
G1 X44.591 Y69.234 E2.52981
G1 X44.591 Y68.519 E2.57481
G1 X48.481 Y72.409 E2.92135
G1 X49.195 Y72.409 E2.96635
G1 X44.158 Y67.372 E3.41511
G1 X43.544 Y67.473 E3.45427
G1 X44.448 Y68.376 E3.53476
G1 X43.733 Y68.376 E3.57976
G1 X42.774 Y67.417 E3.66527
G1 X42.980 Y68.337 E3.72472
G1 X41.833 Y67.190 E3.82696
G1 X42.023 Y68.094 E3.88517
G1 X38.916 Y64.987 E4.16196
G1 X39.810 Y65.167 E4.21943
G1 X38.670 Y64.027 E4.32101
G1 X38.607 Y63.250 E4.37011
G1 X39.583 Y64.226 E4.45709
G1 X39.526 Y63.455 E4.50584
G1 X38.675 Y62.604 E4.58164
G1 X38.809 Y62.023 E4.61916
G1 X39.624 Y62.838 E4.69174
G1 X39.756 Y62.256 E4.72932
G1 X38.984 Y61.484 E4.79812
G1 X39.234 Y61.020 E4.83134
G1 X39.997 Y61.783 E4.89936
G1 X40.239 Y61.310 E4.93281
G1 X39.495 Y60.567 E4.99901
G1 X39.832 Y60.189 E5.03089
G1 X40.571 Y60.929 E5.09680
G1 X40.928 Y60.571 E5.12862
G1 X40.171 Y59.813 E5.19614
G1 X40.584 Y59.513 E5.22835
G1 X41.310 Y60.239 E5.29301
G1 X41.783 Y59.997 E5.32646
G1 X41.004 Y59.218 E5.39592
G1 X41.498 Y58.998 E5.43000
G1 X42.256 Y59.756 E5.49758
G1 X42.838 Y59.624 E5.53516
G1 X42.014 Y58.800 E5.60852
G1 X42.604 Y58.675 E5.64646
G1 X43.455 Y59.526 E5.72227
G1 X44.231 Y59.588 E5.77131
G1 X43.267 Y58.624 E5.85719
G1 X43.981 Y58.624 E5.90219
G1 X45.066 Y59.709 E5.99890
G1 X45.781 Y59.709 E6.04390
G1 X44.662 Y58.591 E6.14354
G1 X45.377 Y58.591 E6.18853
G1 X46.495 Y59.709 E6.28817
G1 X47.209 Y59.709 E6.33317
G1 X46.091 Y58.591 E6.43281
G1 X46.805 Y58.591 E6.47781
G1 X47.923 Y59.709 E6.57745
G1 X48.638 Y59.709 E6.62244
G1 X47.519 Y58.591 E6.72208
G1 X48.234 Y58.591 E6.76708
G1 X49.352 Y59.709 E6.86672
G1 X50.066 Y59.709 E6.91172
G1 X48.948 Y58.591 E7.01136
G1 X49.662 Y58.591 E7.05636
G1 X50.781 Y59.709 E7.15600
G1 X51.495 Y59.709 E7.20099
G1 X50.377 Y58.591 E7.30063
G1 X51.091 Y58.591 E7.34563
G1 X52.209 Y59.709 E7.44527
G1 X52.924 Y59.709 E7.49027
G1 X51.805 Y58.591 E7.58991
G1 X52.519 Y58.591 E7.63491
G1 X53.638 Y59.709 E7.73455
G1 X54.352 Y59.709 E7.77954
G1 X53.234 Y58.591 E7.87918
G1 X53.948 Y58.591 E7.92418
G1 X55.066 Y59.709 E8.02382
G1 X55.781 Y59.709 E8.06882
G1 X54.662 Y58.591 E8.16846
G1 X55.377 Y58.591 E8.21345
G1 X56.409 Y59.623 E8.30546
G1 X56.409 Y58.909 E8.35045
G1 X56.091 Y58.591 E8.37882
G1 F2220.000 E6.77882
G92 E0
G1 X66.325 Y77.250 F15000.000
G1 X66.925 Y77.250 F2220.000 E1.60000
G1 X78.750 Y77.250 F720.000 E2.33744
G1 X78.750 Y77.283 E2.33949
G1 X80.048 Y77.283 E2.42046
G1 X81.121 Y77.511 E2.48885
G1 X82.123 Y77.957 E2.55724
G1 X83.010 Y78.602 E2.62563
G1 X83.744 Y79.417 E2.69403
G1 X84.292 Y80.366 E2.76242
G1 X84.631 Y81.409 E2.83081
G1 X84.746 Y82.500 E2.89920
G1 X84.631 Y83.591 E2.96760
G1 X84.292 Y84.634 E3.03599
G1 X83.744 Y85.583 E3.10438
G1 X83.010 Y86.398 E3.17277
G1 X82.123 Y87.043 E3.24117
G1 X81.121 Y87.489 E3.30956
G1 X80.048 Y87.717 E3.37795
G1 X78.750 Y87.717 E3.45892
G1 X78.750 Y91.750 E3.71042
G1 X66.250 Y91.750 E4.48995
G1 X66.250 Y85.950 E4.85166
G1 X78.310 Y85.950 E5.60374
G1 X78.369 Y85.980 E5.60790
G1 X79.500 Y86.159 E5.67930
G1 X80.631 Y85.980 E5.75069
G1 X81.651 Y85.460 E5.82209
G1 X82.460 Y84.651 E5.89349
G1 X82.980 Y83.631 E5.96489
G1 X83.159 Y82.500 E6.03629
