; generated by Slic3r 0.9.9-dev on 2013-03-04 at 11:27:57

; layer_height = 0.3
; perimeters = 2
; top_solid_layers = 3
; bottom_solid_layers = 2
; fill_density = 0.2
; perimeter_speed = 30
; infill_speed = 48
; travel_speed = 250
; scale = 1
; nozzle_diameter = 0.5
; filament_diameter = 1.75
; extrusion_multiplier = 1.0
; perimeters extrusion width = 0.50mm
; infill extrusion width = 0.50mm
; first layer extrusion width = 0.50mm

M107
M190 S57 ; wait for bed temperature to be reached
M104 S200 ; set temperature
G28 X0 Y0
G1 X75 Y75 F12000
G28 Z0
G1 Z0.3 F200
G1 X15 Y20 F12000
M109 S200 ; wait for temperature to be reached
G90 ; use absolute coordinates
G21 ; set units to millimeters
G92 E0
M82 ; use absolute distances for extrusion
G1 F2220.000 E-1.60000
G92 E0
G1 Z0.300 F15000.000
G1 X55.190 Y57.960
G1 X55.642 Y57.566 F2220.000 E1.60000
G1 X55.810 Y57.420 F720.000 E1.61386
G1 X56.490 Y56.970 E1.66471
G1 X61.440 Y54.110 E2.02122
G1 X61.940 Y53.850 E2.05637
G1 X62.730 Y53.540 E2.10929
G1 X63.280 Y53.390 E2.14485
G1 X63.560 Y53.340 E2.16258
G1 X64.120 Y53.260 E2.19786
G1 X64.690 Y53.240 E2.23343
G1 X68.300 Y53.240 E2.45856
G1 X68.870 Y53.260 E2.49413
G1 X69.710 Y53.390 E2.54714
G1 X70.250 Y53.540 E2.58209
G1 X70.790 Y53.730 E2.61779
G1 X71.300 Y53.970 E2.65294
G1 X71.550 Y54.110 E2.67081
G1 X93.500 Y66.780 E4.25134
G1 X93.960 Y67.070 E4.28526
G1 X94.600 Y67.580 E4.33629
G1 X94.990 Y67.960 E4.37025
G1 X95.340 Y68.370 E4.40387
G1 X95.660 Y68.810 E4.43780
G1 X95.950 Y69.280 E4.47224
G1 X96.190 Y69.770 E4.50626
G1 X96.390 Y70.270 E4.53985
G1 X96.550 Y70.790 E4.57378
G1 X96.700 Y71.600 E4.62515
G1 X96.730 Y71.870 E4.64209
G1 X96.750 Y72.410 E4.67579
G1 X96.750 Y81.710 E5.25576
G1 X96.730 Y82.260 E5.29008
G1 X96.540 Y84.450 E5.42717
G1 X96.430 Y85.040 E5.46460
G1 X96.360 Y85.330 E5.48320
G1 X95.600 Y87.680 E5.63723
G1 X95.370 Y88.220 E5.67383
G1 X95.090 Y88.740 E5.71066
G1 X94.120 Y90.360 E5.82842
G1 X93.790 Y90.860 E5.86578
G1 X93.410 Y91.330 E5.90347
G1 X91.890 Y92.900 E6.03975
G1 X91.240 Y93.490 E6.09449
G1 X90.760 Y93.830 E6.13118
G1 X88.920 Y95.010 E6.26749
G1 X88.130 Y95.400 E6.32244
G1 X86.070 Y96.150 E6.45915
G1 X85.490 Y96.330 E6.49702
G1 X84.890 Y96.450 E6.53518
G1 X82.710 Y96.700 E6.67202
G1 X81.990 Y96.740 E6.71700
G1 X73.740 Y96.740 E7.23149
G1 X73.200 Y96.720 E7.26519
G1 X72.660 Y96.650 E7.29914
G1 X72.130 Y96.540 E7.33290
G1 X71.870 Y96.470 E7.34969
G1 X71.110 Y96.190 E7.40020
G1 X70.390 Y95.810 E7.45097
G1 X69.940 Y95.520 E7.48436
G1 X69.520 Y95.180 E7.51806
G1 X68.940 Y94.620 E7.56834
G1 X68.430 Y93.990 E7.61889
G1 X54.430 Y74.140 E9.13370
G1 X53.980 Y73.410 E9.18718
G1 X53.740 Y72.890 E9.22290
G1 X53.540 Y72.360 E9.25822
G1 X53.460 Y72.080 E9.27638
G1 X53.340 Y71.520 E9.31210
G1 X53.250 Y70.680 E9.36478
G1 X53.240 Y62.600 E9.86868
G1 X53.260 Y62.060 E9.90237
G1 X53.330 Y61.520 E9.93633
G1 X53.440 Y60.980 E9.97070
G1 X53.600 Y60.460 E10.00463
G1 X53.800 Y59.960 E10.03821
G1 X54.040 Y59.470 E10.07224
G1 X54.480 Y58.780 E10.12327
G1 X54.820 Y58.350 E10.15746
G1 X55.137 Y58.013 E10.18631
G1 X55.190 Y57.960 E10.19099
G1 F2220.000 E8.59099
G92 E0
G1 X70.537 Y67.372 F15000.000
G1 X70.320 Y67.931 F2220.000 E1.60000
G1 X70.028 Y68.685 F624.000 E1.65040
G1 X69.001 Y69.812 E1.74551
G1 X67.636 Y70.492 E1.84062
G1 X66.117 Y70.632 E1.93573
G1 X64.650 Y70.215 E2.03084
G1 X63.433 Y69.296 E2.12595
G1 X62.630 Y67.999 E2.22106
G1 X62.350 Y66.500 E2.31617
G1 X62.630 Y65.001 E2.41128
G1 X63.262 Y63.981 E2.48611
G1 X63.178 Y63.897 E2.49350
G1 X64.650 Y62.785 E2.60855
G1 X66.117 Y62.368 E2.70366
G1 X67.636 Y62.508 E2.79877
G1 X69.001 Y63.188 E2.89388
G1 X70.028 Y64.315 E2.98899
G1 X70.564 Y65.698 E3.08148
G1 X70.638 Y66.500 E3.13169
G1 X70.596 Y66.953 E3.16007
G1 X70.537 Y67.372
G1 X70.046 Y67.256 F15000.000
G1 X69.596 Y68.417 F576.000 E3.23771
G1 X68.694 Y69.406 E3.32116
G1 X67.496 Y70.002 E3.40462
G1 X66.164 Y70.126 E3.48807
G1 X64.877 Y69.760 E3.57152
G1 X63.809 Y68.953 E3.65497
G1 X63.105 Y67.815 E3.73843
G1 X62.859 Y66.500 E3.82188
G1 X63.105 Y65.185 E3.90533
G1 X63.809 Y64.047 E3.98878
G1 X64.877 Y63.240 E4.07223
G1 X66.164 Y62.874 E4.15569
G1 X67.496 Y62.998 E4.23914
G1 X68.694 Y63.594 E4.32259
G1 X69.596 Y64.583 E4.40604
G1 X70.073 Y65.814 E4.48836
G1 X70.136 Y66.500 E4.53133
G1 X70.080 Y67.111 E4.56962
G1 X70.046 Y67.256 E4.57889
G1 X70.596 Y66.953 F2220.000 E2.97889
G92 E0
G1 X84.961 Y86.195 F15000.000
G1 X84.426 Y86.468 F2220.000 E1.60000
G1 X83.594 Y86.892 F624.000 E1.65826
G1 X82.004 Y87.143 E1.75861
G1 X80.415 Y86.892 E1.85897
G1 X78.981 Y86.161 E1.95932
G1 X77.843 Y85.023 E2.05968
G1 X77.113 Y83.589 E2.16003
G1 X76.861 Y82.000 E2.26038
G1 X76.898 Y81.763 E2.27532
G1 X77.113 Y80.411 E2.36074
G1 X77.843 Y78.977 E2.46109
G1 X78.981 Y77.839 E2.56145
G1 X80.415 Y77.108 E2.66180
G1 X82.004 Y76.857 E2.76216
G1 X83.594 Y77.108 E2.86251
G1 X85.028 Y77.839 E2.96286
G1 X86.165 Y78.977 E3.06322
G1 X86.802 Y80.225 E3.15061
G1 X86.867 Y80.225 E3.15466
G1 X87.148 Y82.000 E3.26671
G1 X86.896 Y83.589 E3.36707
G1 X86.165 Y85.023 E3.46742
G1 X85.275 Y85.914 E3.54595
G1 X84.961 Y86.195
G1 X84.663 Y85.786 F15000.000
G1 X83.437 Y86.410 F576.000 E3.63175
G1 X82.004 Y86.637 E3.72223
G1 X80.571 Y86.410 E3.81270
G1 X79.279 Y85.752 E3.90318
G1 X78.253 Y84.726 E3.99366
G1 X77.594 Y83.433 E4.08413
G1 X77.367 Y82.000 E4.17461
G1 X77.392 Y81.842 E4.18461
G1 X77.594 Y80.567 E4.26509
G1 X78.253 Y79.274 E4.35557
G1 X79.279 Y78.248 E4.44604
G1 X80.571 Y77.590 E4.53652
G1 X82.004 Y77.363 E4.62700
G1 X83.437 Y77.590 E4.71747
G1 X84.730 Y78.248 E4.80795
G1 X85.756 Y79.274 E4.89843
G1 X86.415 Y80.567 E4.98890
G1 X86.641 Y82.000 E5.07938
G1 X86.415 Y83.433 E5.16986
G1 X85.756 Y84.726 E5.26033
G1 X84.783 Y85.698 E5.34613
G1 X84.663 Y85.786 E5.35537
G1 X85.275 Y85.914 F2220.000 E3.75537
G92 E0
G1 X86.853 Y88.029 F15000.000
G1 X86.348 Y88.354 F2220.000 E1.60000
G1 X85.428 Y88.947 F720.000 E1.66826
G1 X83.761 Y89.543 E1.77871
G1 X81.965 Y89.750 E1.89145
G1 X74.250 Y89.750 E2.37256
G1 X74.250 Y72.750 E3.43273
G1 X64.825 Y72.750 E4.02048
G1 X60.250 Y70.108 E4.34995
G1 X60.250 Y62.892 E4.80001
G1 X64.825 Y60.250 E5.12948
G1 X68.175 Y60.250 E5.33836
G1 X89.750 Y72.707 E6.89201
G1 X89.750 Y81.697 E7.45269
G1 X89.600 Y83.516 E7.56649
G1 X89.057 Y85.200 E7.67684
G1 X88.147 Y86.717 E7.78719
G1 X87.159 Y87.737 E7.87572
G1 X86.853 Y88.029
G1 X87.172 Y88.418 F15000.000
G1 X85.651 Y89.398 F576.000 E7.98856
G1 X83.875 Y90.034 E8.10619
G1 X81.993 Y90.250 E8.22430
G1 X73.750 Y90.250 E8.73838
G1 X73.750 Y73.250 E9.79855
G1 X64.691 Y73.250 E10.36347
G1 X59.750 Y70.397 E10.71930
G1 X59.750 Y62.603 E11.20537
G1 X64.691 Y59.750 E11.56119
G1 X68.309 Y59.750 E11.78678
G1 X90.250 Y72.418 E13.36678
G1 X90.250 Y81.718 E13.94675
G1 X90.093 Y83.614 E14.06542
G1 X89.516 Y85.408 E14.18295
G1 X88.546 Y87.024 E14.30047
G1 X87.287 Y88.324 E14.41332
G1 X87.172 Y88.418 E14.42261
G1 X87.159 Y87.737 F2220.000 E12.82261
G92 E0
G1 X85.333 Y86.244 F15000.000
G1 X85.758 Y86.668 F2220.000 E1.60000
G1 X86.801 Y87.712 F1152.000 E1.69309
G1 X87.153 Y87.348 E1.72500
G1 X85.691 Y85.886 E1.85543
G1 X86.049 Y85.529 E1.88733
G1 X87.505 Y86.985 E2.01725
G1 X87.857 Y86.622 E2.04915
G1 X86.406 Y85.171 E2.17856
G1 X86.651 Y84.700 E2.21202
G1 X88.137 Y86.187 E2.34461
G1 X88.405 Y85.740 E2.37749
G1 X86.892 Y84.227 E2.51246
G1 X87.134 Y83.753 E2.54601
G1 X88.673 Y85.293 E2.68337
G1 X88.877 Y84.781 E2.71810
G1 X87.282 Y83.186 E2.86044
G1 X87.380 Y82.568 E2.89987
G1 X89.052 Y84.240 E3.04902
G1 X89.226 Y83.699 E3.08488
G1 X87.477 Y81.951 E3.24084
G1 X87.384 Y81.143 E3.29218
G1 X89.307 Y83.066 E3.46375
G1 X89.362 Y82.405 E3.50557
G1 X87.250 Y80.293 E3.69402
G1 X86.648 Y78.976 E3.78534
G1 X89.409 Y81.737 E4.03167
G1 X89.409 Y81.022 E4.07679
G1 X70.476 Y62.089 E5.76578
G1 X68.902 Y62.661 F15000.000
G1 X66.832 Y60.591 F1152.000 E5.95041
G1 X66.117 Y60.591 E5.99553
G1 X67.681 Y62.155 E6.13507
G1 X66.893 Y62.082 E6.18500
G1 X65.402 Y60.591 E6.31803
G1 X64.728 Y60.632 E6.36060
G1 X66.141 Y62.045 E6.48667
G1 X65.585 Y62.204 E6.52318
G1 X64.275 Y60.894 E6.64002
G1 X63.821 Y61.156 E6.67305
G1 X65.028 Y62.362 E6.78067
G1 X64.501 Y62.551 E6.81597
G1 X63.368 Y61.418 E6.91704
G1 X62.914 Y61.679 E6.95006
G1 X64.093 Y62.858 E7.05523
G1 X63.686 Y63.166 E7.08744
G1 X62.461 Y61.941 E7.19671
G1 X62.008 Y62.203 E7.22974
G1 X63.278 Y63.474 E7.34310
G1 X62.871 Y63.782 E7.37531
G1 X61.554 Y62.465 E7.49277
G1 X61.101 Y62.727 E7.52580
G1 X62.711 Y64.337 E7.66945
G1 X62.438 Y64.779 E7.70222
G1 X60.647 Y62.988 E7.86192
G1 X60.591 Y63.647 E7.90362
G1 X62.253 Y65.309 E8.05189
G1 X62.140 Y65.912 E8.09056
G1 X60.591 Y64.362 E8.22879
G1 X60.591 Y65.078 E8.27390
G1 X62.028 Y66.514 E8.40208
G1 X62.126 Y67.328 E8.45374
G1 X60.591 Y65.793 E8.59065
G1 X60.591 Y66.508 E8.63577
G1 X62.290 Y68.207 E8.78735
G1 X60.591 Y67.939 F15000.000
G1 X64.984 Y72.331 F1152.000 E9.17923
G1 X65.777 Y72.409 E9.22949
G1 X60.591 Y67.223 E9.69211
G1 X60.591 Y68.654 F15000.000
G1 X63.292 Y71.354 F1152.000 E9.93304
G1 X64.725 Y70.642 F15000.000
G1 X66.492 Y72.409 F1152.000 E10.09069
G1 X67.207 Y72.409 E10.13580
G1 X65.724 Y70.926 E10.26808
G1 X66.443 Y70.930 E10.31343
G1 X67.922 Y72.409 E10.44537
G1 X68.638 Y72.409 E10.49048
G1 X67.098 Y70.870 E10.62783
G1 X67.716 Y70.772 E10.66727
G1 X69.353 Y72.409 E10.81333
G1 X70.068 Y72.409 E10.85845
G1 X68.193 Y70.534 E11.02572
G1 X68.670 Y70.296 E11.05936
G1 X70.783 Y72.409 E11.24784
G1 X71.499 Y72.409 E11.29296
G1 X69.148 Y70.059 E11.50264
G1 X69.489 Y69.685 E11.53458
G1 X72.214 Y72.409 E11.77764
G1 X72.929 Y72.409 E11.82275
G1 X69.830 Y69.310 E12.09919
G1 X70.171 Y68.936 E12.13112
G1 X73.644 Y72.409 E12.44093
G1 X74.359 Y72.409 E12.48605
G1 X70.425 Y68.475 E12.83703
G1 X70.625 Y67.959 E12.87190
G1 X79.778 Y77.112 E13.68841
G1 X79.304 Y77.354 E13.72195
G1 X74.591 Y72.641 E14.14239
G1 X74.591 Y73.356 E14.18751
G1 X78.833 Y77.598 E14.56596
G1 X78.476 Y77.956 E14.59786
G1 X74.591 Y74.071 E14.94441
G1 X74.591 Y74.786 E14.98952
G1 X78.118 Y78.313 E15.30417
G1 X77.760 Y78.671 E15.33607
G1 X74.591 Y75.501 E15.61882
G1 X74.591 Y76.217 E15.66394
G1 X77.465 Y79.090 E15.92029
G1 X77.223 Y79.564 E15.95384
G1 X74.591 Y76.932 E16.18866
G1 X74.591 Y77.647 E16.23377
G1 X76.982 Y80.038 E16.44706
G1 X76.770 Y80.542 E16.48152
G1 X74.591 Y78.362 E16.67593
G1 X74.591 Y79.078 E16.72105
G1 X76.672 Y81.159 E16.90673
G1 X76.575 Y81.777 E16.94617
G1 X74.591 Y79.793 E17.12313
G1 X74.591 Y80.508 E17.16825
G1 X76.565 Y82.482 E17.34438
G1 X76.700 Y83.332 E17.39865
G1 X74.591 Y81.223 E17.58679
G1 X74.591 Y81.939 E17.63190
G1 X77.033 Y84.381 E17.84975
G1 F2220.000 E16.24975
G92 E0
G1 X74.909 Y89.409 F15000.000
G1 X74.591 Y89.091 F2220.000 E1.60000
G1 X74.591 Y89.091 F2880.000
G1 X74.591 Y88.376 E1.64512
G1 X75.624 Y89.409 E1.73732
G1 X76.340 Y89.409 E1.78244
G1 X74.591 Y87.660 E1.93845
G1 X74.591 Y86.945 E1.98357
G1 X77.055 Y89.409 E2.20338
G1 X77.770 Y89.409 E2.24850
G1 X74.591 Y86.230 E2.53211
G1 X74.591 Y85.515 E2.57723
G1 X78.485 Y89.409 E2.92465
G1 X79.201 Y89.409 E2.96977
G1 X74.591 Y84.799 E3.38099
G1 X74.591 Y84.084 E3.42611
G1 X79.916 Y89.409 E3.90114
G1 X80.631 Y89.409 E3.94625
G1 X74.591 Y83.369 E4.48509
G1 X74.591 Y82.654 E4.53020
G1 X81.346 Y89.409 E5.13284
G1 X82.061 Y89.409 E5.17795
G1 X79.624 Y86.972 E5.39541
G1 X80.672 Y87.305 E5.46479
G1 X82.706 Y89.339 E5.64627
G1 X83.348 Y89.265 E5.68700
G1 X81.522 Y87.439 E5.84989
G1 X82.228 Y87.430 E5.89442
G1 X83.957 Y89.159 E6.04864
G1 X84.483 Y88.970 E6.08393
G1 X82.845 Y87.332 E6.23006
G1 X83.463 Y87.234 E6.26949
G1 X85.010 Y88.782 E6.40754
G1 X85.507 Y88.563 E6.44178
G1 X83.966 Y87.023 E6.57922
G1 X84.440 Y86.781 E6.61276
G1 X85.942 Y88.283 E6.74674
G1 X86.377 Y88.003 E6.77938
G1 X84.914 Y86.540 E6.90988
G1 F2220.000 E5.30988
G92 E0
G1 X85.028 Y77.356 F15000.000
G1 X84.604 Y76.932 F2220.000 E1.60000
G1 X68.784 Y61.112 F1152.000 E3.01131
G1 X67.548 Y60.591 E3.09591
G1 X83.712 Y76.755 E4.53786
G1 F2220.000 E2.93786
G92 E0
G1 X80.251 Y76.871 F15000.000
G1 X79.827 Y76.447 F2220.000 E1.60000
G1 X70.824 Y67.444 F1152.000 E2.40311
G1 X70.935 Y66.839 E2.44188
G1 X80.819 Y76.723 E3.32354
G1 X81.436 Y76.625 E3.36298
G1 X70.964 Y66.153 E4.29716
G1 X70.862 Y65.336 E4.34908
G1 X82.053 Y76.527 E5.34740
G1 X82.862 Y76.620 E5.39873
G1 X70.410 Y64.169 E6.50951
G1 F2220.000 E4.90951
G92 E0
G1 X72.168 Y63.066 F15000.000
G1 X72.592 Y63.490 F2220.000 E1.60000
G1 X89.409 Y80.307 F1152.000 E3.10018
G1 X89.409 Y79.591 E3.14530
G1 X73.860 Y64.043 E4.53237
G1 X75.553 Y65.020 E4.65563
G1 X89.409 Y78.876 E5.89173
G1 X89.409 Y78.161 E5.93685
G1 X77.245 Y65.997 E7.02200
G1 X78.937 Y66.974 E7.14525
G1 X89.409 Y77.446 E8.07944
G1 X89.409 Y76.731 E8.12456
G1 X80.629 Y67.951 E8.90778
G1 X82.322 Y68.928 E9.03104
G1 X89.409 Y76.015 E9.66330
G1 X89.409 Y75.300 E9.70842
G1 X84.014 Y69.905 E10.18972
G1 X85.706 Y70.882 E10.31298
G1 X89.409 Y74.585 E10.64332
G1 X89.409 Y73.870 E10.68844
G1 X87.398 Y71.859 E10.86782
G1 X89.091 Y72.836 E10.99108
G1 X89.409 Y73.154 E11.01950
G1 F2220.000 E9.41950
G92 E0
G1 X61.599 Y70.377 F15000.000
G1 X61.175 Y69.953 F2220.000 E1.60000
G1 X60.591 Y69.369 F1152.000 E1.65212
M106 S255
M104 S185 ; set temperature
G1 F2220.000 E0.05212
G92 E0
G1 Z0.600 F15000.000
G1 X70.571 Y65.773
G1 X70.626 Y66.370 F2220.000 E1.60000
G1 X70.638 Y66.500 F1560.000 E1.60811
G1 X70.564 Y67.302 E1.65832
G1 X70.028 Y68.685 E1.75082
G1 X69.001 Y69.812 E1.84593
G1 X67.636 Y70.492 E1.94104
G1 X66.117 Y70.632 E2.03615
G1 X64.650 Y70.215 E2.13126
G1 X63.433 Y69.296 E2.22637
G1 X62.630 Y67.999 E2.32148
G1 X62.350 Y66.500 E2.41659
G1 X62.630 Y65.001 E2.51170
G1 X63.433 Y63.704 E2.60681
G1 X64.650 Y62.785 E2.70192
G1 X66.117 Y62.368 E2.79703
G1 X67.636 Y62.508 E2.89214
G1 X69.001 Y63.188 E2.98725
G1 X70.028 Y64.315 E3.08236
G1 X70.438 Y65.372 E3.15302
G1 X70.571 Y65.773
G1 X70.080 Y65.889 F15000.000
G1 X70.136 Y66.500 F1440.000 E3.19132
G1 X70.073 Y67.186 E3.23429
G1 X69.596 Y68.417 E3.31660
G1 X68.694 Y69.406 E3.40005
G1 X67.496 Y70.002 E3.48351
G1 X66.164 Y70.126 E3.56696
G1 X64.877 Y69.760 E3.65041
G1 X63.809 Y68.953 E3.73386
G1 X63.105 Y67.815 E3.81732
G1 X62.859 Y66.500 E3.90077
G1 X63.105 Y65.185 E3.98422
G1 X63.809 Y64.047 E4.06767
G1 X64.877 Y63.240 E4.15113
G1 X66.164 Y62.874 E4.23458
G1 X67.496 Y62.998 E4.31803
G1 X68.694 Y63.594 E4.40148
G1 X69.596 Y64.583 E4.48494
G1 X70.046 Y65.744 E4.56257
G1 X70.080 Y65.889 E4.57184
G1 X70.438 Y65.372 F2220.000 E2.97184
G92 E0
G1 X77.809 Y84.956 F15000.000
G1 X77.537 Y84.422 F2220.000 E1.60000
G1 X77.113 Y83.589 F1560.000 E1.65826
G1 X76.861 Y82.000 E1.75861
G1 X76.930 Y81.566 E1.78599
G1 X77.113 Y80.411 E1.85897
G1 X77.843 Y78.977 E1.95932
G1 X78.981 Y77.839 E2.05968
G1 X80.415 Y77.108 E2.16003
G1 X82.004 Y76.857 E2.26038
G1 X83.594 Y77.108 E2.36074
G1 X85.028 Y77.839 E2.46109
G1 X86.165 Y78.977 E2.56145
G1 X86.896 Y80.411 E2.66180
G1 X87.148 Y82.000 E2.76216
G1 X87.079 Y82.434 E2.78953
G1 X86.896 Y83.589 E2.86251
G1 X86.165 Y85.023 E2.96286
G1 X85.028 Y86.161 E3.06322
G1 X83.594 Y86.892 E3.16357
G1 X82.004 Y87.143 E3.26393
G1 X80.415 Y86.892 E3.36428
G1 X78.981 Y86.161 E3.46464
G1 X78.091 Y85.271 E3.54316
G1 X77.809 Y84.956
G1 X78.219 Y84.659 F15000.000
G1 X77.594 Y83.433 F1440.000 E3.62896
G1 X77.367 Y82.000 E3.71944
G1 X77.423 Y81.645 E3.74187
G1 X77.594 Y80.567 E3.80992
G1 X78.253 Y79.274 E3.90039
G1 X79.279 Y78.248 E3.99087
G1 X80.571 Y77.590 E4.08135
G1 X82.004 Y77.363 E4.17182
G1 X83.437 Y77.590 E4.26230
G1 X84.730 Y78.248 E4.35278
G1 X85.756 Y79.274 E4.44326
G1 X86.415 Y80.567 E4.53373
G1 X86.641 Y82.000 E4.62421
G1 X86.585 Y82.355 E4.64664
G1 X86.415 Y83.433 E4.71469
G1 X85.756 Y84.726 E4.80516
G1 X84.730 Y85.752 E4.89564
G1 X83.437 Y86.410 E4.98612
G1 X82.004 Y86.637 E5.07659
G1 X80.571 Y86.410 E5.16707
G1 X79.279 Y85.752 E5.25755
G1 X78.306 Y84.779 E5.34335
G1 X78.219 Y84.659 E5.35259
G1 X78.091 Y85.271 F2220.000 E3.75259
G92 E0
G1 X81.896 Y89.750 F15000.000
G1 X81.296 Y89.750 F2220.000 E1.60000
G1 X74.250 Y89.750 F1800.000 E2.03943
G1 X74.250 Y72.750 E3.09960
G1 X64.825 Y72.750 E3.68735
G1 X60.250 Y70.108 E4.01682
G1 X60.250 Y62.892 E4.46688
