; generated by Slic3r 0.9.9-dev on 2013-04-09 at 12:54:54

; layer_height = 0.25
; perimeters = 2
; top_solid_layers = 4
; bottom_solid_layers = 3
; fill_density = 0.4
; perimeter_speed = 20
; infill_speed = 32
; travel_speed = 250
; scale = 1
; nozzle_diameter = 0.3
; filament_diameter = 1.75
; extrusion_multiplier = 1.0
; perimeters extrusion width = 0.30mm
; infill extrusion width = 0.30mm
; first layer extrusion width = 0.50mm

M107
M190 S57 ; wait for bed temperature to be reached
M104 S200 ; set temperature
G28 X0 Y0
G1 X80 Y80 F12000
G28 Z0
G1 Z0.25 F200
G1 X15 Y20 F12000
M109 S200 ; wait for temperature to be reached
G90 ; use absolute coordinates
G21 ; set units to millimeters
G92 E0
M82 ; use absolute distances for extrusion
G1 F2220.000 E-1.75000
G92 E0
G1 Z0.300 F15000.000
G1 X65.050 Y71.300
G1 X65.165 Y71.204 F2220.000 E1.75000
G1 X66.260 Y70.290 F600.000 E1.83130
G1 X66.690 Y69.990 E1.86119
G1 X67.140 Y69.730 E1.89082
G1 X68.550 Y68.990 E1.98160
G1 X69.280 Y68.730 E2.02578
G1 X70.310 Y68.420 E2.08710
G1 X70.810 Y68.290 E2.11656
G1 X71.310 Y68.200 E2.14552
G1 X72.640 Y68.070 E2.22170
G1 X73.240 Y68.040 E2.25595
G1 X86.740 Y68.040 E3.02558
G1 X87.340 Y68.070 E3.05983
G1 X88.420 Y68.170 E3.12166
G1 X89.180 Y68.290 E3.16552
G1 X89.680 Y68.420 E3.19498
G1 X90.710 Y68.730 E3.25630
G1 X91.440 Y68.990 E3.30048
G1 X92.850 Y69.730 E3.39126
G1 X93.300 Y69.990 E3.42089
G1 X93.930 Y70.450 E3.46536
G1 X94.760 Y71.140 E3.52689
G1 X95.110 Y71.460 E3.55393
G1 X95.600 Y71.980 E3.59466
G1 X96.290 Y72.810 E3.65619
G1 X96.600 Y73.220 E3.68550
G1 X96.750 Y73.440 E3.70068
G1 X97.010 Y73.890 E3.73030
G1 X97.750 Y75.300 E3.82109
G1 X98.010 Y76.030 E3.86526
G1 X98.320 Y77.060 E3.92658
G1 X98.450 Y77.560 E3.95604
G1 X98.570 Y78.320 E3.99990
G1 X98.700 Y79.870 E4.08858
G1 X98.670 Y80.590 E4.12966
G1 X98.570 Y81.670 E4.19149
G1 X98.500 Y82.180 E4.22084
G1 X98.320 Y82.930 E4.26481
G1 X97.930 Y84.210 E4.34110
G1 X97.750 Y84.690 E4.37032
G1 X96.880 Y86.330 E4.47616
G1 X96.750 Y86.550 E4.49073
G1 X96.450 Y86.980 E4.52062
G1 X95.600 Y88.010 E4.59675
G1 X95.280 Y88.360 E4.62378
G1 X94.760 Y88.850 E4.66452
G1 X93.930 Y89.540 E4.72605
G1 X93.520 Y89.850 E4.75535
G1 X93.080 Y90.130 E4.78509
G1 X91.440 Y91.000 E4.89092
G1 X90.710 Y91.260 E4.93510
G1 X89.680 Y91.570 E4.99642
G1 X89.180 Y91.700 E5.02587
G1 X88.420 Y91.820 E5.06974
G1 X87.340 Y91.920 E5.13157
G1 X86.740 Y91.950 E5.16582
G1 X73.240 Y91.950 E5.93545
G1 X72.640 Y91.920 E5.96970
G1 X71.570 Y91.820 E6.03096
G1 X70.810 Y91.700 E6.07483
G1 X70.310 Y91.570 E6.10428
G1 X69.280 Y91.260 E6.16560
G1 X68.550 Y91.000 E6.20978
G1 X66.910 Y90.130 E6.31562
G1 X66.690 Y90.000 E6.33018
G1 X66.260 Y89.700 E6.36007
G1 X65.230 Y88.850 E6.43621
G1 X64.880 Y88.530 E6.46324
G1 X64.390 Y88.010 E6.50398
G1 X63.700 Y87.180 E6.56551
G1 X63.390 Y86.770 E6.59481
G1 X63.110 Y86.330 E6.62455
G1 X62.240 Y84.690 E6.73038
G1 X62.060 Y84.210 E6.75961
G1 X61.670 Y82.930 E6.83589
G1 X61.490 Y82.180 E6.87986
G1 X61.420 Y81.670 E6.90921
G1 X61.300 Y80.350 E6.98477
G1 X61.290 Y79.870 E7.01214
G1 X61.320 Y79.390 E7.03956
G1 X61.450 Y78.060 E7.11575
G1 X61.540 Y77.560 E7.14471
G1 X61.670 Y77.060 E7.17416
G1 X62.060 Y75.780 E7.25044
G1 X62.240 Y75.300 E7.27967
G1 X62.350 Y75.070 E7.29420
G1 X62.980 Y73.890 E7.37046
G1 X63.240 Y73.440 E7.40009
G1 X63.540 Y73.010 E7.42998
G1 X64.390 Y71.980 E7.50612
G1 X65.000 Y71.347 E7.55623
G1 X65.050 Y71.300 E7.56014
G1 F2220.000 E5.81014
G92 E0
G1 X70.935 Y77.589 F15000.000
G1 X71.049 Y77.491 F2220.000 E1.75000
G1 X71.283 Y77.292 F600.000 E1.76748
G1 X71.730 Y77.018 E1.79743
G1 X72.216 Y76.817 E1.82737
G1 X72.726 Y76.694 E1.85731
G1 X73.250 Y76.653 E1.88726
G1 X73.774 Y76.694 E1.91720
G1 X74.284 Y76.817 E1.94714
G1 X74.770 Y77.018 E1.97709
G1 X75.217 Y77.292 E2.00703
G1 X75.617 Y77.633 E2.03697
G1 X75.958 Y78.033 E2.06692
G1 X76.195 Y78.419 E2.09274
G1 X76.195 Y81.581 E2.27303
G1 X75.958 Y81.967 E2.29885
G1 X75.617 Y82.367 E2.32879
G1 X75.217 Y82.708 E2.35874
G1 X74.770 Y82.982 E2.38868
G1 X74.284 Y83.183 E2.41862
G1 X73.774 Y83.306 E2.44857
G1 X73.250 Y83.347 E2.47851
G1 X72.726 Y83.306 E2.50845
G1 X72.216 Y83.183 E2.53840
G1 X71.730 Y82.982 E2.56834
G1 X71.283 Y82.708 E2.59828
G1 X70.883 Y82.367 E2.62823
G1 X70.542 Y81.967 E2.65817
G1 X70.268 Y81.520 E2.68811
G1 X70.067 Y81.034 E2.71806
G1 X69.944 Y80.524 E2.74800
G1 X69.903 Y80.000 E2.77794
G1 X69.944 Y79.476 E2.80789
G1 X70.067 Y78.966 E2.83783
G1 X70.268 Y78.480 E2.86777
G1 X70.542 Y78.033 E2.89772
G1 X70.646 Y77.911 E2.90681
G1 X70.935 Y77.589
G1 X71.260 Y77.913 F15000.000
G1 X71.552 Y77.663 F600.000 E2.92875
G1 X71.939 Y77.426 E2.95459
G1 X72.357 Y77.253 E2.98043
G1 X72.798 Y77.147 E3.00627
G1 X73.250 Y77.111 E3.03211
G1 X73.702 Y77.147 E3.05795
G1 X74.143 Y77.253 E3.08380
G1 X74.561 Y77.426 E3.10964
G1 X74.948 Y77.663 E3.13548
G1 X75.293 Y77.957 E3.16132
G1 X75.587 Y78.302 E3.18716
G1 X75.737 Y78.548 E3.20358
G1 X75.737 Y81.452 E3.36918
G1 X75.587 Y81.698 E3.38560
G1 X75.293 Y82.043 E3.41144
G1 X74.948 Y82.337 E3.43728
G1 X74.561 Y82.574 E3.46312
G1 X74.143 Y82.747 E3.48897
G1 X73.702 Y82.853 E3.51481
G1 X73.250 Y82.889 E3.54065
G1 X72.798 Y82.853 E3.56649
G1 X72.357 Y82.747 E3.59233
G1 X71.939 Y82.574 E3.61817
G1 X71.552 Y82.337 E3.64402
G1 X71.207 Y82.043 E3.66986
G1 X70.913 Y81.698 E3.69570
G1 X70.676 Y81.311 E3.72154
G1 X70.503 Y80.893 E3.74738
G1 X70.397 Y80.452 E3.77322
G1 X70.361 Y80.000 E3.79907
G1 X70.397 Y79.548 E3.82491
G1 X70.503 Y79.107 E3.85075
G1 X70.676 Y78.689 E3.87659
G1 X70.913 Y78.302 E3.90243
G1 X71.163 Y78.010 E3.92437
G1 X71.260 Y77.913 E3.93216
G1 X70.646 Y77.911 F2220.000 E2.18216
G92 E0
G1 X69.667 Y76.460 F15000.000
G1 X69.687 Y76.437 F2220.000 E1.75000
G1 X69.687 Y76.437 F1200.000
G1 X70.747 Y75.566 E1.82820
G1 X70.747 Y75.651 E1.83304
G1 X71.321 Y75.344 E1.87018
G1 X72.267 Y75.057 E1.92650
G1 X73.250 Y74.960 E1.98282
G1 X74.233 Y75.057 E2.03914
G1 X75.179 Y75.344 E2.09546
G1 X76.050 Y75.810 E2.15179
G1 X76.813 Y76.437 E2.20811
G1 X77.440 Y77.200 E2.26443
G1 X77.906 Y78.071 E2.32075
G1 X78.193 Y79.017 E2.37707
G1 X78.289 Y80.000 E2.43339
G1 X78.193 Y80.983 E2.48971
G1 X77.906 Y81.929 E2.54603
G1 X77.440 Y82.800 E2.60235
G1 X76.813 Y83.563 E2.65867
G1 X76.050 Y84.190 E2.71499
G1 X75.179 Y84.656 E2.77131
G1 X74.233 Y84.943 E2.82763
G1 X73.250 Y85.039 E2.88395
G1 X72.267 Y84.943 E2.94027
G1 X71.321 Y84.656 E2.99659
G1 X70.450 Y84.190 E3.05291
G1 X69.687 Y83.563 E3.10923
G1 X69.060 Y82.800 E3.16555
G1 X68.594 Y81.929 E3.22187
G1 X68.307 Y80.983 E3.27819
G1 X68.210 Y80.000 E3.33452
G1 X68.307 Y79.017 E3.39084
G1 X68.594 Y78.071 E3.44716
G1 X69.060 Y77.200 E3.50348
G1 X69.391 Y76.796 E3.53328
G1 X69.667 Y76.460
G1 X69.314 Y76.170 F15000.000
G1 X69.362 Y76.112 F600.000 E3.53761
G1 X70.195 Y75.428 E3.59906
G1 X71.146 Y74.920 E3.66052
G1 X72.177 Y74.607 E3.72197
G1 X73.250 Y74.501 E3.78342
G1 X74.323 Y74.607 E3.84488
G1 X75.354 Y74.920 E3.90633
G1 X76.305 Y75.428 E3.96778
G1 X77.138 Y76.112 E4.02924
G1 X77.822 Y76.945 E4.09069
G1 X78.330 Y77.896 E4.15214
G1 X78.643 Y78.927 E4.21360
G1 X78.749 Y80.000 E4.27505
G1 X78.643 Y81.073 E4.33650
G1 X78.330 Y82.104 E4.39796
G1 X77.822 Y83.055 E4.45941
G1 X77.138 Y83.888 E4.52086
G1 X76.305 Y84.572 E4.58232
G1 X75.354 Y85.080 E4.64377
G1 X74.323 Y85.393 E4.70522
G1 X73.250 Y85.499 E4.76668
G1 X72.177 Y85.393 E4.82813
G1 X71.146 Y85.080 E4.88958
G1 X70.195 Y84.572 E4.95104
G1 X69.362 Y83.888 E5.01249
G1 X68.678 Y83.055 E5.07395
G1 X68.170 Y82.104 E5.13540
G1 X67.857 Y81.073 E5.19685
G1 X67.751 Y80.000 E5.25831
G1 X67.857 Y78.927 E5.31976
G1 X68.170 Y77.896 E5.38121
G1 X68.678 Y76.945 E5.44267
G1 X69.227 Y76.276 E5.49198
G1 X69.314 Y76.170 E5.49979
G1 X69.391 Y76.796 F2220.000 E3.74979
G92 E0
G1 X73.772 Y75.340 F15000.000
G1 X73.878 Y75.446 F2220.000 E1.75000
G1 X75.287 Y76.855 F960.000 E1.86384
G1 X76.343 Y76.615 F15000.000
G1 X76.635 Y76.907 F960.000 E1.88744
G1 F2220.000 E0.13744
G92 E0
G1 X74.635 Y75.555 F15000.000
G1 X74.741 Y75.662 F2220.000 E1.75000
G1 X77.695 Y78.615 F960.000 E1.98859
G1 X77.910 Y79.478 E2.03942
G1 X76.395 Y77.963 E2.16183
G1 X76.506 Y78.722 E2.20565
G1 X77.972 Y80.187 E2.32405
G1 X77.914 Y80.777 E2.35790
G1 X76.506 Y79.370 E2.47160
G1 X76.506 Y80.017 E2.50861
G1 X77.804 Y81.315 E2.61346
G1 X77.653 Y81.812 E2.64313
G1 X76.506 Y80.665 E2.73580
G1 X76.506 Y81.313 E2.77281
G1 X77.441 Y82.247 E2.84830
G1 X77.215 Y82.669 E2.87564
G1 X76.356 Y81.810 E2.94506
G1 X76.094 Y82.196 E2.97170
G1 X76.926 Y83.028 E3.03895
G1 X76.634 Y83.384 E3.06524
G1 X75.796 Y82.545 E3.13299
G1 X75.446 Y82.844 E3.15924
G1 X76.278 Y83.676 E3.22648
G1 X75.919 Y83.965 E3.25280
G1 X75.060 Y83.106 E3.32222
G1 X74.634 Y83.327 E3.34965
G1 X75.497 Y84.191 E3.41938
G1 X75.061 Y84.402 E3.44707
G1 X74.161 Y83.502 E3.51978
G1 X73.630 Y83.619 E3.55085
G1 X74.560 Y84.548 E3.62596
G1 X74.027 Y84.664 E3.65710
G1 X73.017 Y83.653 E3.73872
G1 X72.272 Y83.556 E3.78162
G1 X73.437 Y84.722 E3.87576
G1 X72.728 Y84.660 E3.91643
G1 X71.213 Y83.145 E4.03884
G1 X71.865 Y84.445 E4.12189
G1 X68.805 Y81.385 E4.36906
G1 X70.105 Y82.037 F15000.000
G1 X68.590 Y80.522 F960.000 E4.49146
G1 X68.528 Y79.813 E4.53214
G1 X69.694 Y80.978 E4.62628
G1 X69.597 Y80.233 E4.66917
G1 X68.586 Y79.223 E4.75080
G1 X68.696 Y78.685 E4.78217
G1 X69.631 Y79.620 E4.85773
G1 X69.748 Y79.089 E4.88880
G1 X68.847 Y78.188 E4.96157
G1 X69.059 Y77.753 E4.98924
G1 X69.923 Y78.616 E5.05897
G1 X70.144 Y78.190 E5.08641
G1 X69.285 Y77.331 E5.15583
G1 X69.574 Y76.972 E5.18215
G1 X70.406 Y77.804 E5.24939
G1 X70.704 Y77.454 E5.27563
G1 X69.866 Y76.616 E5.34339
G1 X70.222 Y76.324 E5.36968
G1 X71.054 Y77.156 E5.43692
G1 X71.440 Y76.894 E5.46356
G1 X70.581 Y76.035 E5.53298
G1 X71.003 Y75.809 E5.56032
G1 X71.866 Y76.673 E5.63006
G1 X72.339 Y76.498 E5.65885
G1 X71.438 Y75.597 E5.73162
G1 X71.935 Y75.446 E5.76129
G1 X72.870 Y76.381 E5.83685
G1 X73.483 Y76.347 E5.87194
G1 X72.473 Y75.336 E5.95356
G1 X73.063 Y75.278 E5.98741
G1 X74.228 Y76.444 E6.08155
G1 F2220.000 E4.33155
G92 E0
G1 X69.865 Y83.093 F15000.000
G1 X69.971 Y83.199 F2220.000 E1.75000
G1 X70.157 Y83.385 F960.000 E1.76505
G1 F2220.000 E0.01505
G92 E0
G1 X83.439 Y80.455 F15000.000
G1 X83.427 Y80.306 F2220.000 E1.75000
G1 X83.403 Y80.000 F600.000 E1.76748
G1 X83.444 Y79.476 E1.79743
G1 X83.567 Y78.966 E1.82737
G1 X83.768 Y78.480 E1.85731
G1 X84.042 Y78.033 E1.88726
G1 X84.383 Y77.633 E1.91720
G1 X84.783 Y77.292 E1.94714
G1 X85.230 Y77.018 E1.97709
G1 X85.716 Y76.817 E2.00703
G1 X86.226 Y76.694 E2.03697
G1 X86.750 Y76.653 E2.06692
G1 X87.274 Y76.694 E2.09686
G1 X87.784 Y76.817 E2.12680
G1 X88.270 Y77.018 E2.15675
G1 X88.717 Y77.292 E2.18669
G1 X89.117 Y77.633 E2.21663
G1 X89.458 Y78.033 E2.24658
G1 X89.695 Y78.419 E2.27240
G1 X89.695 Y81.581 E2.45269
G1 X89.458 Y81.967 E2.47851
G1 X89.117 Y82.367 E2.50845
G1 X88.717 Y82.708 E2.53840
G1 X88.270 Y82.982 E2.56834
G1 X87.784 Y83.183 E2.59828
G1 X87.274 Y83.306 E2.62823
G1 X86.750 Y83.347 E2.65817
G1 X86.226 Y83.306 E2.68811
G1 X85.716 Y83.183 E2.71806
G1 X85.230 Y82.982 E2.74800
G1 X84.783 Y82.708 E2.77794
G1 X84.383 Y82.367 E2.80789
G1 X84.042 Y81.967 E2.83783
G1 X83.768 Y81.520 E2.86777
G1 X83.567 Y81.034 E2.89772
G1 X83.529 Y80.879 E2.90681
G1 X83.439 Y80.455
G1 X83.891 Y80.384 F15000.000
G1 X83.861 Y80.000 F600.000 E2.92875
G1 X83.897 Y79.548 E2.95459
G1 X84.003 Y79.107 E2.98043
G1 X84.176 Y78.689 E3.00627
G1 X84.413 Y78.302 E3.03211
G1 X84.707 Y77.957 E3.05795
G1 X85.052 Y77.663 E3.08380
G1 X85.439 Y77.426 E3.10964
G1 X85.857 Y77.253 E3.13548
G1 X86.298 Y77.147 E3.16132
G1 X86.750 Y77.111 E3.18716
G1 X87.202 Y77.147 E3.21300
G1 X87.643 Y77.253 E3.23885
G1 X88.061 Y77.426 E3.26469
G1 X88.448 Y77.663 E3.29053
G1 X88.793 Y77.957 E3.31637
G1 X89.087 Y78.302 E3.34221
G1 X89.237 Y78.548 E3.35863
G1 X89.237 Y81.452 E3.52423
G1 X89.087 Y81.698 E3.54065
G1 X88.793 Y82.043 E3.56649
G1 X88.448 Y82.337 E3.59233
G1 X88.061 Y82.574 E3.61817
G1 X87.643 Y82.747 E3.64402
G1 X87.202 Y82.853 E3.66986
G1 X86.750 Y82.889 E3.69570
G1 X86.298 Y82.853 E3.72154
G1 X85.857 Y82.747 E3.74738
G1 X85.439 Y82.574 E3.77322
G1 X85.052 Y82.337 E3.79907
G1 X84.707 Y82.043 E3.82491
G1 X84.413 Y81.698 E3.85075
G1 X84.176 Y81.311 E3.87659
G1 X84.003 Y80.893 E3.90243
G1 X83.913 Y80.519 E3.92437
G1 X83.891 Y80.384 E3.93216
G1 X83.529 Y80.879 F2220.000 E2.18216
G92 E0
G1 X81.791 Y80.816 F15000.000
G1 X81.776 Y80.667 F2220.000 E1.75000
G1 X81.710 Y80.000 F600.000 E1.78819
G1 X81.807 Y79.017 E1.84451
G1 X82.094 Y78.071 E1.90083
G1 X82.560 Y77.200 E1.95715
G1 X83.187 Y76.437 E2.01347
G1 X84.247 Y75.566 E2.09167
G1 X84.247 Y75.651 E2.09651
G1 X84.821 Y75.344 E2.13366
G1 X85.767 Y75.057 E2.18998
G1 X86.750 Y74.960 E2.24630
G1 X87.733 Y75.057 E2.30262
G1 X88.679 Y75.344 E2.35894
G1 X89.550 Y75.810 E2.41526
G1 X90.313 Y76.437 E2.47158
G1 X90.940 Y77.200 E2.52790
G1 X91.406 Y78.071 E2.58422
G1 X91.693 Y79.017 E2.64054
G1 X91.789 Y80.000 E2.69686
G1 X91.693 Y80.983 E2.75318
G1 X91.406 Y81.929 E2.80950
G1 X90.940 Y82.800 E2.86582
G1 X90.313 Y83.563 E2.92214
G1 X89.550 Y84.190 E2.97846
G1 X88.679 Y84.656 E3.03478
G1 X87.733 Y84.943 E3.09110
G1 X86.750 Y85.039 E3.14743
G1 X85.767 Y84.943 E3.20375
G1 X84.821 Y84.656 E3.26007
G1 X83.950 Y84.190 E3.31639
G1 X83.187 Y83.563 E3.37271
G1 X82.560 Y82.800 E3.42903
G1 X82.094 Y81.929 E3.48535
G1 X81.889 Y81.237 E3.52646
G1 X81.791 Y80.816
G1 X81.336 Y80.861 F15000.000
G1 X81.251 Y80.000 F600.000 E3.57577
G1 X81.357 Y78.927 E3.63722
G1 X81.670 Y77.896 E3.69867
G1 X82.178 Y76.945 E3.76013
G1 X82.862 Y76.112 E3.82158
G1 X83.695 Y75.428 E3.88304
G1 X84.646 Y74.920 E3.94449
G1 X85.677 Y74.607 E4.00594
G1 X86.750 Y74.501 E4.06740
G1 X87.823 Y74.607 E4.12885
G1 X88.854 Y74.920 E4.19030
G1 X89.805 Y75.428 E4.25176
G1 X90.638 Y76.112 E4.31321
G1 X91.322 Y76.945 E4.37466
G1 X91.830 Y77.896 E4.43612
G1 X92.143 Y78.927 E4.49757
G1 X92.249 Y80.000 E4.55902
G1 X92.143 Y81.073 E4.62048
G1 X91.830 Y82.104 E4.68193
G1 X91.322 Y83.055 E4.74338
G1 X90.638 Y83.888 E4.80484
G1 X89.805 Y84.572 E4.86629
G1 X88.854 Y85.080 E4.92774
G1 X87.823 Y85.393 E4.98920
G1 X86.750 Y85.499 E5.05065
G1 X85.677 Y85.393 E5.11210
G1 X84.646 Y85.080 E5.17356
G1 X83.695 Y84.572 E5.23501
G1 X82.862 Y83.888 E5.29646
G1 X82.178 Y83.055 E5.35792
G1 X81.670 Y82.104 E5.41937
G1 X81.357 Y81.073 E5.48082
G1 X81.349 Y80.997 E5.48515
G1 X81.336 Y80.861 E5.49297
G1 X82.305 Y81.385 F15000.000
G1 X85.365 Y84.445 F960.000 E5.74013
G1 X84.713 Y83.145 E5.82319
G1 X86.228 Y84.660 E5.94559
G1 X86.937 Y84.722 E5.98627
G1 X85.772 Y83.556 E6.08041
G1 X86.517 Y83.653 E6.12331
G1 X87.527 Y84.664 E6.20493
G1 X88.060 Y84.548 E6.23606
G1 X87.130 Y83.619 E6.31117
G1 X87.661 Y83.502 E6.34225
G1 X88.561 Y84.402 E6.41496
G1 X88.997 Y84.191 E6.44264
G1 X88.134 Y83.327 E6.51238
G1 X88.560 Y83.106 E6.53981
G1 X89.419 Y83.965 E6.60923
G1 X89.778 Y83.676 E6.63555
G1 X88.946 Y82.844 E6.70279
G1 X89.296 Y82.545 E6.72904
G1 X90.134 Y83.384 E6.79679
G1 X90.426 Y83.028 E6.82308
G1 X89.594 Y82.196 E6.89032
G1 X89.856 Y81.810 E6.91697
G1 X90.715 Y82.669 E6.98638
G1 X90.941 Y82.247 E7.01373
G1 X90.006 Y81.313 E7.08922
G1 X90.006 Y80.665 E7.12622
G1 X91.153 Y81.812 E7.21890
G1 X91.304 Y81.315 E7.24857
G1 X90.006 Y80.017 E7.35342
G1 X90.006 Y79.370 E7.39042
G1 X91.414 Y80.777 E7.50413
G1 X91.472 Y80.187 E7.53798
G1 X90.006 Y78.722 E7.65638
G1 X89.895 Y77.963 E7.70020
G1 X91.410 Y79.478 E7.82260
G1 X91.195 Y78.615 E7.87343
G1 X88.135 Y75.555 E8.12060
G1 X87.272 Y75.340 F15000.000
G1 X88.787 Y76.855 F960.000 E8.24300
G1 X89.843 Y76.615 F15000.000
G1 X90.135 Y76.907 F960.000 E8.26661
G1 F2220.000 E6.51661
G92 E0
G1 X87.728 Y76.444 F15000.000
G1 X87.622 Y76.338 F2220.000 E1.75000
G1 X86.563 Y75.278 F960.000 E1.83557
G1 X85.973 Y75.336 E1.86942
G1 X86.983 Y76.347 E1.95105
G1 X86.370 Y76.381 E1.98614
G1 X85.435 Y75.446 E2.06169
G1 X84.938 Y75.597 E2.09136
G1 X85.839 Y76.498 E2.16413
G1 X85.366 Y76.673 E2.19293
G1 X84.503 Y75.809 E2.26266
G1 X84.081 Y76.035 E2.29000
G1 X84.940 Y76.894 E2.35942
G1 X84.554 Y77.156 E2.38606
G1 X83.722 Y76.324 E2.45330
G1 X83.366 Y76.616 E2.47960
G1 X84.204 Y77.454 E2.54735
