; generated by Slic3r 0.9.9-dev on 2013-02-27 at 15:52:42

; layer_height = 0.3
; perimeters = 2
; top_solid_layers = 3
; bottom_solid_layers = 2
; fill_density = 0.2
; perimeter_speed = 30
; infill_speed = 48
; travel_speed = 250
; scale = 1
; nozzle_diameter = 0.5
; filament_diameter = 1.75
; extrusion_multiplier = 1.0
; perimeters extrusion width = 0.50mm
; infill extrusion width = 0.50mm
; first layer extrusion width = 0.50mm

M107
M190 S57 ; wait for bed temperature to be reached
M104 S200 ; set temperature
G28 X0 Y0
G1 X75 Y75 F12000
G28 Z0
G1 Z0.3 F200
G1 X15 Y20 F12000
M109 S200 ; wait for temperature to be reached
G90 ; use absolute coordinates
G21 ; set units to millimeters
G92 E0
M82 ; use absolute distances for extrusion
G1 F2220.000 E-1.60000
G92 E0
G1 Z0.300 F15000.000
G1 X50.370 Y46.930
G1 X50.794 Y46.506 F2220.000 E1.60000
G1 X50.930 Y46.370 F720.000 E1.61197
G1 X51.340 Y46.040 E1.64479
G1 X51.990 Y45.610 E1.69340
G1 X52.220 Y45.480 E1.70987
G1 X52.690 Y45.260 E1.74223
G1 X53.180 Y45.070 E1.77501
G1 X53.940 Y44.870 E1.82402
G1 X54.200 Y44.820 E1.84053
G1 X54.720 Y44.760 E1.87317
G1 X55.240 Y44.740 E1.90563
G1 X94.750 Y44.740 E4.36958
G1 X95.270 Y44.760 E4.40203
G1 X95.790 Y44.820 E4.43468
G1 X96.050 Y44.870 E4.45119
G1 X96.810 Y45.070 E4.50020
G1 X97.300 Y45.260 E4.53297
G1 X97.770 Y45.480 E4.56533
G1 X98.000 Y45.610 E4.58181
G1 X98.650 Y46.040 E4.63041
G1 X99.060 Y46.370 E4.66323
G1 X99.620 Y46.930 E4.71262
G1 X99.950 Y47.340 E4.74545
G1 X100.380 Y47.990 E4.79405
G1 X100.620 Y48.450 E4.82640
G1 X100.830 Y48.940 E4.85965
G1 X100.920 Y49.180 E4.87564
G1 X101.060 Y49.680 E4.90802
G1 X101.170 Y50.200 E4.94116
G1 X101.230 Y50.720 E4.97381
G1 X101.250 Y51.240 E5.00626
G1 X101.250 Y95.850 E7.78826
G1 X101.230 Y96.380 E7.82134
G1 X101.110 Y97.180 E7.87179
G1 X100.980 Y97.700 E7.90521
G1 X100.710 Y98.450 E7.95492
G1 X100.340 Y99.160 E8.00485
G1 X100.050 Y99.610 E8.03824
G1 X99.550 Y100.240 E8.08840
G1 X99.170 Y100.620 E8.12191
G1 X98.550 Y101.130 E8.17197
G1 X98.330 Y101.280 E8.18858
G1 X93.030 Y104.470 E8.57435
G1 X92.500 Y104.720 E8.61090
G1 X91.950 Y104.930 E8.64761
G1 X91.380 Y105.090 E8.68453
G1 X90.810 Y105.190 E8.72062
G1 X89.930 Y105.250 E8.77563
G1 X60.060 Y105.250 E10.63841
G1 X59.180 Y105.190 E10.69341
G1 X58.610 Y105.090 E10.72950
G1 X58.040 Y104.930 E10.76642
G1 X57.760 Y104.830 E10.78496
G1 X56.960 Y104.470 E10.83967
G1 X51.660 Y101.280 E11.22545
G1 X51.440 Y101.130 E11.24205
G1 X50.820 Y100.620 E11.29212
G1 X50.440 Y100.240 E11.32563
G1 X50.100 Y99.830 E11.35885
G1 X49.790 Y99.390 E11.39241
G1 X49.520 Y98.930 E11.42568
G1 X49.280 Y98.450 E11.45914
G1 X49.180 Y98.200 E11.47594
G1 X49.010 Y97.700 E11.50887
G1 X48.830 Y96.920 E11.55879
G1 X48.760 Y96.380 E11.59275
G1 X48.740 Y95.850 E11.62583
G1 X48.740 Y51.240 E14.40783
G1 X48.760 Y50.720 E14.44028
G1 X48.820 Y50.200 E14.47292
G1 X48.930 Y49.680 E14.50607
G1 X49.070 Y49.180 E14.53845
G1 X49.260 Y48.690 E14.57123
G1 X49.480 Y48.220 E14.60359
G1 X49.610 Y47.990 E14.62006
G1 X49.890 Y47.550 E14.65259
G1 X50.323 Y46.989 E14.69681
G1 X50.370 Y46.930 E14.70149
G1 F2220.000 E13.10149
G92 E0
G1 X62.572 Y94.355 F15000.000
G1 X63.152 Y94.511 F2220.000 E1.60000
G1 X63.332 Y94.559 F576.000 E1.61162
G1 X63.941 Y95.168 E1.66534
G1 X64.164 Y96.000 E1.71906
G1 X63.941 Y96.832 E1.77277
G1 X63.332 Y97.441 E1.82649
G1 X62.500 Y97.664 E1.88021
G1 X61.668 Y97.441 E1.93392
G1 X61.059 Y96.832 E1.98764
G1 X60.836 Y96.000 E2.04136
G1 X61.059 Y95.168 E2.09508
G1 X61.668 Y94.559 E2.14879
G1 X62.428 Y94.355 E2.19783
G1 X62.572 Y94.355 E2.20687
G1 X62.304 Y93.871 F2220.000 E0.60687
G92 E0
G1 X63.518 Y74.909 F15000.000
G1 X62.939 Y75.064 F2220.000 E1.60000
G1 X62.500 Y75.182 F624.000 E1.62833
G1 X61.409 Y74.889 E1.69876
G1 X60.611 Y74.091 E1.76919
G1 X60.318 Y73.000 E1.83961
G1 X60.611 Y71.909 E1.91004
G1 X61.409 Y71.111 E1.98047
G1 X62.500 Y70.818 E2.05089
G1 X63.591 Y71.111 E2.12132
G1 X64.389 Y71.909 E2.19175
G1 X64.682 Y73.000 E2.26218
G1 X64.389 Y74.091 E2.33260
G1 X63.838 Y74.642 E2.38120
G1 X63.518 Y74.909
G1 X63.260 Y74.460 F15000.000
G1 X62.500 Y74.664 F576.000 E2.43024
G1 X61.668 Y74.441 E2.48396
G1 X61.059 Y73.832 E2.53768
G1 X60.836 Y73.000 E2.59139
G1 X61.059 Y72.168 E2.64511
G1 X61.668 Y71.559 E2.69883
G1 X62.500 Y71.336 E2.75254
G1 X63.332 Y71.559 E2.80626
G1 X63.941 Y72.168 E2.85998
G1 X64.164 Y73.000 E2.91369
G1 X63.941 Y73.832 E2.96741
G1 X63.385 Y74.388 E3.01645
G1 X63.260 Y74.460 E3.02549
G1 X63.838 Y74.642 F2220.000 E1.42549
G92 E0
G1 X87.572 Y70.838 F15000.000
G1 X88.152 Y70.993 F2220.000 E1.60000
G1 X88.591 Y71.111 F624.000 E1.62833
G1 X89.389 Y71.909 E1.69876
G1 X89.682 Y73.000 E1.76919
G1 X89.389 Y74.091 E1.83961
G1 X88.591 Y74.889 E1.91004
G1 X87.500 Y75.182 E1.98047
G1 X86.409 Y74.889 E2.05089
G1 X85.611 Y74.091 E2.12132
G1 X85.318 Y73.000 E2.19175
G1 X85.611 Y71.909 E2.26218
G1 X86.409 Y71.111 E2.33260
G1 X87.162 Y70.909 E2.38120
G1 X87.572 Y70.838
G1 X87.572 Y71.355 F15000.000
G1 X88.332 Y71.559 F576.000 E2.43024
G1 X88.941 Y72.168 E2.48396
G1 X89.164 Y73.000 E2.53768
G1 X88.941 Y73.832 E2.59139
G1 X88.332 Y74.441 E2.64511
G1 X87.500 Y74.664 E2.69883
G1 X86.668 Y74.441 E2.75254
G1 X86.059 Y73.832 E2.80626
G1 X85.836 Y73.000 E2.85998
G1 X86.059 Y72.168 E2.91369
G1 X86.668 Y71.559 E2.96741
G1 X87.428 Y71.355 E3.01645
G1 X87.572 Y71.355 E3.02549
G1 X87.162 Y70.909 F2220.000 E1.42549
G92 E0
G1 X87.572 Y94.355 F15000.000
G1 X88.152 Y94.511 F2220.000 E1.60000
G1 X88.332 Y94.559 F576.000 E1.61162
G1 X88.941 Y95.168 E1.66534
G1 X89.164 Y96.000 E1.71906
G1 X88.941 Y96.832 E1.77277
G1 X88.332 Y97.441 E1.82649
G1 X87.500 Y97.664 E1.88021
G1 X86.668 Y97.441 E1.93392
G1 X86.059 Y96.832 E1.98764
G1 X85.836 Y96.000 E2.04136
G1 X86.059 Y95.168 E2.09508
G1 X86.668 Y94.559 E2.14879
G1 X87.428 Y94.355 E2.19783
G1 X87.572 Y94.355 E2.20687
G1 X87.428 Y93.838 F15000.000
G1 X86.409 Y94.111 F720.000 E2.27262
G1 X85.611 Y94.909 E2.34304
G1 X85.318 Y96.000 E2.41347
G1 X85.611 Y97.091 E2.48390
G1 X86.770 Y98.250 E2.58613
G1 X63.230 Y98.250 E4.05412
G1 X64.389 Y97.091 E4.15636
G1 X64.682 Y96.000 E4.22678
G1 X64.389 Y94.909 E4.29721
G1 X63.591 Y94.111 E4.36764
G1 X62.500 Y93.818 E4.43806
G1 X61.409 Y94.111 E4.50849
G1 X60.611 Y94.909 E4.57892
G1 X60.318 Y96.000 E4.64934
G1 X60.611 Y97.091 E4.71977
G1 X61.770 Y98.250 E4.82200
G1 X60.208 Y98.250 E4.91942
G1 X55.750 Y95.575 E5.24361
G1 X55.750 Y51.750 E7.97668
G1 X94.250 Y51.750 E10.37765
G1 X94.250 Y95.575 E13.11072
G1 X89.792 Y98.250 E13.43492
G1 X88.230 Y98.250 E13.53233
G1 X89.389 Y97.091 E13.63456
G1 X89.682 Y96.000 E13.70499
G1 X89.389 Y94.909 E13.77542
G1 X88.591 Y94.111 E13.84585
G1 X87.838 Y93.909 E13.89445
G1 X87.428 Y93.838
G1 F2220.000 E12.29445
G92 E0
G1 X89.856 Y98.750 F15000.000
G1 X89.256 Y98.750 F2220.000 E1.60000
G1 X60.069 Y98.750 F576.000 E3.42015
G1 X55.250 Y95.858 E3.77064
G1 X55.250 Y51.250 E6.55255
G1 X94.750 Y51.250 E9.01587
G1 X94.750 Y95.858 E11.79778
G1 X89.995 Y98.711 E12.14359
G1 X89.856 Y98.750 E12.15261
G1 X89.643 Y97.323 F15000.000
G1 X90.073 Y97.753 F1152.000 E12.19082
G1 X90.518 Y97.486 E12.22348
G1 X89.793 Y96.761 E12.28790
G1 X89.944 Y96.199 E12.32449
G1 X90.964 Y97.219 E12.41512
G1 X91.409 Y96.951 E12.44778
G1 X89.945 Y95.488 E12.57790
G1 X89.685 Y94.514 E12.64126
G1 X91.855 Y96.684 E12.83417
G1 X92.300 Y96.417 E12.86683
G1 X56.091 Y60.208 E16.08583
G1 X56.091 Y60.920 E16.13063
G1 X88.986 Y93.815 E19.05499
G1 X88.012 Y93.554 E19.11835
G1 X56.091 Y61.633 E21.95615
G1 X56.091 Y62.346 E22.00096
G1 X87.301 Y93.556 E24.77552
G1 F2220.000 E23.17552
G92 E0
G1 X83.814 Y97.909 F15000.000
G1 X83.389 Y97.485 F2220.000 E1.60000
G1 X61.116 Y75.212 F1152.000 E3.58006
G1 X62.090 Y75.473 E3.64343
G1 X84.526 Y97.909 E5.63801
G1 X85.239 Y97.909 E5.68282
G1 X62.758 Y75.428 E7.68137
G1 X63.320 Y75.278 E7.71795
G1 X85.237 Y97.195 E9.66637
G1 X84.976 Y96.221 E9.72974
G1 X63.812 Y75.057 E11.61123
G1 X64.169 Y74.700 E11.64292
G1 X85.101 Y95.633 E13.50380
G1 X85.252 Y95.071 E13.54038
G1 X64.525 Y74.344 E15.38297
G1 X64.764 Y73.870 F15000.000
G1 X85.512 Y94.619 F1152.000 E17.22748
G1 X85.869 Y94.262 E17.25916
G1 X64.915 Y73.308 E19.12197
G1 X64.996 Y72.677 E19.16199
G1 X86.225 Y93.906 E21.04925
G1 X86.739 Y93.707 E21.08387
G1 X64.735 Y71.703 E23.03997
G1 X63.797 Y70.765 F15000.000
G1 X56.091 Y63.059 F1152.000 E23.72504
G1 X56.091 Y63.771 E23.76985
G1 X62.823 Y70.504 E24.36836
G1 X62.192 Y70.585 E24.40838
G1 X56.091 Y64.484 E24.95075
G1 X56.091 Y65.197 E24.99556
G1 X61.630 Y70.736 E25.48796
G1 X61.156 Y70.975 F15000.000
G1 X56.091 Y65.910 F1152.000 E25.93826
G1 X56.091 Y66.623 E25.98306
G1 X60.800 Y71.331 E26.40168
G1 X60.443 Y71.688 E26.43336
G1 X56.091 Y67.335 E26.82030
G1 X56.091 Y68.048 E26.86510
G1 X60.222 Y72.180 E27.23240
G1 X60.072 Y72.742 E27.26898
G1 X56.091 Y68.761 E27.62289
G1 X56.091 Y69.474 E27.66769
G1 X60.027 Y73.410 E28.01763
G1 X60.288 Y74.384 E28.08099
G1 X56.091 Y70.186 E28.45413
G1 X56.091 Y70.899 E28.49893
G1 X83.101 Y97.909 E30.90012
G1 X82.388 Y97.909 E30.94493
G1 X56.091 Y71.612 E33.28276
G1 X56.091 Y72.325 E33.32756
G1 X81.675 Y97.909 E35.60203
G1 X80.963 Y97.909 E35.64684
G1 X56.091 Y73.037 E37.85794
G1 X56.091 Y73.750 E37.90274
G1 X80.250 Y97.909 E40.05048
G1 X79.537 Y97.909 E40.09528
G1 X56.091 Y74.463 E42.17965
G1 X56.091 Y75.176 E42.22446
G1 X78.824 Y97.909 E44.24547
G1 X78.112 Y97.909 E44.29027
G1 X56.091 Y75.888 E46.24791
G1 X56.091 Y76.601 E46.29272
G1 X77.399 Y97.909 E48.18700
G1 X76.686 Y97.909 E48.23180
G1 X56.091 Y77.314 E50.06271
G1 X56.091 Y78.027 E50.10752
G1 X75.973 Y97.909 E51.87507
G1 X75.260 Y97.909 E51.91987
G1 X56.091 Y78.739 E53.62406
G1 X56.091 Y79.452 E53.66886
G1 X74.548 Y97.909 E55.30968
G1 X73.835 Y97.909 E55.35449
G1 X56.091 Y80.165 E56.93194
G1 X56.091 Y80.878 E56.97675
G1 X73.122 Y97.909 E58.49084
G1 X72.409 Y97.909 E58.53564
G1 X56.091 Y81.591 E59.98637
G1 X56.091 Y82.303 E60.03117
G1 X71.697 Y97.909 E61.41853
G1 X70.984 Y97.909 E61.46334
G1 X56.091 Y83.016 E62.78734
G1 X56.091 Y83.729 E62.83214
G1 X70.271 Y97.909 E64.09277
G1 X69.558 Y97.909 E64.13758
G1 X56.091 Y84.442 E65.33485
G1 X56.091 Y85.154 E65.37965
G1 X68.846 Y97.909 E66.51355
G1 F2220.000 E64.91355
G92 E0
G1 X65.282 Y97.909 F15000.000
G1 X64.858 Y97.485 F2220.000 E1.60000
G1 X64.621 Y97.248 F1152.000 E1.62105
G1 X64.805 Y96.719 E1.65624
G1 X65.995 Y97.909 E1.76202
G1 X66.707 Y97.909 E1.80683
G1 X64.955 Y96.157 E1.96258
G1 X64.926 Y95.415 E2.00927
G1 X67.420 Y97.909 E2.23099
G1 X68.133 Y97.909 E2.27580
G1 X56.091 Y85.867 E3.34634
G1 X56.091 Y86.580 E3.39114
G1 X63.085 Y93.574 E4.01292
G1 X62.343 Y93.545 E4.05960
G1 X56.091 Y87.293 E4.61540
G1 X56.091 Y88.005 E4.66021
G1 X61.781 Y93.695 E5.16604
G1 X61.252 Y93.879 E5.20123
G1 X56.091 Y88.718 E5.66005
G1 X56.091 Y89.431 E5.70485
G1 X60.895 Y94.236 E6.13198
G1 X60.539 Y94.592 E6.16367
G1 X56.091 Y90.144 E6.55912
G1 X56.091 Y90.856 E6.60392
G1 X60.263 Y95.029 E6.97482
G1 X60.112 Y95.591 E7.01140
G1 X56.091 Y91.569 E7.36890
G1 F2220.000 E5.76890
G92 E0
G1 X56.091 Y93.708 F15000.000
G1 X56.515 Y94.132 F2220.000 E1.60000
G1 X59.973 Y97.590 F1152.000 E1.90743
G1 X60.218 Y97.122 E1.94063
G1 X56.091 Y92.995 E2.30753
G1 X56.091 Y92.282 E2.35233
G1 X59.962 Y96.153 E2.69645
G1 F2220.000 E1.09645
G92 E0
G1 X58.191 Y96.521 F15000.000
G1 X57.767 Y96.097 F2220.000 E1.60000
G1 X56.091 Y94.420 F1152.000 E1.74902
G1 X56.091 Y95.133 E1.79382
G1 X56.409 Y95.452 E1.82215
G1 F2220.000 E0.22215
G92 E0
G1 X92.746 Y96.150 F15000.000
G1 X92.321 Y95.725 F2220.000 E1.60000
G1 X56.091 Y59.495 F1152.000 E4.82088
G1 X56.091 Y58.782 E4.86569
G1 X93.191 Y95.882 E8.16389
G1 X93.636 Y95.615 E8.19655
G1 X56.091 Y58.069 E11.53436
G1 X56.091 Y57.357 E11.57916
G1 X93.909 Y95.175 E14.94121
G1 X93.909 Y94.462 E14.98602
G1 X56.091 Y56.644 E18.34807
G1 X56.091 Y55.931 E18.39287
G1 X93.909 Y93.749 E21.75492
G1 X93.909 Y93.037 E21.79973
G1 X56.091 Y55.218 E25.16178
G1 X56.091 Y54.506 E25.20659
G1 X93.909 Y92.324 E28.56864
G1 X93.909 Y91.611 E28.61344
G1 X56.091 Y53.793 E31.97549
G1 X56.091 Y53.080 E32.02030
G1 X93.909 Y90.898 E35.38235
G1 X93.909 Y90.186 E35.42716
G1 X56.091 Y52.367 E38.78921
G1 X56.527 Y52.091 E38.82168
G1 X93.909 Y89.473 E42.14494
G1 X93.909 Y88.760 E42.18974
G1 X57.240 Y52.091 E45.44964
G1 X57.953 Y52.091 E45.49445
G1 X93.909 Y88.047 E48.69098
G1 X93.909 Y87.335 E48.73579
G1 X58.665 Y52.091 E51.86896
G1 X59.378 Y52.091 E51.91376
G1 X93.909 Y86.622 E54.98357
G1 X93.909 Y85.909 E55.02837
G1 X60.091 Y52.091 E58.03481
G1 X60.804 Y52.091 E58.07962
G1 X93.909 Y85.196 E61.02269
G1 X93.909 Y84.484 E61.06750
G1 X61.516 Y52.091 E63.94721
G1 X62.229 Y52.091 E63.99202
G1 X93.909 Y83.771 E66.80836
G1 X93.909 Y83.058 E66.85317
G1 X86.044 Y75.192 E67.55241
G1 X87.017 Y75.453 E67.61578
G1 X93.909 Y82.345 E68.22846
G1 X93.909 Y81.632 E68.27327
G1 X87.716 Y75.440 E68.82383
G1 X88.278 Y75.289 E68.86041
G1 X93.909 Y80.920 E69.36099
G1 X93.909 Y80.207 E69.40580
G1 X88.786 Y75.083 E69.86128
G1 X89.142 Y74.727 E69.89297
G1 X93.909 Y79.494 E70.31677
G1 X93.909 Y78.781 E70.36158
G1 X89.498 Y74.371 E70.75370
G1 X89.753 Y73.912 F15000.000
G1 X93.909 Y78.069 F1152.000 E71.12319
G1 X93.909 Y77.356 E71.16800
G1 X89.904 Y73.350 E71.52409
G1 X90.016 Y72.750 E71.56251
G1 X93.909 Y76.643 E71.90865
G1 X93.909 Y75.930 E71.95345
G1 X89.755 Y71.776 E72.32279
G1 X88.724 Y70.745 F15000.000
G1 X70.070 Y52.091 F1152.000 E73.98117
G1 X69.357 Y52.091 E74.02597
G1 X87.750 Y70.484 E75.66116
G1 X87.150 Y70.596 E75.69958
G1 X68.644 Y52.091 E77.34472
G1 X67.931 Y52.091 E77.38953
G1 X86.588 Y70.747 E79.04806
G1 X86.129 Y71.002 F15000.000
G1 X67.219 Y52.091 F1152.000 E80.72923
G1 X66.506 Y52.091 E80.77404
G1 X85.773 Y71.358 E82.48689
G1 X85.417 Y71.714 E82.51858
G1 X65.793 Y52.091 E84.26311
G1 X65.080 Y52.091 E84.30792
G1 X85.211 Y72.222 E86.09754
G1 X85.060 Y72.784 E86.13413
G1 X64.367 Y52.091 E87.97373
G1 X63.655 Y52.091 E88.01854
G1 X85.047 Y73.483 E89.92027
G1 X85.308 Y74.456 E89.98363
G1 X62.942 Y52.091 E91.97193
G1 F2220.000 E90.37193
G92 E0
G1 X70.782 Y52.091 F15000.000
G1 X71.207 Y52.515 F2220.000 E1.60000
G1 X93.909 Y75.218 F1152.000 E3.61825
G1 X93.909 Y74.505 E3.66306
G1 X71.495 Y52.091 E5.65567
G1 X72.208 Y52.091 E5.70047
G1 X93.909 Y73.792 E7.62972
G1 X93.909 Y73.079 E7.67452
G1 X72.921 Y52.091 E9.54040
G1 X73.633 Y52.091 E9.58520
G1 X93.909 Y72.367 E11.38772
G1 X93.909 Y71.654 E11.43252
G1 X74.346 Y52.091 E13.17167
G1 X75.059 Y52.091 E13.21648
G1 X93.909 Y70.941 E14.89226
G1 X93.909 Y70.228 E14.93707
G1 X75.772 Y52.091 E16.54949
G1 X76.484 Y52.091 E16.59429
G1 X93.909 Y69.516 E18.14335
G1 X93.909 Y68.803 E18.18815
G1 X77.197 Y52.091 E19.67385
G1 X77.910 Y52.091 E19.71865
G1 X93.909 Y68.090 E21.14098
G1 X93.909 Y67.377 E21.18578
G1 X78.623 Y52.091 E22.54474
G1 X79.336 Y52.091 E22.58955
G1 X93.909 Y66.664 E23.88515
G1 X93.909 Y65.952 E23.92995
G1 X80.048 Y52.091 E25.16218
G1 X80.761 Y52.091 E25.20699
G1 X93.909 Y65.239 E26.37586
G1 X93.909 Y64.526 E26.42066
G1 X81.474 Y52.091 E27.52617
G1 X82.187 Y52.091 E27.57097
G1 X93.909 Y63.813 E28.61311
G1 X93.909 Y63.101 E28.65792
G1 X82.899 Y52.091 E29.63669
G1 X83.612 Y52.091 E29.68150
G1 X93.909 Y62.388 E30.59690
G1 X93.909 Y61.675 E30.64171
G1 X84.325 Y52.091 E31.49376
G1 X85.038 Y52.091 E31.53856
G1 X93.909 Y60.962 E32.32724
G1 X93.909 Y60.250 E32.37205
G1 X85.750 Y52.091 E33.09736
G1 X86.463 Y52.091 E33.14217
G1 X93.909 Y59.537 E33.80412
G1 X93.909 Y58.824 E33.84893
G1 X87.176 Y52.091 E34.44751
G1 X87.889 Y52.091 E34.49232
G1 X93.909 Y58.111 E35.02754
G1 X93.909 Y57.399 E35.07235
G1 X88.601 Y52.091 E35.54420
G1 X89.314 Y52.091 E35.58901
G1 X93.909 Y56.686 E35.99750
G1 X93.909 Y55.973 E36.04231
G1 X90.027 Y52.091 E36.38744
G1 X90.740 Y52.091 E36.43224
G1 X93.909 Y55.260 E36.71400
G1 X93.909 Y54.547 E36.75881
G1 X91.453 Y52.091 E36.97721
G1 X92.165 Y52.091 E37.02202
G1 X93.909 Y53.835 E37.17705
G1 X93.909 Y53.122 E37.22186
G1 X92.878 Y52.091 E37.31353
G1 X93.591 Y52.091 E37.35833
G1 X93.909 Y52.409 E37.38664
G1 F2220.000 E35.78664
G92 E0
G1 X62.088 Y98.058 F15000.000
G1 X62.145 Y98.047 F2220.000 E1.60000
G1 X62.145 Y98.047 F2880.000
