; generated by Slic3r 0.9.9-dev on 2013-03-19 at 09:02:48

; layer_height = 0.3
; perimeters = 2
; top_solid_layers = 3
; bottom_solid_layers = 2
; fill_density = 0.2
; perimeter_speed = 30
; infill_speed = 48
; travel_speed = 250
; scale = 1
; nozzle_diameter = 0.5
; filament_diameter = 1.75
; extrusion_multiplier = 1.0
; perimeters extrusion width = 0.50mm
; infill extrusion width = 0.50mm
; first layer extrusion width = 0.50mm

M107
M190 S57 ; wait for bed temperature to be reached
M104 S200 ; set temperature
G28 X0 Y0
G1 X75 Y75 F12000
G28 Z0
G1 Z0.3 F200
G1 X15 Y20 F12000
M109 S200 ; wait for temperature to be reached
G90 ; use absolute coordinates
G21 ; set units to millimeters
G92 E0
M82 ; use absolute distances for extrusion
G1 F2220.000 E-1.60000
G92 E0
G1 Z0.300 F15000.000
G1 X52.290 Y40.340
G1 X52.620 Y39.930 F2220.000 E1.60000
G1 X52.620 Y39.930 F1800.000
G1 X53.180 Y39.370 E1.64939
G1 X53.590 Y39.040 E1.68221
G1 X54.240 Y38.610 E1.73081
G1 X54.470 Y38.480 E1.74729
G1 X54.940 Y38.260 E1.77965
G1 X55.430 Y38.070 E1.81243
G1 X55.930 Y37.930 E1.84481
G1 X56.450 Y37.820 E1.87795
G1 X56.970 Y37.760 E1.91060
G1 X57.490 Y37.740 E1.94305
G1 X65.920 Y37.740 E2.46877
G1 X66.780 Y37.800 E2.52253
G1 X68.800 Y38.070 E2.64962
G1 X69.760 Y38.270 E2.71078
G1 X96.570 Y46.080 E4.45222
G1 X97.080 Y46.270 E4.48616
G1 X97.560 Y46.510 E4.51963
G1 X98.030 Y46.780 E4.55343
G1 X98.250 Y46.930 E4.57004
G1 X98.470 Y47.090 E4.58700
G1 X98.880 Y47.440 E4.62062
G1 X99.270 Y47.820 E4.65458
G1 X99.620 Y48.230 E4.68819
G1 X99.930 Y48.670 E4.72176
G1 X100.210 Y49.130 E4.75534
G1 X100.450 Y49.620 E4.78937
G1 X100.730 Y50.380 E4.83988
G1 X100.860 Y50.900 E4.87331
G1 X100.950 Y51.430 E4.90683
G1 X100.980 Y51.700 E4.92377
G1 X101.000 Y52.240 E4.95747
G1 X101.000 Y97.750 E7.79560
G1 X100.980 Y98.290 E7.82930
G1 X100.950 Y98.560 E7.84624
G1 X100.800 Y99.350 E7.89639
G1 X100.730 Y99.610 E7.91318
G1 X100.550 Y100.120 E7.94691
G1 X100.330 Y100.620 E7.98097
G1 X100.080 Y101.090 E8.01417
G1 X99.780 Y101.540 E8.04790
G1 X99.450 Y101.970 E8.08170
G1 X98.880 Y102.550 E8.13242
G1 X98.470 Y102.900 E8.16604
G1 X98.030 Y103.210 E8.19960
G1 X97.560 Y103.480 E8.23340
G1 X97.080 Y103.720 E8.26687
G1 X96.320 Y103.990 E8.31717
G1 X69.760 Y111.720 E10.04225
G1 X68.800 Y111.920 E10.10340
G1 X66.780 Y112.190 E10.23049
G1 X65.920 Y112.250 E10.28426
G1 X57.490 Y112.250 E10.80998
G1 X56.970 Y112.230 E10.84243
G1 X56.450 Y112.170 E10.87507
G1 X55.930 Y112.060 E10.90822
G1 X55.430 Y111.920 E10.94060
G1 X54.940 Y111.730 E10.97337
G1 X54.470 Y111.510 E11.00574
G1 X54.240 Y111.380 E11.02221
G1 X53.590 Y110.950 E11.07081
G1 X53.180 Y110.620 E11.10364
G1 X52.620 Y110.060 E11.15303
G1 X52.290 Y109.650 E11.18585
G1 X52.140 Y109.440 E11.20194
G1 X51.730 Y108.770 E11.25093
G1 X51.510 Y108.300 E11.28329
G1 X51.320 Y107.810 E11.31606
G1 X51.180 Y107.310 E11.34844
G1 X51.070 Y106.790 E11.38159
G1 X51.010 Y106.270 E11.41423
G1 X50.990 Y105.750 E11.44669
G1 X50.990 Y44.240 E15.28262
G1 X51.010 Y43.720 E15.31507
G1 X51.070 Y43.200 E15.34772
G1 X51.180 Y42.680 E15.38086
G1 X51.320 Y42.180 E15.41324
G1 X51.510 Y41.690 E15.44602
G1 X51.730 Y41.220 E15.47838
G1 X51.860 Y40.990 E15.49486
G1 X52.246 Y40.401 E15.53879
G1 X52.290 Y40.340 E15.54346
G1 F2220.000 E13.94346
G92 E0
G1 X67.708 Y74.926 F15000.000
G1 X67.785 Y74.340 F2220.000 E1.60000
G1 X67.785 Y74.340 F1560.000
G1 X68.040 Y73.724 E1.64153
G1 X68.446 Y73.196 E1.68308
G1 X68.974 Y72.790 E1.72462
G1 X69.590 Y72.535 E1.76615
G1 X70.250 Y72.448 E1.80769
G1 X70.910 Y72.535 E1.84923
G1 X71.526 Y72.790 E1.89077
G1 X72.054 Y73.196 E1.93231
G1 X72.460 Y73.724 E1.97385
G1 X72.715 Y74.340 E2.01539
G1 X72.802 Y75.000 E2.05693
G1 X72.715 Y75.660 E2.09847
G1 X72.460 Y76.276 E2.14001
G1 X72.054 Y76.804 E2.18155
G1 X71.526 Y77.210 E2.22309
G1 X71.036 Y77.413 E2.25614
G1 X70.910 Y77.465 E2.26463
G1 X70.250 Y77.552 E2.30617
G1 X69.590 Y77.465 E2.34771
G1 X69.464 Y77.413 E2.35620
G1 X68.974 Y77.210 E2.38925
G1 X68.446 Y76.804 E2.43079
G1 X68.040 Y76.276 E2.47233
G1 X67.785 Y75.660 E2.51386
G1 X67.744 Y75.347 E2.53358
G1 X67.708 Y74.926
G1 X68.213 Y74.926 F15000.000
G1 X68.272 Y74.470 F576.000 E2.56223
G1 X68.477 Y73.976 E2.59556
G1 X68.802 Y73.552 E2.62889
G1 X69.226 Y73.227 E2.66222
G1 X69.720 Y73.022 E2.69555
G1 X70.250 Y72.953 E2.72888
G1 X70.780 Y73.022 E2.76221
G1 X71.274 Y73.227 E2.79554
G1 X71.698 Y73.552 E2.82887
G1 X72.023 Y73.976 E2.86220
G1 X72.228 Y74.470 E2.89553
G1 X72.297 Y75.000 E2.92886
G1 X72.228 Y75.530 E2.96219
G1 X72.023 Y76.024 E2.99551
G1 X71.698 Y76.448 E3.02885
G1 X71.274 Y76.773 E3.06217
G1 X70.845 Y76.951 E3.09112
G1 X70.780 Y76.978 E3.09550
G1 X70.250 Y77.047 E3.12883
G1 X69.720 Y76.978 E3.16216
G1 X69.655 Y76.951 E3.16655
G1 X69.226 Y76.773 E3.19549
G1 X68.802 Y76.448 E3.22882
G1 X68.477 Y76.024 E3.26215
G1 X68.272 Y75.530 E3.29548
G1 X68.213 Y75.074 E3.32413
G1 X68.213 Y74.926 E3.33341
G1 X67.744 Y75.347 F2220.000 E1.73341
G92 E0
G1 X78.252 Y52.439 F15000.000
G1 X78.297 Y52.458 F2220.000 E1.60000
G1 X78.297 Y52.458 F1800.000
G1 X80.515 Y52.750 E1.73946
G1 X94.000 Y52.750 E2.58045
G1 X94.000 Y97.250 E5.35560
G1 X80.515 Y97.250 E6.19659
G1 X78.297 Y97.542 E6.33605
G1 X76.185 Y98.417 E6.47861
G1 X74.411 Y99.778 E6.61807
G1 X71.093 Y103.096 E6.91071
G1 X69.559 Y104.274 E7.03133
G1 X67.812 Y104.997 E7.14926
G1 X65.892 Y105.250 E7.26998
G1 X58.000 Y105.250 E7.76217
G1 X58.000 Y44.750 E11.53512
G1 X65.892 Y44.750 E12.02730
G1 X67.812 Y45.003 E12.14803
G1 X69.559 Y45.726 E12.26595
G1 X71.093 Y46.904 E12.38657
G1 X74.411 Y50.222 E12.67922
G1 X76.185 Y51.583 E12.81868
G1 X77.859 Y52.277 E12.93167
G1 X78.252 Y52.439
G1 X78.502 Y51.981 F15000.000
G1 X80.547 Y52.250 F576.000 E13.06031
G1 X94.500 Y52.250 E13.93044
G1 X94.500 Y97.750 E16.76794
G1 X80.547 Y97.750 E17.63807
G1 X78.428 Y98.029 E17.77138
G1 X76.438 Y98.853 E17.90573
G1 X74.742 Y100.155 E18.03904
G1 X71.424 Y103.473 E18.33169
G1 X69.811 Y104.710 E18.45846
G1 X67.942 Y105.484 E18.58459
G1 X65.925 Y105.750 E18.71147
G1 X57.500 Y105.750 E19.23688
G1 X57.500 Y44.250 E23.07219
G1 X65.925 Y44.250 E23.59760
G1 X67.942 Y44.516 E23.72447
G1 X69.811 Y45.290 E23.85061
G1 X71.424 Y46.527 E23.97738
G1 X74.742 Y49.845 E24.27002
G1 X76.438 Y51.147 E24.40333
G1 X78.359 Y51.942 E24.53300
G1 X78.502 Y51.981 E24.54228
G1 X77.859 Y52.277 F2220.000 E22.94228
G92 E0
G1 X75.824 Y51.882 F15000.000
G1 X76.248 Y52.306 F2220.000 E1.60000
G1 X93.659 Y69.717 F1152.000 E3.13968
G1 X93.659 Y69.008 E3.18401
G1 X77.035 Y52.383 E4.65417
G1 X78.168 Y52.807 E4.72983
G1 X93.659 Y68.299 E6.09978
G1 X93.659 Y67.590 E6.14411
G1 X78.984 Y52.915 E7.44185
G1 X79.801 Y53.022 E7.49335
G1 X93.659 Y66.881 E8.71889
G1 X93.659 Y66.171 E8.76322
G1 X80.579 Y53.091 E9.91998
G1 X81.288 Y53.091 E9.96432
G1 X93.659 Y65.462 E11.05838
G1 X93.659 Y64.753 E11.10271
G1 X81.997 Y53.091 E12.13407
G1 X82.706 Y53.091 E12.17841
G1 X93.659 Y64.044 E13.14706
G1 X93.659 Y63.335 E13.19140
G1 X83.415 Y53.091 E14.09736
G1 X84.124 Y53.091 E14.14169
G1 X93.659 Y62.626 E14.98495
G1 X93.659 Y61.917 E15.02929
G1 X84.833 Y53.091 E15.80985
G1 X85.542 Y53.091 E15.85418
G1 X93.659 Y61.208 E16.57204
G1 X93.659 Y60.499 E16.61638
G1 X86.251 Y53.091 E17.27153
G1 X86.960 Y53.091 E17.31587
G1 X93.659 Y59.790 E17.90833
G1 X93.659 Y59.081 E17.95266
G1 X87.669 Y53.091 E18.48242
G1 X88.378 Y53.091 E18.52676
G1 X93.659 Y58.372 E18.99381
G1 X93.659 Y57.663 E19.03815
G1 X89.087 Y53.091 E19.44251
G1 X89.796 Y53.091 E19.48684
G1 X93.659 Y56.954 E19.82850
G1 X93.659 Y56.245 E19.87283
G1 X90.505 Y53.091 E20.15179
G1 X91.214 Y53.091 E20.19613
G1 X93.659 Y55.536 E20.41238
G1 X93.659 Y54.827 E20.45672
G1 X91.923 Y53.091 E20.61028
G1 X92.632 Y53.091 E20.65461
G1 X93.659 Y54.118 E20.74547
G1 X93.659 Y53.409 E20.78981
G1 X93.341 Y53.091 E20.81796
G1 F2220.000 E19.21796
G92 E0
G1 X69.535 Y46.301 F15000.000
G1 X69.959 Y46.725 F2220.000 E1.60000
G1 X93.659 Y70.426 F1152.000 E3.69589
G1 X93.659 Y71.135 E3.74022
G1 X68.091 Y45.566 E6.00130
G1 X67.089 Y45.274 E6.06655
G1 X93.659 Y71.844 E8.41620
G1 X93.659 Y72.553 E8.46053
G1 X66.273 Y45.166 E10.88239
G1 X65.488 Y45.091 E10.93166
G1 X93.659 Y73.262 E13.42288
G1 X93.659 Y73.971 E13.46722
G1 X64.779 Y45.091 E16.02114
G1 X64.070 Y45.091 E16.06547
G1 X93.659 Y74.680 E18.68209
G1 X93.659 Y75.389 E18.72643
G1 X63.361 Y45.091 E21.40575
G1 X62.652 Y45.091 E21.45009
G1 X93.659 Y76.098 E24.19211
G1 X93.659 Y76.807 E24.23644
G1 X61.943 Y45.091 E27.04116
G1 X61.234 Y45.091 E27.08550
G1 X93.659 Y77.516 E29.95292
G1 X93.659 Y78.225 E29.99725
G1 X60.525 Y45.091 E32.92737
G1 X59.816 Y45.091 E32.97171
G1 X93.659 Y78.934 E35.96453
G1 X93.659 Y79.643 E36.00887
G1 X59.107 Y45.091 E39.06439
G1 X58.398 Y45.091 E39.10872
G1 X93.659 Y80.352 E42.22694
G1 X93.659 Y81.061 E42.27128
G1 X58.341 Y45.742 E45.39458
G1 X58.341 Y46.451 E45.43891
G1 X93.659 Y81.770 E48.56221
G1 X93.659 Y82.479 E48.60654
G1 X58.341 Y47.160 E51.72984
G1 X58.341 Y47.869 E51.77417
G1 X93.659 Y83.188 E54.89747
G1 X93.659 Y83.897 E54.94180
G1 X58.341 Y48.578 E58.06510
G1 X58.341 Y49.288 E58.10944
G1 X93.659 Y84.606 E61.23273
G1 X93.659 Y85.315 E61.27707
G1 X58.341 Y49.997 E64.40036
G1 X58.341 Y50.706 E64.44470
G1 X93.659 Y86.024 E67.56799
G1 X93.659 Y86.733 E67.61233
G1 X58.341 Y51.415 E70.73563
G1 X58.341 Y52.124 E70.77996
G1 X93.659 Y87.442 E73.90326
G1 X93.659 Y88.151 E73.94759
G1 X58.341 Y52.833 E77.07089
G1 X58.341 Y53.542 E77.11522
G1 X93.659 Y88.860 E80.23852
G1 X93.659 Y89.569 E80.28286
G1 X58.341 Y54.251 E83.40615
G1 X58.341 Y54.960 E83.45049
G1 X93.659 Y90.278 E86.57378
G1 X93.659 Y90.987 E86.61812
G1 X58.341 Y55.669 E89.74141
G1 X58.341 Y56.378 E89.78575
G1 X93.659 Y91.696 E92.90904
G1 X93.659 Y92.405 E92.95338
G1 X58.341 Y57.087 E96.07668
G1 X58.341 Y57.796 E96.12101
G1 X93.659 Y93.114 E99.24431
G1 X93.659 Y93.823 E99.28864
G1 X58.341 Y58.505 E102.41194
G1 X58.341 Y59.214 E102.45627
G1 X71.430 Y72.303 E103.61375
G1 X70.538 Y72.120 E103.67063
G1 X58.341 Y59.923 E104.74930
G1 X58.341 Y60.632 E104.79363
G1 X69.882 Y72.173 E105.81423
G1 X69.328 Y72.328 E105.85020
G1 X58.341 Y61.341 E106.82180
G1 X58.341 Y62.050 E106.86614
G1 X68.837 Y72.546 E107.79438
G1 X68.436 Y72.854 E107.82600
G1 X58.341 Y62.759 E108.71875
G1 X58.341 Y63.468 E108.76309
G1 X68.085 Y73.212 E109.62476
G1 X67.777 Y73.613 E109.65638
G1 X58.341 Y64.177 E110.49083
G1 X58.341 Y64.886 E110.53517
G1 X67.565 Y74.110 E111.35085
G1 X67.417 Y74.672 E111.38717
G1 X58.341 Y65.595 E112.18985
G1 X58.341 Y66.304 E112.23418
G1 X67.377 Y75.340 E113.03329
G1 X67.584 Y76.257 E113.09203
G1 X58.341 Y67.013 E113.90947
G1 X58.341 Y67.722 E113.95380
G1 X87.528 Y96.909 E116.53491
G1 X86.819 Y96.909 E116.57924
G1 X58.341 Y68.431 E119.09764
G1 X58.341 Y69.140 E119.14198
G1 X86.110 Y96.909 E121.59768
G1 X85.401 Y96.909 E121.64202
G1 X58.341 Y69.849 E124.03502
G1 X58.341 Y70.558 E124.07936
G1 X84.692 Y96.909 E126.40966
G1 X83.983 Y96.909 E126.45399
G1 X58.341 Y71.267 E128.72160
G1 X58.341 Y71.976 E128.76593
G1 X83.274 Y96.909 E130.97083
G1 X82.565 Y96.909 E131.01517
G1 X58.341 Y72.685 E133.15737
G1 X58.341 Y73.394 E133.20171
G1 X81.856 Y96.909 E135.28121
G1 X81.147 Y96.909 E135.32554
G1 X58.341 Y74.103 E137.34235
G1 X58.341 Y74.812 E137.38668
G1 X80.462 Y96.933 E139.34287
G1 X79.835 Y97.015 E139.38239
G1 X58.341 Y75.521 E141.28317
G1 X58.341 Y76.230 E141.32751
G1 X79.208 Y97.098 E143.17289
G1 X78.582 Y97.180 E143.21240
G1 X58.341 Y76.939 E145.00238
G1 X58.341 Y77.648 E145.04671
G1 X78.029 Y97.337 E146.78783
G1 X77.528 Y97.544 E146.82176
G1 X58.341 Y78.357 E148.51854
G1 X58.341 Y79.066 E148.56288
G1 X77.027 Y97.752 E150.21532
G1 X76.525 Y97.960 E150.24925
G1 X58.341 Y79.775 E151.85736
G1 X58.341 Y80.484 E151.90170
G1 X76.038 Y98.181 E153.46668
G1 X75.637 Y98.489 E153.49830
G1 X58.341 Y81.193 E155.02780
G1 X58.341 Y81.902 E155.07214
G1 X75.235 Y98.797 E156.56616
G1 X74.834 Y99.105 E156.59779
G1 X58.341 Y82.611 E158.05633
G1 X58.341 Y83.320 E158.10067
G1 X74.433 Y99.412 E159.52374
G1 X74.056 Y99.745 E159.55515
G1 X58.341 Y84.029 E160.94489
G1 X58.341 Y84.738 E160.98923
G1 X73.702 Y100.099 E162.34761
G1 X73.347 Y100.454 E162.37896
G1 X58.341 Y85.447 E163.70600
G1 X58.341 Y86.156 E163.75034
G1 X72.992 Y100.808 E165.04602
G1 X72.638 Y101.163 E165.07737
G1 X58.341 Y86.865 E166.34171
G1 X58.341 Y87.574 E166.38605
G1 X72.283 Y101.517 E167.61903
G1 X71.929 Y101.872 E167.65038
G1 X58.341 Y88.283 E168.85202
G1 X58.341 Y88.992 E168.89636
G1 X71.574 Y102.226 E170.06664
G1 X71.220 Y102.581 E170.09799
G1 X58.341 Y89.701 E171.23693
G1 X58.341 Y90.410 E171.28127
G1 X70.858 Y102.928 E172.38819
G1 X70.457 Y103.236 E172.41982
G1 X58.341 Y91.119 E173.49127
G1 X58.341 Y91.829 E173.53560
G1 X70.056 Y103.543 E174.57158
G1 X69.654 Y103.851 E174.60320
G1 X58.341 Y92.538 E175.60369
G1 X58.341 Y93.247 E175.64803
G1 X69.200 Y104.106 E176.60836
G1 X68.699 Y104.314 E176.64229
G1 X58.341 Y93.956 E177.55829
G1 X58.341 Y94.665 E177.60263
G1 X68.198 Y104.521 E178.47429
G1 X67.660 Y104.693 E178.50956
G1 X58.341 Y95.374 E179.33370
G1 X58.341 Y96.083 E179.37804
G1 X67.034 Y104.776 E180.14678
G1 X66.407 Y104.858 E180.18629
G1 X58.341 Y96.792 E180.89963
G1 X58.341 Y97.501 E180.94396
G1 X65.749 Y104.909 E181.59912
G1 X65.040 Y104.909 E181.64346
G1 X58.341 Y98.210 E182.23591
G1 X58.341 Y98.919 E182.28025
G1 X64.331 Y104.909 E182.81001
G1 X63.622 Y104.909 E182.85434
G1 X58.341 Y99.628 E183.32140
G1 X58.341 Y100.337 E183.36574
G1 X62.913 Y104.909 E183.77009
G1 X62.204 Y104.909 E183.81443
G1 X58.341 Y101.046 E184.15609
G1 X58.341 Y101.755 E184.20042
G1 X61.495 Y104.909 E184.47938
G1 X60.786 Y104.909 E184.52372
G1 X58.341 Y102.464 E184.73997
G1 X58.341 Y103.173 E184.78431
G1 X60.077 Y104.909 E184.93787
G1 X59.368 Y104.909 E184.98220
G1 X58.341 Y103.882 E185.07306
G1 X58.341 Y104.591 E185.11739
G1 X58.659 Y104.909 E185.14555
G1 F2220.000 E183.54555
G92 E0
G1 X68.993 Y77.666 F15000.000
G1 X69.418 Y78.090 F2220.000 E1.60000
G1 X88.237 Y96.909 F1152.000 E3.26424
G1 X88.946 Y96.909 E3.30858
G1 X69.910 Y77.873 E4.99201
G1 X70.578 Y77.833 E5.03390
G1 X89.655 Y96.909 E6.72090
G1 X90.364 Y96.909 E6.76524
G1 X71.140 Y77.685 E8.46524
G1 X71.637 Y77.473 E8.49902
G1 X91.073 Y96.909 E10.21780
G1 X91.782 Y96.909 E10.26213
G1 X72.038 Y77.165 E12.00813
G1 X72.396 Y76.814 F15000.000
G1 X92.491 Y96.909 F1152.000 E13.78522
G1 X93.200 Y96.909 E13.82955
G1 X72.704 Y76.413 E15.64211
G1 X72.922 Y75.922 E15.67569
G1 X93.659 Y96.659 E17.50951
G1 X93.659 Y95.950 E17.55384
G1 X73.077 Y75.368 E19.37396
G1 X73.130 Y74.712 E19.41514
G1 X93.659 Y95.241 E21.23062
G1 X93.659 Y94.532 E21.27496
G1 X72.947 Y73.820 E23.10655
M106 S255
M104 S185 ; set temperature
G1 F2220.000 E21.50655
G92 E0
G1 Z0.600 F15000.000
G1 X67.776 Y75.586
G1 X67.698 Y75.000 F2220.000 E1.60000
G1 X67.698 Y75.000 F1560.000
G1 X67.785 Y74.340 E1.64154
G1 X68.040 Y73.724 E1.68308
G1 X68.446 Y73.196 E1.72462
G1 X68.974 Y72.790 E1.76616
G1 X69.590 Y72.535 E1.80770
G1 X70.250 Y72.448 E1.84924
G1 X70.910 Y72.535 E1.89078
G1 X71.526 Y72.790 E1.93232
G1 X72.054 Y73.196 E1.97386
G1 X72.460 Y73.724 E2.01540
G1 X72.715 Y74.340 E2.05694
G1 X72.802 Y75.000 E2.09848
G1 X72.715 Y75.660 E2.14002
G1 X72.460 Y76.276 E2.18155
G1 X72.054 Y76.804 E2.22309
G1 X71.526 Y77.210 E2.26463
G1 X70.910 Y77.465 E2.30617
G1 X70.250 Y77.552 E2.34771
G1 X69.590 Y77.465 E2.38925
G1 X68.974 Y77.210 E2.43079
G1 X68.446 Y76.804 E2.47233
G1 X68.040 Y76.276 E2.51387
G1 X67.919 Y75.984 E2.53358
G1 X67.776 Y75.586
G1 X68.263 Y75.456 F15000.000
G1 X68.203 Y75.000 F1440.000 E2.56224
G1 X68.272 Y74.470 E2.59557
G1 X68.477 Y73.976 E2.62890
G1 X68.802 Y73.552 E2.66223
G1 X69.226 Y73.227 E2.69555
G1 X69.720 Y73.022 E2.72888
G1 X70.250 Y72.953 E2.76221
G1 X70.780 Y73.022 E2.79554
G1 X71.274 Y73.227 E2.82887
G1 X71.698 Y73.552 E2.86220
G1 X72.023 Y73.976 E2.89553
G1 X72.228 Y74.470 E2.92886
G1 X72.297 Y75.000 E2.96219
G1 X72.228 Y75.530 E2.99552
G1 X72.023 Y76.024 E3.02885
G1 X71.698 Y76.448 E3.06218
G1 X71.274 Y76.773 E3.09551
G1 X70.780 Y76.978 E3.12884
G1 X70.250 Y77.047 E3.16217
G1 X69.720 Y76.978 E3.19550
G1 X69.226 Y76.773 E3.22883
G1 X68.802 Y76.448 E3.26215
