; generated by Slic3r 0.9.8-dev on 2013-01-23 at 15:15:23

; layer_height = 0.3
; perimeters = 2
; top_solid_layers = 3
; bottom_solid_layers = 2
; fill_density = 0.2
; perimeter_speed = 30
; infill_speed = 48
; travel_speed = 250
; scale = 1
; nozzle_diameter = 0.5
; filament_diameter = 1.75
; extrusion_multiplier = 1.0
; perimeters extrusion width = 0.50mm
; infill extrusion width = 0.50mm
; first layer extrusion width = 0.50mm

M107
M190 S57 ; wait for bed temperature to be reached
M104 S200 ; set temperature
G28 X0 Y0
G1 X75 Y75 F12000
G28 Z0
G1 Z0.3 F200
G1 X15 Y20 F12000
M109 S200 ; wait for temperature to be reached
G90 ; use absolute coordinates
G21 ; set units to millimeters
G92 E0
M82 ; use absolute distances for extrusion
G1 F2220.000 E-1.60000
G92 E0
G1 Z0.300 F15000.000
G1 X48.870 Y58.280
G1 X49.350 Y57.920 F2220.000 E1.60000
G1 X49.350 Y57.920 F1800.000
G1 X50.750 Y57.050 E1.70279
G1 X51.260 Y56.790 E1.73849
G1 X51.800 Y56.580 E1.77463
G1 X53.070 Y56.140 E1.85844
G1 X53.610 Y56.010 E1.89308
G1 X54.160 Y55.920 E1.92784
G1 X55.230 Y55.790 E1.99506
G1 X56.010 Y55.740 E2.04380
G1 X93.980 Y55.740 E4.41171
G1 X94.760 Y55.790 E4.46046
G1 X95.830 Y55.920 E4.52768
G1 X96.380 Y56.010 E4.56243
G1 X96.920 Y56.140 E4.59707
G1 X98.190 Y56.580 E4.68089
G1 X98.730 Y56.790 E4.71702
G1 X99.240 Y57.050 E4.75272
G1 X100.390 Y57.760 E4.83700
G1 X100.640 Y57.920 E4.85552
G1 X101.120 Y58.280 E4.89293
G1 X101.560 Y58.680 E4.93002
G1 X102.310 Y59.430 E4.99616
G1 X102.710 Y59.870 E5.03325
G1 X103.070 Y60.350 E5.07066
G1 X103.230 Y60.600 E5.08917
G1 X103.790 Y61.500 E5.15528
G1 X104.070 Y62.000 E5.19102
G1 X104.200 Y62.260 E5.20914
G1 X104.410 Y62.800 E5.24528
G1 X104.760 Y63.810 E5.31194
G1 X104.930 Y64.360 E5.34784
G1 X105.080 Y65.210 E5.40167
G1 X105.230 Y66.530 E5.48451
G1 X105.270 Y67.270 E5.53073
G1 X105.250 Y82.990 E6.51107
G1 X105.200 Y83.760 E6.55919
G1 X105.030 Y85.110 E6.64405
G1 X104.850 Y85.920 E6.69579
G1 X104.410 Y87.190 E6.77961
G1 X104.200 Y87.730 E6.81575
G1 X103.940 Y88.240 E6.85145
G1 X103.070 Y89.640 E6.95424
G1 X102.710 Y90.120 E6.99166
G1 X102.310 Y90.560 E7.02874
G1 X101.560 Y91.310 E7.09489
G1 X101.120 Y91.710 E7.13197
G1 X100.640 Y92.070 E7.16939
G1 X99.240 Y92.940 E7.27218
G1 X98.730 Y93.200 E7.30788
G1 X98.460 Y93.310 E7.32606
G1 X96.920 Y93.850 E7.42783
G1 X96.380 Y93.980 E7.46247
G1 X95.830 Y94.070 E7.49723
G1 X94.760 Y94.200 E7.56445
G1 X93.980 Y94.250 E7.61319
G1 X56.010 Y94.250 E9.98110
G1 X55.230 Y94.200 E10.02984
G1 X54.160 Y94.070 E10.09706
G1 X53.610 Y93.980 E10.13182
G1 X53.070 Y93.850 E10.16646
G1 X51.800 Y93.410 E10.25028
G1 X51.260 Y93.200 E10.28641
G1 X50.750 Y92.940 E10.32211
G1 X49.600 Y92.230 E10.40639
G1 X49.350 Y92.070 E10.42490
G1 X48.870 Y91.710 E10.46232
G1 X48.430 Y91.310 E10.49940
G1 X47.680 Y90.560 E10.56555
G1 X47.280 Y90.120 E10.60263
G1 X46.920 Y89.640 E10.64005
G1 X46.050 Y88.240 E10.74284
G1 X45.790 Y87.730 E10.77854
G1 X45.680 Y87.460 E10.79673
G1 X45.140 Y85.920 E10.89850
G1 X45.070 Y85.650 E10.91589
G1 X44.920 Y84.830 E10.96788
G1 X44.790 Y83.760 E11.03510
G1 X44.740 Y82.980 E11.08384
G1 X44.740 Y67.010 E12.07977
G1 X44.790 Y66.230 E12.12852
G1 X44.960 Y64.880 E12.21337
G1 X45.140 Y64.070 E12.26512
G1 X45.580 Y62.800 E12.34894
G1 X45.790 Y62.260 E12.38507
G1 X46.050 Y61.750 E12.42077
G1 X46.920 Y60.350 E12.52356
G1 X47.280 Y59.870 E12.56098
G1 X47.680 Y59.430 E12.59806
G1 X48.430 Y58.680 E12.66421
G1 X48.815 Y58.330 E12.69661
G1 X48.870 Y58.280 E12.70129
G1 F2220.000 E11.10129
G92 E0
G1 X55.021 Y81.156 F15000.000
G1 X55.457 Y80.975 F2220.000 E1.60000
G1 X55.457 Y80.975 F1560.000
G1 X55.525 Y80.966 E1.60427
G1 X56.000 Y80.903 E1.63414
G1 X56.543 Y80.975 E1.66827
G1 X57.048 Y81.184 E1.70240
G1 X57.483 Y81.517 E1.73654
G1 X57.816 Y81.952 E1.77067
G1 X58.025 Y82.457 E1.80481
G1 X58.097 Y83.000 E1.83894
G1 X58.025 Y83.543 E1.87308
G1 X57.816 Y84.048 E1.90721
G1 X57.483 Y84.483 E1.94135
G1 X57.428 Y84.524 E1.94561
G1 X57.048 Y84.816 E1.97548
G1 X56.543 Y85.025 E2.00961
G1 X56.000 Y85.097 E2.04375
G1 X55.457 Y85.025 E2.07788
G1 X55.015 Y84.842 E2.10775
G1 X54.952 Y84.816 E2.11202
G1 X54.517 Y84.483 E2.14615
G1 X54.184 Y84.048 E2.18029
G1 X53.975 Y83.543 E2.21442
G1 X53.903 Y83.000 E2.24856
G1 X53.975 Y82.457 E2.28269
G1 X54.184 Y81.952 E2.31682
G1 X54.517 Y81.517 E2.35096
G1 X54.892 Y81.230 E2.38041
G1 X55.021 Y81.156 E2.38969
G1 X54.892 Y81.230 F2220.000 E0.78969
G92 E0
G1 X56.599 Y85.522 F15000.000
G1 X56.004 Y85.601 F2220.000 E1.60000
G1 X56.000 Y85.601 F624.000 E1.60025
G1 X55.327 Y85.512 E1.64260
G1 X54.699 Y85.253 E1.68494
G1 X54.161 Y84.839 E1.72728
G1 X53.747 Y84.301 E1.76963
G1 X53.488 Y83.673 E1.81197
G1 X53.399 Y83.000 E1.85432
G1 X53.488 Y82.327 E1.89667
G1 X53.747 Y81.700 E1.93900
G1 X54.161 Y81.161 E1.98135
G1 X54.699 Y80.747 E2.02369
G1 X54.823 Y80.696 E2.03206
G1 X55.327 Y80.488 E2.06604
G1 X56.000 Y80.399 E2.10839
G1 X56.673 Y80.488 E2.15073
G1 X57.301 Y80.747 E2.19307
G1 X57.839 Y81.161 E2.23542
G1 X58.253 Y81.699 E2.27776
G1 X58.512 Y82.327 E2.32011
G1 X58.601 Y83.000 E2.36245
G1 X58.512 Y83.673 E2.40480
G1 X58.253 Y84.301 E2.44714
G1 X57.839 Y84.839 E2.48949
G1 X57.301 Y85.253 E2.53183
G1 X56.904 Y85.417 E2.55858
G1 X56.599 Y85.522
G1 F2220.000 E0.95858
G92 E0
G1 X55.926 Y69.087 F15000.000
G1 X55.457 Y69.025 F2220.000 E1.60000
G1 X55.457 Y69.025 F1560.000
G1 X54.952 Y68.816 E1.63413
G1 X54.517 Y68.483 E1.66827
G1 X54.184 Y68.048 E1.70240
G1 X53.975 Y67.543 E1.73654
G1 X53.903 Y67.000 E1.77068
G1 X53.975 Y66.457 E1.80481
G1 X54.158 Y66.015 E1.83467
G1 X54.184 Y65.952 E1.83894
G1 X54.517 Y65.517 E1.87307
G1 X54.952 Y65.184 E1.90721
G1 X55.015 Y65.158 E1.91148
G1 X55.457 Y64.975 E1.94134
G1 X56.000 Y64.903 E1.97548
G1 X56.543 Y64.975 E2.00961
G1 X56.606 Y65.001 E2.01388
G1 X57.048 Y65.184 E2.04375
G1 X57.483 Y65.517 E2.07788
G1 X57.816 Y65.952 E2.11202
G1 X58.025 Y66.457 E2.14615
G1 X58.097 Y67.000 E2.18028
G1 X58.025 Y67.543 E2.21442
G1 X57.816 Y68.048 E2.24855
G1 X57.483 Y68.483 E2.28269
G1 X57.048 Y68.816 E2.31682
G1 X56.543 Y69.025 E2.35096
G1 X56.074 Y69.087 E2.38041
G1 X55.926 Y69.087 E2.38969
G1 X56.074 Y69.087 F2220.000 E0.78969
G92 E0
G1 X54.115 Y68.780 F15000.000
G1 X53.750 Y68.304 F2220.000 E1.60000
G1 X53.747 Y68.301 F624.000 E1.60024
G1 X53.488 Y67.673 E1.64259
G1 X53.399 Y67.000 E1.68495
G1 X53.488 Y66.327 E1.72729
G1 X53.747 Y65.699 E1.76963
G1 X54.079 Y65.267 E1.80360
G1 X54.161 Y65.161 E1.81197
G1 X54.699 Y64.747 E1.85432
G1 X55.327 Y64.488 E1.89666
G1 X56.000 Y64.399 E1.93901
G1 X56.540 Y64.470 E1.97298
G1 X56.673 Y64.488 E1.98135
G1 X57.301 Y64.747 E2.02370
G1 X57.839 Y65.161 E2.06603
G1 X58.253 Y65.699 E2.10838
G1 X58.512 Y66.327 E2.15073
G1 X58.601 Y67.000 E2.19307
G1 X58.512 Y67.673 E2.23541
G1 X58.253 Y68.301 E2.27776
G1 X57.839 Y68.839 E2.32011
G1 X57.301 Y69.253 E2.36245
G1 X56.673 Y69.512 E2.40480
G1 X56.000 Y69.601 E2.44714
G1 X55.327 Y69.512 E2.48948
G1 X54.700 Y69.253 E2.53183
G1 X54.359 Y68.991 E2.55858
G1 X54.115 Y68.780
G1 F2220.000 E0.95858
G92 E0
G1 X73.003 Y74.388 F15000.000
G1 X73.184 Y73.952 F2220.000 E1.60000
G1 X73.184 Y73.952 F1560.000
G1 X73.517 Y73.517 E1.63413
G1 X73.952 Y73.184 E1.66827
G1 X74.457 Y72.975 E1.70240
G1 X75.000 Y72.903 E1.73654
G1 X75.084 Y72.914 E1.74184
G1 X75.543 Y72.975 E1.77067
G1 X76.048 Y73.184 E1.80481
G1 X76.483 Y73.517 E1.83894
G1 X76.816 Y73.952 E1.87308
G1 X77.025 Y74.457 E1.90721
G1 X77.097 Y75.000 E1.94134
G1 X77.025 Y75.543 E1.97548
G1 X76.816 Y76.048 E2.00961
G1 X76.483 Y76.483 E2.04375
G1 X76.048 Y76.816 E2.07788
G1 X75.543 Y77.025 E2.11202
G1 X75.000 Y77.097 E2.14615
G1 X74.457 Y77.025 E2.18028
G1 X73.952 Y76.816 E2.21442
G1 X73.517 Y76.483 E2.24855
G1 X73.184 Y76.048 E2.28269
G1 X72.975 Y75.543 E2.31682
G1 X72.903 Y75.000 E2.35096
G1 X72.965 Y74.532 E2.38041
G1 X73.003 Y74.388 E2.38969
G1 X72.965 Y74.532 F2220.000 E0.78969
G92 E0
G1 X77.484 Y75.742 F15000.000
G1 X77.254 Y76.297 F2220.000 E1.60000
G1 X77.253 Y76.301 F624.000 E1.60025
G1 X76.839 Y76.839 E1.64259
G1 X76.301 Y77.253 E1.68494
G1 X75.673 Y77.512 E1.72728
G1 X75.000 Y77.601 E1.76963
G1 X74.327 Y77.512 E1.81197
G1 X73.699 Y77.253 E1.85432
G1 X73.161 Y76.839 E1.89666
G1 X72.747 Y76.301 E1.93901
G1 X72.488 Y75.673 E1.98135
G1 X72.399 Y75.000 E2.02370
G1 X72.419 Y74.850 E2.03311
G1 X72.488 Y74.327 E2.06604
G1 X72.747 Y73.699 E2.10839
G1 X73.161 Y73.161 E2.15073
G1 X73.699 Y72.747 E2.19307
G1 X74.327 Y72.488 E2.23542
G1 X74.850 Y72.419 E2.26835
G1 X75.000 Y72.399 E2.27776
G1 X75.673 Y72.488 E2.32011
G1 X76.301 Y72.747 E2.36245
G1 X76.839 Y73.161 E2.40480
G1 X77.253 Y73.699 E2.44714
G1 X77.512 Y74.327 E2.48949
G1 X77.601 Y75.000 E2.53183
G1 X77.545 Y75.425 E2.55859
G1 X77.484 Y75.742
G1 F2220.000 E0.95859
G92 E0
G1 X92.155 Y67.979 F15000.000
G1 X91.975 Y67.543 F2220.000 E1.60000
G1 X91.975 Y67.543 F1560.000
G1 X91.903 Y67.000 E1.63414
G1 X91.975 Y66.457 E1.66827
G1 X92.184 Y65.952 E1.70241
G1 X92.476 Y65.572 E1.73228
G1 X92.517 Y65.517 E1.73654
G1 X92.952 Y65.184 E1.77068
G1 X93.457 Y64.975 E1.80481
G1 X94.000 Y64.903 E1.83894
G1 X94.543 Y64.975 E1.87308
G1 X95.048 Y65.184 E1.90721
G1 X95.483 Y65.517 E1.94134
G1 X95.816 Y65.952 E1.97548
G1 X96.025 Y66.457 E2.00961
G1 X96.097 Y67.000 E2.04375
G1 X96.025 Y67.543 E2.07789
G1 X95.816 Y68.048 E2.11202
G1 X95.524 Y68.428 E2.14189
G1 X95.483 Y68.483 E2.14616
G1 X95.048 Y68.816 E2.18029
G1 X94.543 Y69.025 E2.21442
G1 X94.000 Y69.097 E2.24856
G1 X93.457 Y69.025 E2.28269
G1 X92.952 Y68.816 E2.31682
G1 X92.517 Y68.483 E2.35096
G1 X92.230 Y68.108 E2.38042
G1 X92.155 Y67.979 E2.38969
G1 X92.230 Y68.108 F2220.000 E0.78969
G92 E0
G1 X96.281 Y65.769 F15000.000
G1 X96.511 Y66.323 F2220.000 E1.60000
G1 X96.512 Y66.327 F624.000 E1.60025
G1 X96.601 Y67.000 E1.64259
G1 X96.512 Y67.673 E1.68495
G1 X96.253 Y68.301 E1.72728
G1 X95.921 Y68.733 E1.76126
G1 X95.839 Y68.839 E1.76963
G1 X95.301 Y69.253 E1.81197
G1 X94.673 Y69.512 E1.85432
G1 X94.133 Y69.584 E1.88829
G1 X94.000 Y69.601 E1.89666
G1 X93.327 Y69.512 E1.93901
G1 X92.700 Y69.253 E1.98135
G1 X92.161 Y68.839 E2.02369
G1 X91.829 Y68.407 E2.05767
G1 X91.747 Y68.300 E2.06604
G1 X91.488 Y67.673 E2.10838
G1 X91.399 Y67.000 E2.15073
G1 X91.488 Y66.327 E2.19308
G1 X91.747 Y65.699 E2.23542
G1 X92.079 Y65.267 E2.26940
G1 X92.161 Y65.161 E2.27776
G1 X92.700 Y64.747 E2.32011
G1 X93.327 Y64.488 E2.36245
G1 X94.000 Y64.399 E2.40480
G1 X94.673 Y64.488 E2.44715
G1 X95.301 Y64.747 E2.48949
G1 X95.839 Y65.161 E2.53182
G1 X96.100 Y65.501 E2.55858
G1 X96.281 Y65.769
G1 F2220.000 E0.95858
G92 E0
G1 X94.549 Y80.977 F15000.000
G1 X95.048 Y81.184 F2220.000 E1.60000
G1 X95.048 Y81.184 F1560.000
G1 X95.483 Y81.517 E1.63413
G1 X95.816 Y81.952 E1.66827
G1 X96.025 Y82.457 E1.70240
G1 X96.097 Y83.000 E1.73654
G1 X96.025 Y83.543 E1.77067
G1 X95.816 Y84.048 E1.80481
G1 X95.483 Y84.483 E1.83894
G1 X95.048 Y84.816 E1.87307
G1 X94.543 Y85.025 E1.90721
G1 X94.068 Y85.088 E1.93708
G1 X94.000 Y85.097 E1.94134
G1 X93.457 Y85.025 E1.97548
G1 X92.952 Y84.816 E2.00961
G1 X92.897 Y84.774 E2.01388
G1 X92.517 Y84.483 E2.04375
G1 X92.184 Y84.048 E2.07788
G1 X91.975 Y83.543 E2.11202
G1 X91.912 Y83.068 E2.14188
G1 X91.903 Y83.000 E2.14615
G1 X91.975 Y82.457 E2.18029
G1 X92.184 Y81.952 E2.21442
G1 X92.517 Y81.517 E2.24855
G1 X92.952 Y81.184 E2.28268
G1 X93.457 Y80.975 E2.31682
G1 X94.000 Y80.903 E2.35096
G1 X94.400 Y80.956 E2.37615
G1 X94.549 Y80.977 E2.38549
G1 X94.400 Y80.956 F2220.000 E0.78549
G92 E0
G1 X91.409 Y82.926 F15000.000
G1 X91.487 Y82.331 F2220.000 E1.60000
G1 X91.488 Y82.327 F624.000 E1.60025
G1 X91.696 Y81.823 E1.63422
G1 X91.747 Y81.699 E1.64260
G1 X92.161 Y81.161 E1.68494
G1 X92.699 Y80.747 E1.72728
G1 X93.327 Y80.488 E1.76963
G1 X94.000 Y80.399 E1.81197
G1 X94.673 Y80.488 E1.85431
G1 X94.797 Y80.539 E1.86268
G1 X95.301 Y80.747 E1.89666
G1 X95.839 Y81.161 E1.93900
G1 X96.253 Y81.699 E1.98135
G1 X96.512 Y82.327 E2.02369
G1 X96.601 Y83.000 E2.06604
G1 X96.512 Y83.673 E2.10838
G1 X96.253 Y84.301 E2.15073
G1 X95.839 Y84.839 E2.19308
G1 X95.301 Y85.253 E2.23542
G1 X94.797 Y85.461 E2.26939
G1 X94.673 Y85.512 E2.27776
G1 X94.000 Y85.601 E2.32011
G1 X93.327 Y85.512 E2.36245
G1 X92.823 Y85.304 E2.39643
G1 X92.699 Y85.253 E2.40480
G1 X92.161 Y84.839 E2.44714
G1 X91.747 Y84.301 E2.48948
G1 X91.488 Y83.673 E2.53183
G1 X91.432 Y83.248 E2.55858
G1 X91.409 Y82.926
G1 F2220.000 E0.95858
G92 E0
G1 X93.911 Y87.750 F15000.000
G1 X93.311 Y87.750 F2220.000 E1.60000
G1 X56.014 Y87.750 F576.000 E3.92594
G1 X54.943 Y87.629 E3.99313
G1 X53.940 Y87.278 E4.05944
G1 X53.039 Y86.712 E4.12575
G1 X52.288 Y85.961 E4.19206
G1 X51.722 Y85.060 E4.25837
G1 X51.371 Y84.057 E4.32468
G1 X51.250 Y82.986 E4.39188
G1 X51.250 Y67.014 E5.38793
G1 X51.371 Y65.943 E5.45512
G1 X51.722 Y64.940 E5.52143
G1 X52.288 Y64.039 E5.58774
G1 X53.039 Y63.288 E5.65405
G1 X53.940 Y62.722 E5.72036
G1 X54.943 Y62.371 E5.78668
G1 X56.014 Y62.250 E5.85387
G1 X93.986 Y62.250 E8.22190
G1 X95.057 Y62.371 E8.28909
G1 X96.060 Y62.722 E8.35540
G1 X96.961 Y63.288 E8.42171
G1 X97.712 Y64.039 E8.48803
G1 X98.278 Y64.940 E8.55434
G1 X98.629 Y65.943 E8.62065
G1 X98.778 Y67.264 E8.70354
G1 X98.750 Y67.264 E8.70530
G1 X98.750 Y82.986 E9.68575
G1 X98.629 Y84.057 E9.75294
G1 X98.278 Y85.060 E9.81925
G1 X97.712 Y85.961 E9.88556
G1 X96.961 Y86.712 E9.95187
G1 X96.060 Y87.278 E10.01818
G1 X95.057 Y87.629 E10.08449
G1 X94.060 Y87.742 E10.14701
G1 X93.911 Y87.750 E10.15635
G1 X93.883 Y87.250 F15000.000
G1 X56.042 Y87.250 F720.000 E12.51620
G1 X55.055 Y87.139 E12.57813
G1 X54.158 Y86.825 E12.63741
G1 X53.353 Y86.319 E12.69670
G1 X52.681 Y85.647 E12.75598
G1 X52.175 Y84.842 E12.81527
G1 X51.861 Y83.945 E12.87455
G1 X51.750 Y82.958 E12.93648
G1 X51.750 Y67.042 E13.92903
G1 X51.861 Y66.055 E13.99096
G1 X52.175 Y65.158 E14.05024
G1 X52.681 Y64.353 E14.10953
G1 X53.353 Y63.681 E14.16881
G1 X54.158 Y63.175 E14.22809
G1 X55.055 Y62.861 E14.28738
G1 X56.042 Y62.750 E14.34931
G1 X93.958 Y62.750 E16.71384
G1 X94.945 Y62.861 E16.77576
G1 X95.842 Y63.175 E16.83505
G1 X96.647 Y63.681 E16.89433
G1 X97.319 Y64.353 E16.95362
G1 X97.825 Y65.158 E17.01290
G1 X98.139 Y66.055 E17.07219
G1 X98.250 Y67.042 E17.13411
G1 X98.250 Y82.958 E18.12666
G1 X98.139 Y83.945 E18.18859
G1 X97.825 Y84.842 E18.24788
G1 X97.319 Y85.647 E18.30716
G1 X96.647 Y86.319 E18.36644
G1 X95.842 Y86.825 E18.42573
G1 X94.945 Y87.139 E18.48501
G1 X94.206 Y87.222 E18.53135
G1 X93.883 Y87.250
G1 X92.227 Y86.909 F15000.000
G1 X68.408 Y63.091 F1152.000 E20.63758
G1 X69.117 Y63.091 E20.68191
G1 X92.936 Y86.909 E22.78814
G1 X92.190 Y85.455 F15000.000
G1 X93.645 Y86.909 F1152.000 E22.91676
G1 X94.327 Y86.882 E22.95944
G1 X93.322 Y85.878 E23.04828
G1 X94.069 Y85.916 E23.09506
G1 X94.964 Y86.811 E23.17417
G1 X95.494 Y86.632 E23.20915
G1 X94.686 Y85.823 E23.28064
G1 X95.187 Y85.616 E23.31457
G1 X95.979 Y86.408 E23.38459
G1 X96.414 Y86.134 E23.41675
G1 X95.629 Y85.349 E23.48615
G1 X96.031 Y85.041 E23.51777
G1 X96.783 Y85.794 E23.58432
G1 X97.126 Y85.427 E23.61568
G1 X96.340 Y84.642 E23.68517
G1 X96.609 Y84.202 E23.71741
G1 X97.399 Y84.992 E23.78726
G1 X97.626 Y84.510 E23.82058
G1 X96.817 Y83.701 E23.89213
G1 X96.914 Y83.088 E23.93090
G1 X97.808 Y83.983 E24.01003
G1 X97.880 Y83.346 E24.05013
G1 X96.881 Y82.347 E24.13848
G1 X97.909 Y82.666 E24.20579
G1 X96.526 Y81.282 E24.32814
G1 X95.718 Y80.474 F15000.000
G1 X78.334 Y63.091 F1152.000 E25.86535
G1 X79.043 Y63.091 E25.90968
G1 X97.909 Y81.957 E27.57799
G1 X97.909 Y81.248 E27.62232
G1 X79.752 Y63.091 E29.22794
G1 X80.461 Y63.091 E29.27227
G1 X97.909 Y80.539 E30.81520
G1 X97.909 Y79.830 E30.85953
G1 X81.170 Y63.091 E32.33976
G1 X81.879 Y63.091 E32.38409
G1 X97.909 Y79.121 E33.80163
G1 X97.909 Y78.412 E33.84596
G1 X82.588 Y63.091 E35.20080
G1 X83.297 Y63.091 E35.24514
G1 X97.909 Y77.703 E36.53728
G1 X97.909 Y76.994 E36.58161
G1 X84.006 Y63.091 E37.81107
G1 X84.715 Y63.091 E37.85540
G1 X97.909 Y76.285 E39.02216
G1 X97.909 Y75.576 E39.06649
G1 X85.424 Y63.091 E40.17055
G1 X86.133 Y63.091 E40.21488
G1 X91.269 Y68.227 E40.66908
G1 X91.076 Y67.325 E40.72679
G1 X86.842 Y63.091 E41.10118
G1 X87.551 Y63.091 E41.14552
G1 X91.120 Y66.660 E41.46110
