; generated by Slic3r 0.9.9-dev on 2013-03-13 at 12:48:56

; layer_height = 0.3
; perimeters = 2
; top_solid_layers = 3
; bottom_solid_layers = 2
; fill_density = 0.2
; perimeter_speed = 30
; infill_speed = 48
; travel_speed = 250
; scale = 1
; nozzle_diameter = 0.5
; filament_diameter = 1.75
; extrusion_multiplier = 1.0
; perimeters extrusion width = 0.50mm
; infill extrusion width = 0.50mm
; first layer extrusion width = 0.50mm

M107
M190 S57 ; wait for bed temperature to be reached
M104 S200 ; set temperature
G28 X0 Y0
G1 X75 Y75 F12000
G28 Z0
G1 Z0.3 F200
G1 X15 Y20 F12000
M109 S200 ; wait for temperature to be reached
G90 ; use absolute coordinates
G21 ; set units to millimeters
G92 E0
M82 ; use absolute distances for extrusion
G1 F2220.000 E-1.60000
G92 E0
G1 Z0.300 F15000.000
G1 X60.280 Y46.370
G1 X60.680 Y45.930 F2220.000 E1.60000
G1 X60.680 Y45.930 F1800.000
G1 X61.430 Y45.180 E1.66615
G1 X61.870 Y44.780 E1.70323
G1 X62.350 Y44.420 E1.74065
G1 X63.500 Y43.700 E1.82526
G1 X64.000 Y43.420 E1.86100
G1 X64.530 Y43.180 E1.89728
G1 X66.080 Y42.640 E1.99964
G1 X66.640 Y42.500 E2.03564
G1 X67.210 Y42.410 E2.07163
G1 X68.270 Y42.290 E2.13815
G1 X68.730 Y42.260 E2.16690
G1 X80.730 Y41.760 E2.91590
G1 X81.740 Y41.790 E2.97892
G1 X82.790 Y41.910 E3.04483
G1 X83.350 Y42.000 E3.08020
G1 X83.910 Y42.140 E3.11619
G1 X85.190 Y42.580 E3.20060
G1 X85.730 Y42.790 E3.23674
G1 X86.240 Y43.050 E3.27244
G1 X87.640 Y43.920 E3.37523
G1 X88.120 Y44.280 E3.41265
G1 X88.560 Y44.680 E3.44973
G1 X89.310 Y45.430 E3.51588
G1 X89.710 Y45.870 E3.55296
G1 X90.070 Y46.350 E3.59038
G1 X90.230 Y46.600 E3.60889
G1 X90.940 Y47.750 E3.69317
G1 X91.200 Y48.260 E3.72887
G1 X91.410 Y48.800 E3.76500
G1 X91.850 Y50.070 E3.84882
G1 X91.980 Y50.610 E3.88346
G1 X92.070 Y51.160 E3.91822
G1 X92.200 Y52.230 E3.98544
G1 X92.250 Y53.010 E4.03418
G1 X92.250 Y96.980 E6.77627
G1 X92.200 Y97.760 E6.82501
G1 X92.030 Y99.110 E6.90987
G1 X91.920 Y99.650 E6.94423
G1 X91.850 Y99.920 E6.96163
G1 X91.410 Y101.190 E7.04545
G1 X91.200 Y101.730 E7.08158
G1 X90.940 Y102.240 E7.11728
G1 X90.070 Y103.640 E7.22007
G1 X89.710 Y104.120 E7.25749
G1 X89.310 Y104.560 E7.29457
G1 X88.560 Y105.310 E7.36072
G1 X88.120 Y105.710 E7.39780
G1 X87.640 Y106.070 E7.43522
G1 X87.390 Y106.230 E7.45373
G1 X86.240 Y106.940 E7.53801
G1 X85.730 Y107.200 E7.57371
G1 X85.190 Y107.410 E7.60985
G1 X84.180 Y107.760 E7.67651
G1 X83.630 Y107.930 E7.71241
G1 X82.780 Y108.080 E7.76624
G1 X81.720 Y108.200 E7.83276
G1 X80.990 Y108.240 E7.87836
G1 X68.990 Y108.240 E8.62671
G1 X68.250 Y108.200 E8.67293
G1 X67.200 Y108.080 E8.73883
G1 X66.640 Y107.990 E8.77420
G1 X66.080 Y107.850 E8.81020
G1 X64.800 Y107.410 E8.89461
G1 X64.260 Y107.200 E8.93074
G1 X63.750 Y106.940 E8.96644
G1 X62.600 Y106.230 E9.05073
G1 X62.350 Y106.070 E9.06924
G1 X61.870 Y105.710 E9.10665
G1 X61.430 Y105.310 E9.14374
G1 X60.680 Y104.560 E9.20988
G1 X60.280 Y104.120 E9.24697
G1 X59.920 Y103.640 E9.28439
G1 X59.760 Y103.390 E9.30290
G1 X59.050 Y102.240 E9.38718
G1 X58.790 Y101.730 E9.42288
G1 X58.580 Y101.190 E9.45901
G1 X58.140 Y99.920 E9.54283
G1 X58.010 Y99.380 E9.57747
G1 X57.920 Y98.830 E9.61223
G1 X57.790 Y97.760 E9.67944
G1 X57.740 Y96.980 E9.72819
G1 X57.740 Y53.510 E12.43910
G1 X57.790 Y52.730 E12.48784
G1 X57.920 Y51.660 E12.55506
G1 X58.010 Y51.110 E12.58981
G1 X58.140 Y50.570 E12.62445
G1 X58.580 Y49.300 E12.70827
G1 X58.790 Y48.760 E12.74440
G1 X59.050 Y48.250 E12.78010
G1 X59.920 Y46.850 E12.88290
G1 X60.235 Y46.430 E12.91564
G1 X60.280 Y46.370 E12.92031
G1 F2220.000 E11.32031
G92 E0
G1 X79.216 Y79.112 F15000.000
G1 X79.715 Y78.779 F2220.000 E1.60000
G1 X80.001 Y78.588 F624.000 E1.62143
G1 X81.000 Y78.389 E1.68496
G1 X81.999 Y78.588 E1.74849
G1 X82.846 Y79.154 E1.81202
G1 X83.412 Y80.001 E1.87555
G1 X83.611 Y81.000 E1.93908
G1 X83.412 Y81.999 E2.00261
G1 X82.846 Y82.846 E2.06614
G1 X81.999 Y83.412 E2.12967
G1 X81.000 Y83.611 E2.19320
G1 X80.001 Y83.412 E2.25673
G1 X79.154 Y82.846 E2.32026
G1 X78.588 Y81.999 E2.38379
G1 X78.389 Y81.000 E2.44732
G1 X78.588 Y80.001 E2.51085
G1 X78.959 Y79.445 E2.55255
G1 X79.216 Y79.112
G1 X79.577 Y79.473 F15000.000
G1 X80.196 Y79.059 F576.000 E2.59900
G1 X81.000 Y78.899 E2.65012
G1 X81.804 Y79.059 E2.70125
G1 X82.486 Y79.514 E2.75237
G1 X82.941 Y80.196 E2.80350
G1 X83.101 Y81.000 E2.85462
G1 X82.941 Y81.804 E2.90575
G1 X82.486 Y82.486 E2.95687
G1 X81.804 Y82.941 E3.00800
G1 X81.000 Y83.101 E3.05912
G1 X80.196 Y82.941 E3.11025
G1 X79.514 Y82.486 E3.16137
G1 X79.059 Y81.804 E3.21250
G1 X78.899 Y81.000 E3.26362
G1 X79.059 Y80.196 E3.31475
G1 X79.473 Y79.577 E3.36119
G1 X79.577 Y79.473 E3.37037
G1 X78.959 Y79.445 F2220.000 E1.77037
G92 E0
G1 X79.939 Y99.370 F15000.000
G1 X79.440 Y99.037 F2220.000 E1.60000
G1 X79.154 Y98.846 F624.000 E1.62143
G1 X78.588 Y97.999 E1.68496
G1 X78.389 Y97.000 E1.74849
G1 X78.588 Y96.001 E1.81202
G1 X79.154 Y95.154 E1.87555
G1 X80.001 Y94.588 E1.93908
G1 X81.000 Y94.389 E2.00261
G1 X81.999 Y94.588 E2.06614
G1 X82.846 Y95.154 E2.12967
G1 X83.412 Y96.001 E2.19320
G1 X83.611 Y97.000 E2.25673
G1 X83.412 Y97.999 E2.32026
G1 X82.846 Y98.846 E2.38379
G1 X81.999 Y99.412 E2.44732
G1 X81.000 Y99.611 E2.51085
G1 X80.344 Y99.480 E2.55255
G1 X79.939 Y99.370
G1 X80.134 Y98.899 F15000.000
G1 X79.514 Y98.486 F576.000 E2.59900
G1 X79.059 Y97.804 E2.65012
G1 X78.899 Y97.000 E2.70125
G1 X79.059 Y96.196 E2.75237
G1 X79.514 Y95.514 E2.80350
G1 X80.196 Y95.059 E2.85462
G1 X81.000 Y94.899 E2.90575
G1 X81.804 Y95.059 E2.95687
G1 X82.486 Y95.514 E3.00800
G1 X82.941 Y96.196 E3.05912
G1 X83.101 Y97.000 E3.11025
G1 X82.941 Y97.804 E3.16137
G1 X82.486 Y98.486 E3.21250
G1 X81.804 Y98.941 E3.26362
G1 X81.000 Y99.101 E3.31475
G1 X80.270 Y98.956 E3.36119
G1 X80.134 Y98.899 E3.37037
G1 X80.344 Y99.480 F2220.000 E1.77037
G92 E0
G1 X79.095 Y100.785 F15000.000
G1 X78.587 Y100.466 F2220.000 E1.60000
G1 X78.353 Y100.319 F720.000 E1.61719
G1 X77.681 Y99.647 E1.67647
G1 X77.175 Y98.842 E1.73576
G1 X76.861 Y97.945 E1.79504
G1 X76.750 Y96.958 E1.85697
G1 X76.750 Y81.042 E2.84952
G1 X76.861 Y80.055 E2.91145
G1 X77.175 Y79.158 E2.97073
G1 X77.681 Y78.353 E3.03002
G1 X78.353 Y77.681 E3.08930
G1 X79.158 Y77.175 E3.14858
G1 X80.055 Y76.861 E3.20787
G1 X81.000 Y76.755 E3.26715
G1 X81.945 Y76.861 E3.32644
G1 X82.842 Y77.175 E3.38572
G1 X83.647 Y77.681 E3.44501
G1 X84.319 Y78.353 E3.50429
G1 X84.825 Y79.158 E3.56357
G1 X85.139 Y80.055 E3.62286
G1 X85.250 Y81.042 E3.68479
G1 X85.250 Y96.958 E4.67734
G1 X85.139 Y97.945 E4.73926
G1 X84.825 Y98.842 E4.79855
G1 X84.319 Y99.647 E4.85783
G1 X83.647 Y100.319 E4.91712
G1 X82.842 Y100.825 E4.97640
G1 X81.945 Y101.139 E5.03569
G1 X81.000 Y101.245 E5.09497
G1 X80.055 Y101.139 E5.15425
G1 X79.488 Y100.940 E5.19171
G1 X79.095 Y100.785
G1 X78.876 Y101.238 F15000.000
G1 X78.039 Y100.712 F576.000 E5.25334
G1 X77.288 Y99.961 E5.31966
G1 X76.722 Y99.060 E5.38597
G1 X76.371 Y98.057 E5.45228
G1 X76.250 Y96.986 E5.51947
G1 X76.250 Y81.014 E6.51552
G1 X76.371 Y79.943 E6.58271
G1 X76.722 Y78.940 E6.64902
G1 X77.288 Y78.039 E6.71534
G1 X78.039 Y77.288 E6.78165
G1 X78.940 Y76.722 E6.84796
G1 X79.943 Y76.371 E6.91427
G1 X81.000 Y76.252 E6.98058
G1 X82.057 Y76.371 E7.04689
G1 X83.060 Y76.722 E7.11320
G1 X83.961 Y77.288 E7.17951
G1 X84.712 Y78.039 E7.24582
G1 X85.278 Y78.940 E7.31213
G1 X85.629 Y79.943 E7.37844
G1 X85.750 Y81.014 E7.44564
G1 X85.750 Y96.986 E8.44169
G1 X85.629 Y98.057 E8.50888
G1 X85.278 Y99.060 E8.57519
G1 X84.712 Y99.961 E8.64150
G1 X83.961 Y100.712 E8.70781
G1 X83.060 Y101.278 E8.77412
G1 X82.057 Y101.629 E8.84043
G1 X81.000 Y101.748 E8.90675
G1 X79.943 Y101.629 E8.97306
G1 X79.011 Y101.303 E9.03469
G1 X78.876 Y101.238 E9.04399
G1 X78.826 Y100.085 F15000.000
G1 X77.915 Y99.174 F1152.000 E9.12545
G1 X78.214 Y98.039 F15000.000
G1 X77.109 Y96.935 F1152.000 E9.22417
G1 X77.091 Y96.200 E9.27065
G1 X78.040 Y97.149 E9.35555
G1 X78.159 Y96.551 E9.39407
G1 X77.091 Y95.483 E9.48959
G1 X77.091 Y94.766 E9.53490
G1 X78.281 Y95.957 E9.64133
G1 X78.569 Y95.527 E9.67399
G1 X77.091 Y94.049 E9.80609
G1 X77.091 Y93.333 E9.85139
G1 X78.856 Y95.098 E10.00915
G1 X79.237 Y94.762 F15000.000
G1 X77.091 Y92.616 F1152.000 E10.20101
G1 X77.091 Y91.899 E10.24631
G1 X79.667 Y94.475 E10.47657
G1 X80.148 Y94.240 F15000.000
G1 X77.091 Y91.183 F1152.000 E10.74984
G1 X77.091 Y90.466 E10.79514
G1 X80.746 Y94.121 E11.12184
G1 X81.435 Y94.093 E11.16544
G1 X77.091 Y89.749 E11.55376
G1 X77.091 Y89.033 E11.59906
G1 X82.330 Y94.271 E12.06736
G1 F2220.000 E10.46736
G92 E0
G1 X83.729 Y95.670 F15000.000
G1 X84.153 Y96.095 F2220.000 E1.60000
G1 X84.909 Y96.851 F1152.000 E1.66761
G1 X84.861 Y97.519 E1.70995
G1 X83.907 Y96.565 E1.79524
G1 X83.879 Y97.254 E1.83885
G1 X84.758 Y98.133 E1.91740
G1 X84.572 Y98.664 E1.95296
G1 X83.760 Y97.852 E2.02554
G1 X83.525 Y98.333 F15000.000
G1 X84.316 Y99.125 F1152.000 E2.09627
G1 X84.026 Y99.551 E2.12888
G1 X83.238 Y98.763 E2.19934
G1 X82.902 Y99.144 F15000.000
G1 X83.668 Y99.910 F1152.000 E2.26774
G1 X83.267 Y100.226 E2.29999
G1 X82.473 Y99.431 E2.37102
G1 X82.043 Y99.719 E2.40368
G1 X82.827 Y100.503 E2.47378
G1 X82.306 Y100.698 E2.50899
G1 X81.449 Y99.841 E2.58560
G1 X80.851 Y99.959 E2.62413
G1 X81.728 Y100.837 E2.70258
G1 X81.065 Y100.891 E2.74463
G1 X79.961 Y99.786 E2.84335
G1 X80.232 Y100.775 E2.90813
G1 X77.225 Y97.768 E3.17693
G1 F2220.000 E1.57693
G92 E0
G1 X84.909 Y96.134 F15000.000
G1 X84.485 Y95.710 F2220.000 E1.60000
G1 X77.091 Y88.316 F1152.000 E2.26096
G1 X77.091 Y87.599 E2.30627
G1 X84.909 Y95.418 E3.00516
G1 X84.909 Y94.701 E3.05046
G1 X77.091 Y86.883 E3.74935
G1 X77.091 Y86.166 E3.79465
G1 X84.909 Y93.984 E4.49354
G1 X84.909 Y93.268 E4.53884
G1 X77.091 Y85.449 E5.23773
G1 X77.091 Y84.732 E5.28303
G1 X84.909 Y92.551 E5.98192
G1 X84.909 Y91.834 E6.02722
G1 X77.091 Y84.016 E6.72611
G1 X77.091 Y83.299 E6.77141
G1 X84.909 Y91.117 E7.47030
G1 X84.909 Y90.401 E7.51560
G1 X77.091 Y82.582 E8.21449
G1 X77.091 Y81.866 E8.25979
G1 X84.909 Y89.684 E8.95868
G1 X84.909 Y88.967 E9.00398
G1 X79.670 Y83.729 E9.47228
G1 X80.565 Y83.907 E9.52993
G1 X84.909 Y88.251 E9.91825
G1 X84.909 Y87.534 E9.96355
G1 X81.254 Y83.879 E10.29026
G1 X81.852 Y83.760 E10.32878
G1 X84.909 Y86.817 E10.60205
G1 X84.909 Y86.101 E10.64735
G1 X82.333 Y83.525 E10.87762
G1 X82.763 Y83.238 E10.91028
G1 X84.909 Y85.384 E11.10213
G1 X84.909 Y84.667 E11.14744
G1 X83.144 Y82.902 E11.30519
G1 X83.431 Y82.473 E11.33785
G1 X84.909 Y83.951 E11.46995
G1 X84.909 Y83.234 E11.51525
G1 X83.719 Y82.043 E11.62169
G1 X83.841 Y81.449 E11.66006
G1 X84.909 Y82.517 E11.75558
G1 X84.909 Y81.800 E11.80088
G1 X83.959 Y80.851 E11.88578
G1 X83.786 Y79.961 E11.94307
G1 X84.891 Y81.065 E12.04179
G1 X84.775 Y80.232 E12.09494
G1 X81.768 Y77.225 E12.36374
G1 X80.935 Y77.109 E12.41689
G1 X82.039 Y78.214 E12.51560
G1 X81.149 Y78.040 E12.57290
G1 X80.272 Y77.163 E12.65135
G1 X79.694 Y77.302 E12.68889
G1 X80.551 Y78.159 E12.76550
G1 X79.957 Y78.281 E12.80387
G1 X79.173 Y77.497 E12.87397
G1 X78.733 Y77.774 E12.90683
G1 X79.527 Y78.569 E12.97786
G1 X79.098 Y78.856 E13.01052
G1 X78.332 Y78.090 E13.07892
G1 X77.974 Y78.449 E13.11095
G1 X78.762 Y79.237 E13.18142
G1 X78.475 Y79.667 E13.21408
G1 X77.684 Y78.875 E13.28481
G1 X77.428 Y79.336 E13.31812
G1 X78.240 Y80.148 E13.39069
G1 X78.121 Y80.746 E13.42922
G1 X77.242 Y79.867 E13.50778
G1 X77.139 Y80.481 E13.54712
G1 X78.093 Y81.435 E13.63241
G1 X78.271 Y82.330 E13.69007
G1 X77.091 Y81.149 E13.79560
G1 F2220.000 E12.19560
G92 E0
G1 X83.174 Y77.915 F15000.000
G1 X83.598 Y78.339 F2220.000 E1.60000
G1 X84.085 Y78.826 F1152.000 E1.64354
G1 F2220.000 E0.04354
G92 E0
G1 X82.061 Y50.630 F15000.000
G1 X82.560 Y50.963 F2220.000 E1.60000
G1 X82.846 Y51.154 F624.000 E1.62143
G1 X83.412 Y52.001 E1.68496
G1 X83.611 Y53.000 E1.74849
G1 X83.412 Y53.999 E1.81202
G1 X82.846 Y54.846 E1.87555
G1 X81.999 Y55.412 E1.93908
G1 X81.000 Y55.611 E2.00261
G1 X80.001 Y55.412 E2.06614
G1 X79.154 Y54.846 E2.12967
G1 X78.588 Y53.999 E2.19320
G1 X78.389 Y53.000 E2.25673
G1 X78.588 Y52.001 E2.32026
G1 X79.154 Y51.154 E2.38379
G1 X80.001 Y50.588 E2.44732
G1 X81.000 Y50.389 E2.51085
G1 X81.656 Y50.520 E2.55255
G1 X82.061 Y50.630
G1 X81.866 Y51.101 F15000.000
G1 X82.486 Y51.514 F576.000 E2.59900
G1 X82.941 Y52.196 E2.65012
G1 X83.101 Y53.000 E2.70125
G1 X82.941 Y53.804 E2.75237
G1 X82.486 Y54.486 E2.80350
G1 X81.804 Y54.941 E2.85462
G1 X81.000 Y55.101 E2.90575
G1 X80.196 Y54.941 E2.95687
G1 X79.514 Y54.486 E3.00800
G1 X79.059 Y53.804 E3.05912
G1 X78.899 Y53.000 E3.11025
G1 X79.059 Y52.196 E3.16137
G1 X79.514 Y51.514 E3.21250
G1 X80.196 Y51.059 E3.26362
G1 X81.000 Y50.899 E3.31475
G1 X81.730 Y51.044 E3.36119
G1 X81.866 Y51.101 E3.37037
G1 X81.656 Y50.520 F2220.000 E1.77037
G92 E0
G1 X79.216 Y67.112 F15000.000
G1 X79.715 Y66.779 F2220.000 E1.60000
G1 X80.001 Y66.588 F624.000 E1.62143
G1 X81.000 Y66.389 E1.68496
G1 X81.999 Y66.588 E1.74849
G1 X82.846 Y67.154 E1.81202
G1 X83.412 Y68.001 E1.87555
G1 X83.611 Y69.000 E1.93908
G1 X83.412 Y69.999 E2.00261
G1 X82.846 Y70.846 E2.06614
G1 X81.999 Y71.412 E2.12967
G1 X81.000 Y71.611 E2.19320
G1 X80.001 Y71.412 E2.25673
G1 X79.154 Y70.846 E2.32026
G1 X78.588 Y69.999 E2.38379
G1 X78.389 Y69.000 E2.44732
G1 X78.588 Y68.001 E2.51085
G1 X78.959 Y67.445 E2.55255
G1 X79.216 Y67.112
G1 X79.577 Y67.473 F15000.000
G1 X80.196 Y67.059 F576.000 E2.59900
G1 X81.000 Y66.899 E2.65012
G1 X81.804 Y67.059 E2.70125
G1 X82.486 Y67.514 E2.75237
G1 X82.941 Y68.196 E2.80350
G1 X83.101 Y69.000 E2.85462
G1 X82.941 Y69.804 E2.90575
G1 X82.486 Y70.486 E2.95687
G1 X81.804 Y70.941 E3.00800
G1 X81.000 Y71.101 E3.05912
G1 X80.196 Y70.941 E3.11025
G1 X79.514 Y70.486 E3.16137
G1 X79.059 Y69.804 E3.21250
G1 X78.899 Y69.000 E3.26362
G1 X79.059 Y68.196 E3.31474
G1 X79.473 Y67.577 E3.36119
G1 X79.577 Y67.473 E3.37037
G1 X78.959 Y67.445 F2220.000 E1.77037
G92 E0
G1 X76.750 Y68.883 F15000.000
G1 X76.750 Y68.283 F2220.000 E1.60000
G1 X76.750 Y53.042 F720.000 E2.55046
G1 X76.861 Y52.055 E2.61238
G1 X77.175 Y51.158 E2.67167
G1 X77.681 Y50.353 E2.73095
G1 X78.353 Y49.681 E2.79024
G1 X79.158 Y49.175 E2.84952
G1 X80.055 Y48.861 E2.90880
G1 X81.000 Y48.755 E2.96809
G1 X81.945 Y48.861 E3.02737
G1 X82.842 Y49.175 E3.08666
G1 X83.647 Y49.681 E3.14594
G1 X84.319 Y50.353 E3.20523
G1 X84.825 Y51.158 E3.26451
G1 X85.139 Y52.055 E3.32379
G1 X85.250 Y53.042 E3.38572
G1 X85.250 Y68.958 E4.37827
G1 X85.139 Y69.945 E4.44020
G1 X84.825 Y70.842 E4.49948
G1 X84.319 Y71.647 E4.55877
G1 X83.647 Y72.319 E4.61805
G1 X82.842 Y72.825 E4.67734
G1 X81.945 Y73.139 E4.73662
G1 X81.000 Y73.245 E4.79591
G1 X80.055 Y73.139 E4.85519
G1 X79.158 Y72.825 E4.91447
G1 X78.353 Y72.319 E4.97376
G1 X77.681 Y71.647 E5.03304
G1 X77.175 Y70.842 E5.09233
G1 X76.861 Y69.945 E5.15161
G1 X76.789 Y69.306 E5.19171
G1 X76.750 Y68.883
G1 X76.250 Y68.911 F15000.000
G1 X76.250 Y53.014 F576.000 E6.18309
G1 X76.371 Y51.943 E6.25028
G1 X76.722 Y50.940 E6.31659
G1 X77.288 Y50.039 E6.38290
G1 X78.039 Y49.288 E6.44921
G1 X78.940 Y48.722 E6.51552
G1 X79.943 Y48.371 E6.58183
G1 X81.000 Y48.252 E6.64814
G1 X82.057 Y48.371 E6.71445
G1 X83.060 Y48.722 E6.78077
G1 X83.961 Y49.288 E6.84708
G1 X84.712 Y50.039 E6.91339
G1 X85.278 Y50.940 E6.97970
G1 X85.629 Y51.943 E7.04601
G1 X85.750 Y53.014 E7.11320
G1 X85.750 Y68.986 E8.10925
G1 X85.629 Y70.057 E8.17645
G1 X85.278 Y71.060 E8.24276
G1 X84.712 Y71.961 E8.30907
G1 X83.961 Y72.712 E8.37538
G1 X83.060 Y73.278 E8.44169
G1 X82.057 Y73.629 E8.50800
G1 X81.000 Y73.748 E8.57431
G1 X79.943 Y73.629 E8.64062
G1 X78.940 Y73.278 E8.70693
G1 X78.039 Y72.712 E8.77324
G1 X77.288 Y71.961 E8.83955
G1 X76.722 Y71.060 E8.90586
G1 X76.371 Y70.057 E8.97218
G1 X76.258 Y69.060 E9.03469
G1 X76.250 Y68.911 E9.04403
G1 X77.225 Y69.768 F15000.000
G1 X80.232 Y72.775 F1152.000 E9.31283
G1 X79.961 Y71.786 E9.37761
G1 X81.065 Y72.891 E9.47632
G1 X81.728 Y72.837 E9.51837
G1 X80.851 Y71.959 E9.59683
G1 X81.449 Y71.841 E9.63535
G1 X82.306 Y72.698 E9.71197
G1 X82.827 Y72.503 E9.74717
G1 X82.043 Y71.719 E9.81727
G1 X82.473 Y71.431 E9.84993
G1 X83.267 Y72.226 E9.92097
G1 X83.668 Y71.910 E9.95322
G1 X82.902 Y71.144 E10.02161
G1 X83.238 Y70.763 F15000.000
