; generated by Slic3r 0.9.9-dev on 2013-02-26 at 17:02:14

; layer_height = 0.3
; perimeters = 2
; top_solid_layers = 3
; bottom_solid_layers = 2
; fill_density = 0.2
; perimeter_speed = 30
; infill_speed = 48
; travel_speed = 250
; scale = 1
; nozzle_diameter = 0.5
; filament_diameter = 1.75
; extrusion_multiplier = 1.0
; perimeters extrusion width = 0.50mm
; infill extrusion width = 0.50mm
; first layer extrusion width = 0.50mm

M107
M190 S57 ; wait for bed temperature to be reached
M104 S200 ; set temperature
G28 X0 Y0
G1 X75 Y75 F12000
G28 Z0
G1 Z0.3 F200
G1 X15 Y20 F12000
M109 S200 ; wait for temperature to be reached
G90 ; use absolute coordinates
G21 ; set units to millimeters
G92 E0
M82 ; use absolute distances for extrusion
G1 F2220.000 E-1.60000
G92 E0
G1 Z0.300 F15000.000
G1 X46.273 Y40.407
G1 X46.677 Y39.964 F2220.000 E1.60000
G1 X46.683 Y39.957 F720.000 E1.60055
G1 X48.053 Y38.617 E1.72006
G1 X48.283 Y38.407 E1.73948
G1 X48.773 Y38.017 E1.77854
G1 X49.023 Y37.837 E1.79775
G1 X49.563 Y37.527 E1.83658
G1 X51.513 Y36.497 E1.97411
G1 X52.363 Y36.167 E2.03097
G1 X52.953 Y36.017 E2.06893
G1 X55.133 Y35.567 E2.20775
G1 X55.743 Y35.497 E2.24604
G1 X56.353 Y35.487 E2.28409
G1 X58.583 Y35.657 E2.42356
G1 X59.493 Y35.797 E2.48098
G1 X82.223 Y40.887 E3.93359
G1 X83.023 Y41.117 E3.98550
G1 X85.143 Y41.887 E4.12616
G1 X85.753 Y42.147 E4.16751
G1 X86.323 Y42.457 E4.20798
G1 X86.603 Y42.637 E4.22874
G1 X88.453 Y43.907 E4.36868
G1 X89.113 Y44.427 E4.42108
G1 X100.963 Y55.067 E5.41425
G1 X101.443 Y55.547 E5.45659
G1 X102.933 Y57.197 E5.59523
G1 X103.293 Y57.627 E5.63021
G1 X103.603 Y58.077 E5.66428
G1 X104.843 Y60.227 E5.81906
G1 X105.093 Y60.697 E5.85226
G1 X105.393 Y61.447 E5.90264
G1 X106.083 Y63.557 E6.04108
G1 X106.233 Y64.087 E6.07543
G1 X106.333 Y64.617 E6.10907
G1 X106.583 Y66.977 E6.25707
G1 X106.623 Y67.657 E6.29955
G1 X106.633 Y82.387 E7.21815
G1 X106.513 Y84.667 E7.36053
G1 X106.453 Y85.277 E7.39876
G1 X106.333 Y85.867 E7.43631
G1 X106.163 Y86.447 E7.47400
G1 X105.533 Y88.247 E7.59293
G1 X105.423 Y88.537 E7.61227
G1 X105.163 Y89.097 E7.65077
G1 X104.853 Y89.627 E7.68907
G1 X103.383 Y91.677 E7.84638
G1 X103.193 Y91.907 E7.86499
G1 X102.773 Y92.347 E7.90292
G1 X102.313 Y92.747 E7.94093
G1 X100.893 Y93.867 E8.05372
G1 X100.123 Y94.387 E8.11166
G1 X93.213 Y98.397 E8.60990
G1 X67.093 Y113.477 E10.49079
G1 X66.833 Y113.617 E10.50921
G1 X66.303 Y113.857 E10.54549
G1 X65.473 Y114.127 E10.59992
G1 X64.913 Y114.247 E10.63564
G1 X64.043 Y114.337 E10.69018
G1 X56.863 Y114.227 E11.13800
G1 X56.043 Y114.167 E11.18927
G1 X55.513 Y114.067 E11.22291
G1 X54.983 Y113.917 E11.25726
G1 X54.473 Y113.737 E11.29099
G1 X53.743 Y113.377 E11.34175
G1 X53.283 Y113.087 E11.37566
G1 X52.843 Y112.757 E11.40996
G1 X45.753 Y106.957 E11.98121
G1 X45.353 Y106.597 E12.01477
G1 X44.793 Y105.987 E12.06641
G1 X44.473 Y105.547 E12.10034
G1 X44.183 Y105.077 E12.13478
G1 X43.833 Y104.337 E12.18583
G1 X43.653 Y103.817 E12.22015
G1 X43.513 Y103.287 E12.25433
G1 X43.393 Y102.477 E12.30540
G1 X43.373 Y101.927 E12.33972
G1 X43.363 Y48.127 E15.69484
G1 X43.393 Y47.537 E15.73168
G1 X43.473 Y46.957 E15.76819
G1 X44.033 Y44.497 E15.92553
G1 X44.233 Y43.907 E15.96438
G1 X44.353 Y43.617 E15.98395
G1 X44.633 Y43.067 E16.02244
G1 X45.573 Y41.407 E16.14141
G1 X45.903 Y40.887 E16.17982
G1 X46.227 Y40.466 E16.21293
G1 X46.273 Y40.407 E16.21761
G1 F2220.000 E14.61761
G92 E0
G1 X71.156 Y87.481 F15000.000
G1 X71.736 Y87.636 F2220.000 E1.60000
G1 X72.371 Y87.807 F624.000 E1.64104
G1 X73.314 Y88.749 E1.72419
G1 X73.659 Y90.037 E1.80733
G1 X73.314 Y91.325 E1.89047
G1 X72.371 Y92.268 E1.97361
G1 X71.084 Y92.613 E2.05676
G1 X69.796 Y92.268 E2.13990
G1 X68.853 Y91.325 E2.22303
G1 X68.508 Y90.037 E2.30618
G1 X68.853 Y88.749 E2.38932
G1 X69.796 Y87.807 E2.47246
G1 X70.746 Y87.552 E2.53377
G1 X71.156 Y87.481
G1 X71.156 Y87.999 F15000.000
G1 X72.113 Y88.255 F576.000 E2.59552
G1 X72.866 Y89.008 E2.66196
G1 X73.142 Y90.037 E2.72839
G1 X72.866 Y91.066 E2.79482
G1 X72.113 Y91.819 E2.86125
G1 X71.084 Y92.095 E2.92769
G1 X70.055 Y91.819 E2.99412
G1 X69.302 Y91.066 E3.06054
G1 X69.026 Y90.037 E3.12698
G1 X69.302 Y89.008 E3.19341
G1 X70.055 Y88.255 E3.25984
G1 X71.011 Y87.999 E3.32159
G1 X71.156 Y87.999 E3.33063
G1 X70.746 Y87.552 F2220.000 E1.73063
G92 E0
G1 X69.401 Y81.960 F15000.000
G1 X69.986 Y81.829 F2220.000 E1.60000
G1 X91.996 Y76.899 F720.000 E3.00661
G1 X93.810 Y76.756 E3.12009
G1 X95.539 Y77.116 E3.23022
G1 X97.098 Y77.946 E3.34034
G1 X98.361 Y79.179 E3.45047
G1 X99.229 Y80.717 E3.56059
G1 X99.632 Y82.437 E3.67072
G1 X99.537 Y84.200 E3.78085
G1 X98.952 Y85.866 E3.89097
G1 X97.924 Y87.302 E4.00109
G1 X97.364 Y87.741 E4.04549
G1 X97.364 Y82.912 E4.34667
G1 X97.077 Y81.469 E4.43844
G1 X96.217 Y80.182 E4.53491
G1 X94.931 Y79.323 E4.63138
G1 X93.414 Y79.021 E4.72786
G1 X91.897 Y79.323 E4.82433
G1 X90.611 Y80.182 E4.92080
G1 X89.751 Y81.469 E5.01727
G1 X89.464 Y82.912 E5.10904
G1 X89.464 Y92.483 E5.70591
G1 X64.363 Y106.973 E7.51339
G1 X64.363 Y101.963 E7.82584
G1 X64.076 Y100.520 E7.91762
G1 X63.217 Y99.234 E8.01409
G1 X61.930 Y98.374 E8.11056
G1 X60.413 Y98.072 E8.20703
G1 X58.896 Y98.374 E8.30350
G1 X57.610 Y99.234 E8.39997
G1 X56.750 Y100.520 E8.49645
G1 X56.463 Y101.963 E8.58822
G1 X56.463 Y106.679 E8.88231
G1 X50.399 Y101.712 E9.37114
G1 X50.584 Y99.955 E9.48131
G1 X51.239 Y97.945 E9.61314
G1 X52.292 Y96.124 E9.74433
G1 X53.728 Y94.533 E9.87799
G1 X65.536 Y83.931 E10.86765
G1 X67.306 Y82.710 E11.00174
G1 X68.998 Y82.095 E11.11401
G1 X69.401 Y81.960
G1 X69.260 Y81.479 F15000.000
G1 X91.921 Y76.403 F576.000 E12.56224
G1 X93.842 Y76.252 E12.68240
G1 X95.711 Y76.641 E12.80143
G1 X97.396 Y77.538 E12.92047
G1 X98.762 Y78.871 E13.03950
G1 X99.700 Y80.534 E13.15854
G1 X100.135 Y82.392 E13.27758
G1 X100.033 Y84.298 E13.39662
G1 X99.400 Y86.099 E13.51565
G1 X98.289 Y87.651 E13.63468
G1 X96.864 Y88.769 E13.74765
G1 X96.864 Y82.961 E14.10987
G1 X96.606 Y81.664 E14.19237
G1 X95.857 Y80.543 E14.27643
G1 X94.736 Y79.794 E14.36050
G1 X93.414 Y79.531 E14.44457
G1 X92.092 Y79.794 E14.52864
G1 X90.971 Y80.543 E14.61270
G1 X90.222 Y81.664 E14.69677
G1 X89.964 Y82.961 E14.77927
G1 X89.964 Y92.772 E15.39107
G1 X63.863 Y107.839 E17.27055
G1 X63.863 Y102.012 E17.63394
G1 X63.605 Y100.715 E17.71644
G1 X62.856 Y99.594 E17.80051
G1 X61.735 Y98.845 E17.88457
G1 X60.413 Y98.582 E17.96864
G1 X59.091 Y98.845 E18.05271
G1 X57.970 Y99.594 E18.13677
G1 X57.221 Y100.715 E18.22084
G1 X56.963 Y102.012 E18.30335
G1 X56.963 Y107.735 E18.66021
G1 X49.874 Y101.928 E19.23172
G1 X50.093 Y99.850 E19.36199
G1 X50.780 Y97.740 E19.50039
G1 X51.886 Y95.828 E19.63814
G1 X53.375 Y94.178 E19.77672
G1 X65.226 Y83.537 E20.77001
G1 X67.075 Y82.262 E20.91010
G1 X69.116 Y81.521 E21.04552
G1 X69.260 Y81.479 E21.05486
G1 X68.892 Y82.449 F15000.000
G1 X82.576 Y96.133 F1152.000 E22.26972
G1 X83.027 Y95.873 E22.30244
G1 X69.426 Y82.271 E23.50994
G1 X70.008 Y82.141 E23.54735
G1 X83.478 Y95.612 E24.74329
G1 X83.930 Y95.352 E24.77600
G1 X70.589 Y82.011 E25.96038
G1 X71.171 Y81.881 E25.99779
G1 X84.381 Y95.091 E27.17060
G1 X84.832 Y94.831 E27.20331
G1 X71.752 Y81.750 E28.36455
G1 X72.334 Y81.620 E28.40197
G1 X85.284 Y94.570 E29.55164
G1 X85.735 Y94.309 E29.58436
G1 X72.915 Y81.490 E30.72247
G1 X73.497 Y81.360 E30.75988
G1 X86.186 Y94.049 E31.88643
G1 X86.637 Y93.788 E31.91914
G1 X74.078 Y81.229 E33.03413
G1 X74.660 Y81.099 E33.07154
G1 X87.089 Y93.528 E34.17496
G1 X87.540 Y93.267 E34.20767
G1 X75.242 Y80.969 E35.29953
G1 X75.823 Y80.839 E35.33694
G1 X87.991 Y93.007 E36.41723
G1 X88.443 Y92.746 E36.44994
G1 X76.405 Y80.708 E37.51866
G1 X76.986 Y80.578 E37.55608
G1 X88.894 Y92.486 E38.61324
G1 X89.123 Y92.003 E38.64677
G1 X77.568 Y80.448 E39.67266
G1 X78.149 Y80.318 E39.71008
G1 X89.123 Y91.292 E40.68434
G1 X89.123 Y90.580 E40.72902
G1 X78.731 Y80.187 E41.65166
G1 X79.312 Y80.057 E41.68907
G1 X89.123 Y89.868 E42.56008
G1 X89.123 Y89.156 E42.60476
G1 X79.894 Y79.927 E43.42414
G1 X80.475 Y79.797 E43.46155
G1 X89.123 Y88.444 E44.22929
G1 X89.123 Y87.733 E44.27398
G1 X81.057 Y79.666 E44.99009
G1 X81.639 Y79.536 E45.02751
G1 X89.123 Y87.021 E45.69199
G1 X89.123 Y86.309 E45.73668
G1 X82.220 Y79.406 E46.34954
G1 X82.802 Y79.276 E46.38695
G1 X89.123 Y85.597 E46.94818
G1 X89.123 Y84.885 E46.99286
G1 X83.383 Y79.145 E47.50246
G1 X83.965 Y79.015 E47.53987
G1 X89.123 Y84.174 E47.99784
G1 X89.123 Y83.462 E48.04252
G1 X84.546 Y78.885 E48.44886
G1 X85.128 Y78.755 E48.48628
G1 X89.168 Y82.795 E48.84499
G1 X89.286 Y82.201 E48.88299
G1 X85.709 Y78.624 E49.20056
G1 X86.291 Y78.494 E49.23798
G1 X89.404 Y81.608 E49.51440
G1 X89.640 Y81.132 F15000.000
G1 X86.872 Y78.364 F1152.000 E49.76014
G1 X87.454 Y78.234 E49.79755
G1 X89.926 Y80.705 E50.01697
G1 X90.211 Y80.278 E50.04919
G1 X88.036 Y78.103 E50.24229
G1 X88.617 Y77.973 E50.27971
G1 X90.539 Y79.895 E50.45031
G1 X90.965 Y79.610 E50.48252
G1 X89.199 Y77.843 E50.63938
G1 X89.780 Y77.713 E50.67679
G1 X91.392 Y79.324 E50.81989
G1 X91.819 Y79.039 E50.85211
G1 X90.362 Y77.582 E50.98146
G1 X90.943 Y77.452 E51.01887
G1 X92.396 Y78.905 E51.14785
G1 X92.990 Y78.787 E51.18585
G1 X91.525 Y77.322 E51.31590
G1 X92.133 Y77.218 E51.35461
G1 X93.588 Y78.674 E51.48386
G1 X94.477 Y78.850 E51.54074
G1 X92.793 Y77.166 E51.69029
G1 X93.452 Y77.114 E51.73184
G1 X95.479 Y79.141 E51.91177
G1 X95.190 Y77.428 F15000.000
G1 X98.948 Y81.186 F1152.000 E52.24533
G1 X99.165 Y82.115 E52.30526
G1 X94.291 Y77.241 E52.73798
G1 F2220.000 E51.13798
G92 E0
G1 X97.796 Y79.323 F15000.000
G1 X98.121 Y79.647 F2220.000 E1.60000
G1 X98.121 Y79.647 F2880.000
G1 X97.259 Y80.921 F15000.000
G1 X99.272 Y82.934 F1152.000 E1.77874
G1 X99.236 Y83.609 E1.82120
G1 X97.549 Y81.923 E1.97094
G1 X97.705 Y82.790 E2.02624
G1 X99.194 Y84.280 E2.15848
G1 X99.009 Y84.806 E2.19354
G1 X97.705 Y83.502 E2.30936
G1 X97.705 Y84.214 E2.35405
G1 X98.824 Y85.333 E2.45345
G1 X98.625 Y85.846 E2.48797
G1 X97.705 Y84.925 E2.56966
G1 X97.705 Y85.637 E2.61435
G1 X98.328 Y86.260 E2.66968
G1 F2220.000 E1.06968
G92 E0
G1 X69.489 Y103.688 F15000.000
G1 X69.065 Y103.264 F2220.000 E1.60000
G1 X57.403 Y91.603 F1152.000 E2.63528
G1 X57.778 Y91.266 E2.66692
G1 X69.940 Y103.428 E3.74663
G1 X70.391 Y103.167 E3.77934
G1 X58.153 Y90.929 E4.86582
G1 X58.528 Y90.593 E4.89747
G1 X70.843 Y102.907 E5.99071
G1 X71.294 Y102.646 E6.02342
G1 X58.904 Y90.256 E7.12344
G1 X59.279 Y89.919 E7.15508
G1 X71.745 Y102.386 E8.26187
G1 X72.196 Y102.125 E8.29458
G1 X59.654 Y89.582 E9.40813
G1 X60.029 Y89.246 E9.43977
G1 X72.648 Y101.865 E10.56009
G1 X73.099 Y101.604 E10.59280
G1 X60.404 Y88.909 E11.71989
G1 X60.779 Y88.572 E11.75153
G1 X73.550 Y101.344 E12.88538
G1 X74.002 Y101.083 E12.91810
G1 X61.154 Y88.235 E14.05872
G1 X61.529 Y87.899 E14.09036
G1 X74.453 Y100.823 E15.23775
G1 X74.904 Y100.562 E15.27046
G1 X61.904 Y87.562 E16.42462
G1 X62.279 Y87.225 E16.45626
G1 X75.355 Y100.301 E17.61719
G1 X75.807 Y100.041 E17.64990
G1 X62.654 Y86.888 E18.81760
G1 X63.029 Y86.551 E18.84924
G1 X76.258 Y99.780 E20.02370
G1 X76.709 Y99.520 E20.05641
G1 X69.881 Y92.691 E20.66266
G1 X70.853 Y92.952 E20.72585
G1 X77.161 Y99.259 E21.28583
G1 X77.612 Y98.999 E21.31855
G1 X71.445 Y92.832 E21.86607
G1 X72.006 Y92.681 E21.90255
G1 X78.063 Y98.738 E22.44030
G1 X78.514 Y98.478 E22.47301
G1 X72.532 Y92.496 E23.00412
G1 X72.888 Y92.140 E23.03571
G1 X78.966 Y98.217 E23.57528
G1 X79.417 Y97.957 E23.60799
G1 X73.244 Y91.784 E24.15603
G1 X73.600 Y91.428 E24.18763
G1 X79.868 Y97.696 E24.74413
G1 X80.320 Y97.436 E24.77684
G1 X73.752 Y90.868 E25.35988
G1 X73.903 Y90.307 E25.39636
G1 X80.771 Y97.175 E26.00611
G1 X81.222 Y96.915 E26.03883
G1 X73.956 Y89.649 E26.68389
G1 X73.696 Y88.677 E26.74707
G1 X81.673 Y96.654 E27.45532
G1 X82.125 Y96.394 E27.48803
G1 X68.370 Y82.639 E28.70920
G1 X67.847 Y82.828 E28.74408
G1 X72.444 Y87.425 E29.15218
G1 X71.472 Y87.165 E29.21537
G1 X67.335 Y83.028 E29.58261
G1 X66.914 Y83.319 E29.61473
G1 X70.814 Y87.218 E29.96094
G1 X70.252 Y87.369 E29.99742
G1 X66.493 Y83.609 E30.33119
G1 X66.072 Y83.900 E30.36331
G1 X69.693 Y87.521 E30.68480
G1 X69.337 Y87.877 E30.71640
G1 X65.654 Y84.194 E31.04334
G1 X65.279 Y84.531 E31.07498
G1 X68.981 Y88.233 E31.40362
G1 X68.625 Y88.589 E31.43522
G1 X64.904 Y84.868 E31.76556
G1 X64.529 Y85.204 E31.79720
G1 X68.440 Y89.115 E32.14436
G1 X68.289 Y89.676 E32.18084
G1 X64.154 Y85.541 E32.54794
G1 X63.779 Y85.878 E32.57958
G1 X68.169 Y90.268 E32.96930
G1 X68.429 Y91.240 E33.03250
G1 X63.404 Y86.215 E33.47865
G1 F2220.000 E31.87865
G92 E0
G1 X57.592 Y98.910 F15000.000
G1 X57.168 Y98.485 F2220.000 E1.60000
G1 X53.680 Y94.997 F1152.000 E1.90967
G1 X54.028 Y94.634 E1.94128
G1 X58.019 Y98.624 E2.29559
G1 X58.445 Y98.339 E2.32780
G1 X54.403 Y94.297 E2.68670
G1 X54.778 Y93.960 E2.71834
G1 X58.877 Y98.059 E3.08225
G1 X59.471 Y97.941 E3.12025
G1 X55.153 Y93.623 E3.50357
G1 X55.528 Y93.287 E3.53521
G1 X60.064 Y97.823 E3.93794
G1 X60.701 Y97.747 E3.97817
G1 X55.903 Y92.950 E4.40409
G1 X56.278 Y92.613 E4.43574
G1 X61.589 Y97.924 E4.90725
G1 X62.751 Y98.374 E4.98547
G1 X56.653 Y92.276 E5.52683
G1 X57.028 Y91.940 E5.55847
G1 X69.038 Y103.949 E6.62465
G1 X68.586 Y104.209 E6.65736
G1 X64.076 Y99.699 E7.05777
G1 X64.526 Y100.861 E7.13598
G1 X68.135 Y104.470 E7.45637
G1 X67.684 Y104.730 E7.48908
G1 X64.703 Y101.750 E7.75371
G1 X64.704 Y102.462 E7.79846
G1 X67.232 Y104.991 E8.02294
G1 X66.781 Y105.251 E8.05565
G1 X64.704 Y103.174 E8.24006
G1 X64.704 Y103.886 E8.28474
G1 X66.330 Y105.512 E8.42909
G1 X65.879 Y105.772 E8.46180
G1 X64.704 Y104.598 E8.56608
G1 X64.704 Y105.310 E8.61076
G1 X65.427 Y106.033 E8.67498
G1 F2220.000 E7.07498
G92 E0
G1 X56.122 Y105.270 F15000.000
G1 X55.698 Y104.845 F2220.000 E1.60000
G1 X50.901 Y100.049 F1152.000 E2.02586
G1 X51.085 Y101.656 F15000.000
G1 X50.766 Y101.337 F1152.000 E2.05418
G1 X50.834 Y100.693 E2.09483
G1 X55.021 Y104.880 E2.46662
G1 X56.122 Y104.558 F15000.000
G1 X51.052 Y99.487 F1152.000 E2.91682
G1 X51.226 Y98.950 E2.95227
G1 X56.122 Y103.846 E3.38694
G1 X56.122 Y103.134 E3.43163
G1 X51.401 Y98.413 E3.85078
G1 X51.594 Y97.894 E3.88552
G1 X56.122 Y102.422 E4.28753
G1 X56.183 Y101.771 E4.32862
G1 X51.855 Y97.443 E4.71280
G1 X52.116 Y96.992 E4.74551
G1 X56.301 Y101.177 E5.11702
G1 X56.419 Y100.583 E5.15502
G1 X52.377 Y96.542 E5.51385
G1 X52.667 Y96.120 E5.54599
G1 X56.676 Y100.129 E5.90192
G1 X56.961 Y99.702 E5.93414
G1 X53.004 Y95.745 E6.28540
G1 X53.342 Y95.371 E6.31704
G1 X57.246 Y99.275 E6.66364
G1 F2220.000 E5.06364
G92 E0
G1 X81.472 Y55.847 F15000.000
G1 X81.317 Y56.426 F2220.000 E1.60000
G1 X81.147 Y57.062 F624.000 E1.64105
G1 X80.204 Y58.005 E1.72418
G1 X78.916 Y58.350 E1.80733
G1 X77.629 Y58.005 E1.89047
G1 X76.686 Y57.062 E1.97361
G1 X76.341 Y55.774 E2.05675
G1 X76.686 Y54.486 E2.13989
G1 X77.629 Y53.544 E2.22304
G1 X78.916 Y53.199 E2.30618
G1 X80.204 Y53.544 E2.38932
G1 X81.147 Y54.486 E2.47246
G1 X81.401 Y55.436 E2.53377
G1 X81.472 Y55.847
G1 X80.955 Y55.847 F15000.000
G1 X80.698 Y56.803 F576.000 E2.59553
G1 X79.945 Y57.556 E2.66195
G1 X78.916 Y57.832 E2.72839
G1 X77.887 Y57.556 E2.79482
G1 X77.134 Y56.803 E2.86125
G1 X76.858 Y55.774 E2.92768
G1 X77.134 Y54.745 E2.99411
G1 X77.887 Y53.992 E3.06055
G1 X78.916 Y53.716 E3.12698
G1 X79.945 Y53.992 E3.19341
G1 X80.698 Y54.745 E3.25984
G1 X80.955 Y55.702 E3.32159
G1 X80.955 Y55.847 E3.33063
G1 X81.401 Y55.436 F2220.000 E1.73063
G92 E0
G1 X84.904 Y50.063 F15000.000
G1 X85.351 Y50.464 F2220.000 E1.60000
G1 X96.272 Y60.270 F720.000 E2.51533
G1 X97.708 Y61.861 E2.64899
G1 X98.761 Y63.682 E2.78018
G1 X99.412 Y65.682 E2.91137
G1 X99.599 Y67.450 E3.02225
G1 X93.537 Y72.416 E3.51092
G1 X93.537 Y67.700 E3.80501
G1 X93.250 Y66.257 E3.89679
G1 X92.390 Y64.971 E3.99326
G1 X91.104 Y64.111 E4.08973
G1 X89.587 Y63.810 E4.18620
G1 X88.070 Y64.111 E4.28267
G1 X86.783 Y64.971 E4.37914
G1 X85.924 Y66.257 E4.47562
G1 X85.637 Y67.700 E4.56739
G1 X85.637 Y72.711 E4.87985
G1 X60.536 Y58.220 E6.68732
G1 X60.536 Y48.649 E7.28419
G1 X60.249 Y47.206 E7.37596
G1 X59.389 Y45.920 E7.47243
G1 X58.103 Y45.060 E7.56891
G1 X56.586 Y44.758 E7.66538
G1 X55.069 Y45.060 E7.76185
G1 X53.783 Y45.920 E7.85832
G1 X52.923 Y47.206 E7.95479
